; G-Code originally generated by Simplify3D(R) Version 4.1.2
; This calibration test gcode modified by the Teaching Tech Calibration website: https://teachingtechyt.github.io/calibration.html
;M80 ; power supply on
G90
M82
M106 S0
M140 S60 ; custom bed temp
M190 S60 ; custom bed temp
M104 S210 T0 ; custom hot end temp
M109 S210 T0 ; custom hot end temp
G28 ; home all axes
;G29 ; probe ABL
;M420 S1 ; restore ABL mesh 
;customstart
G0 Z3; fix for delta printers that home at max
;process Process-1
;layer 1, Z = 0.120
T0
G92 E0.0000
G1 E-1 F2400 ; custom retraction
;fan1;
G1 Z0.120 F1200
G1 X71.3780 Y92.5720 F3000 ; custom feedrate
G1 E0 F2400 ; custom un-retraction/prime
G92 E0.0000
G1 X72.4300 Y92.1360 E0.0295 F900 ; custom feedrate
G1 X127.5700 Y92.1360 E1.4555
G1 X128.6220 Y92.5720 E1.4850
G1 X132.4280 Y96.3780 E1.6242
G1 X132.8640 Y97.4300 E1.6537
G1 X132.8640 Y102.5700 E1.7866
G1 X132.4280 Y103.6220 E1.8161
G1 X128.6220 Y107.4280 E1.9553
G1 X127.5700 Y107.8640 E1.9847
G1 X72.4300 Y107.8640 E3.4108
G1 X71.3780 Y107.4280 E3.4403
G1 X67.5720 Y103.6220 E3.5795
G1 X67.1360 Y102.5700 E3.6089
G1 X67.1360 Y97.4300 E3.7418
G1 X67.5720 Y96.3780 E3.7713
G1 X71.3780 Y92.5720 E3.9105
G92 E0.0000
G1 E-1 F2400 ; custom retraction
;zhop1
G1 X71.7040 Y93.0600 F3000 ; custom feedrate
G1 Z0.120 F1200
G1 E0 F2400 ; custom un-retraction/prime
G92 E0.0000
G1 X72.5450 Y92.7120 E0.0235 F900 ; custom feedrate
G1 X127.4550 Y92.7120 E1.4437
G1 X128.2960 Y93.0600 E1.4672
G1 X131.9400 Y96.7040 E1.6005
G1 X132.2880 Y97.5450 E1.6240
G1 X132.2880 Y102.4550 E1.7510
G1 X131.9400 Y103.2960 E1.7746
G1 X128.2960 Y106.9400 E1.9078
G1 X127.4550 Y107.2880 E1.9314
G1 X72.5450 Y107.2880 E3.3515
G1 X71.7040 Y106.9400 E3.3751
G1 X68.0600 Y103.2960 E3.5083
G1 X67.7120 Y102.4550 E3.5319
G1 X67.7120 Y97.5450 E3.6589
G1 X68.0600 Y96.7040 E3.6824
G1 X71.7040 Y93.0600 E3.8157
G92 E0.0000
G1 E-1 F2400 ; custom retraction
;zhop1
G1 X73.1190 Y95.2880 F3000 ; custom feedrate
G1 X73.0120 Y95.3960
G1 X73.5960 Y96.4400
G1 Z0.120 F1200
G1 E0 F2400 ; custom un-retraction/prime
G92 E0.0000
G1 X126.4040 Y96.4400 E1.3658 F720 ; custom feedrate
G1 X128.5600 Y98.5960 E1.4446
G1 X128.5600 Y101.4040 E1.5172
G1 X126.4040 Y103.5600 E1.5961
G1 X73.5960 Y103.5600 E2.9619
G1 X71.4400 Y101.4040 E3.0407
G1 X71.4400 Y98.5960 E3.1133
G1 X73.5960 Y96.4400 E3.1922
G1 X73.3580 Y95.8640 F3000 ; custom feedrate
G92 E0.0000
G1 X126.6420 Y95.8640 E1.3781 F720 ; custom feedrate
G1 X129.1360 Y98.3580 E1.4693
G1 X129.1360 Y101.6420 E1.5543
G1 X126.6420 Y104.1360 E1.6455
G1 X73.3580 Y104.1360 E3.0236
G1 X70.8640 Y101.6420 E3.1148
G1 X70.8640 Y98.3580 E3.1997
G1 X73.3580 Y95.8640 E3.2909
G1 X73.1190 Y95.2880 F3000 ; custom feedrate
G92 E0.0000
G1 X126.8810 Y95.2880 E1.3904 F540 ; custom feedrate
G1 X129.7120 Y98.1190 E1.4940
G1 X129.7120 Y101.8810 E1.5913
G1 X126.8810 Y104.7120 E1.6948
G1 X73.1190 Y104.7120 E3.0853
G1 X70.2880 Y101.8810 E3.1888
G1 X70.2880 Y98.1190 E3.2861
G1 X73.1190 Y95.2880 E3.3897
G1 X73.8890 Y103.2140 F3000 ; custom feedrate
G92 E0.0000
G1 X71.7860 Y101.1110 E0.0769 F720 ; custom feedrate
G1 X71.7860 Y100.2960 E0.0980
G1 X74.7040 Y103.2140 E0.2048
G1 X75.5180 Y103.2140 E0.2258
G1 X71.7860 Y99.4820 E0.3624
G1 X71.7860 Y98.7400 E0.3815
G1 X71.8220 Y98.7030 E0.3829
G1 X76.3330 Y103.2140 E0.5479
G1 X77.1480 Y103.2140 E0.5689
G1 X72.2290 Y98.2960 E0.7488
G1 X72.6370 Y97.8890 E0.7637
G1 X77.9620 Y103.2140 E0.9585
G1 X78.7770 Y103.2140 E0.9796
G1 X73.0440 Y97.4810 E1.1893
G1 X73.4510 Y97.0740 E1.2042
G1 X79.5910 Y103.2140 E1.4288
G1 X80.4060 Y103.2140 E1.4498
G1 X73.9770 Y96.7860 E1.6850
G1 X74.7920 Y96.7860 E1.7060
G1 X81.2210 Y103.2140 E1.9412
G1 X82.0350 Y103.2140 E1.9622
G1 X75.6060 Y96.7860 E2.1974
G1 X76.4210 Y96.7860 E2.2184
G1 X82.8500 Y103.2140 E2.4536
G1 X83.6640 Y103.2140 E2.4747
G1 X77.2360 Y96.7860 E2.7098
G1 X78.0500 Y96.7860 E2.7309
G1 X84.4790 Y103.2140 E2.9660
G1 X85.2930 Y103.2140 E2.9871
G1 X78.8650 Y96.7860 E3.2222
G1 X79.6790 Y96.7860 E3.2433
G1 X86.1080 Y103.2140 E3.4784
G1 X86.9230 Y103.2140 E3.4995
G1 X80.4940 Y96.7860 E3.7346
G1 X81.3080 Y96.7860 E3.7557
G1 X87.7370 Y103.2140 E3.9908
G1 X88.5520 Y103.2140 E4.0119
G1 X82.1230 Y96.7860 E4.2470
G1 X82.9380 Y96.7860 E4.2681
G1 X89.3660 Y103.2140 E4.5032
G1 X90.1810 Y103.2140 E4.5243
G1 X83.7520 Y96.7860 E4.7594
G1 X84.5670 Y96.7860 E4.7805
G1 X90.9960 Y103.2140 E5.0157
G1 X91.8100 Y103.2140 E5.0367
G1 X85.3810 Y96.7860 E5.2719
G1 X86.1960 Y96.7860 E5.2929
G1 X92.6250 Y103.2140 E5.5281
G1 X93.4390 Y103.2140 E5.5491
G1 X87.0110 Y96.7860 E5.7843
G1 X87.8250 Y96.7860 E5.8053
G1 X94.2540 Y103.2140 E6.0405
G1 X95.0690 Y103.2140 E6.0616
G1 X88.6400 Y96.7860 E6.2967
G1 X89.4540 Y96.7860 E6.3178
G1 X95.8830 Y103.2140 E6.5529
G1 X96.6980 Y103.2140 E6.5740
G1 X90.2690 Y96.7860 E6.8091
G1 X91.0840 Y96.7860 E6.8302
G1 X97.5120 Y103.2140 E7.0653
G1 X98.3270 Y103.2140 E7.0864
G1 X91.8980 Y96.7860 E7.3215
G1 X92.7130 Y96.7860 E7.3426
G1 X99.1410 Y103.2140 E7.5777
G1 X99.9560 Y103.2140 E7.5988
G1 X93.5270 Y96.7860 E7.8339
G1 X94.3420 Y96.7860 E7.8550
G1 X100.7710 Y103.2140 E8.0901
G1 X101.5850 Y103.2140 E8.1112
G1 X95.1560 Y96.7860 E8.3463
G1 X95.9710 Y96.7860 E8.3674
G1 X102.4000 Y103.2140 E8.6026
G1 X103.2140 Y103.2140 E8.6236
G1 X96.7860 Y96.7860 E8.8588
G1 X97.6000 Y96.7860 E8.8798
G1 X104.0290 Y103.2140 E9.1150
G1 X104.8440 Y103.2140 E9.1360
G1 X98.4150 Y96.7860 E9.3712
G1 X99.2290 Y96.7860 E9.3922
G1 X105.6580 Y103.2140 E9.6274
G1 X106.4730 Y103.2140 E9.6485
G1 X100.0440 Y96.7860 E9.8836
G1 X100.8590 Y96.7860 E9.9047
G1 X107.2870 Y103.2140 E10.1398
G1 X108.1020 Y103.2140 E10.1609
G1 X101.6730 Y96.7860 E10.3960
G1 X102.4880 Y96.7860 E10.4171
G1 X108.9170 Y103.2140 E10.6522
G1 X109.7310 Y103.2140 E10.6733
G1 X103.3020 Y96.7860 E10.9084
G1 X104.1170 Y96.7860 E10.9295
G1 X110.5460 Y103.2140 E11.1646
G1 X111.3600 Y103.2140 E11.1857
G1 X104.9310 Y96.7860 E11.4208
G1 X105.7460 Y96.7860 E11.4419
G1 X112.1750 Y103.2140 E11.6770
G1 X112.9890 Y103.2140 E11.6981
G1 X106.5610 Y96.7860 E11.9332
G1 X107.3750 Y96.7860 E11.9543
G1 X113.8040 Y103.2140 E12.1895
G1 X114.6190 Y103.2140 E12.2105
G1 X108.1900 Y96.7860 E12.4457
G1 X109.0040 Y96.7860 E12.4667
G1 X115.4330 Y103.2140 E12.7019
G1 X116.2480 Y103.2140 E12.7229
G1 X109.8190 Y96.7860 E12.9581
G1 X110.6340 Y96.7860 E12.9791
G1 X117.0620 Y103.2140 E13.2143
G1 X117.8770 Y103.2140 E13.2353
G1 X111.4480 Y96.7860 E13.4705
G1 X112.2630 Y96.7860 E13.4916
G1 X118.6920 Y103.2140 E13.7267
G1 X119.5060 Y103.2140 E13.7478
G1 X113.0770 Y96.7860 E13.9829
G1 X113.8920 Y96.7860 E14.0040
G1 X120.3210 Y103.2140 E14.2391
G1 X121.1350 Y103.2140 E14.2602
G1 X114.7070 Y96.7860 E14.4953
G1 X115.5210 Y96.7860 E14.5164
G1 X121.9500 Y103.2140 E14.7515
G1 X122.7650 Y103.2140 E14.7726
G1 X116.3360 Y96.7860 E15.0077
G1 X117.1500 Y96.7860 E15.0288
G1 X123.5790 Y103.2140 E15.2639
G1 X124.3940 Y103.2140 E15.2850
G1 X117.9650 Y96.7860 E15.5201
G1 X118.7790 Y96.7860 E15.5412
G1 X125.2080 Y103.2140 E15.7764
G1 X126.0230 Y103.2140 E15.7974
G1 X119.5940 Y96.7860 E16.0326
G1 X120.4090 Y96.7860 E16.0536
G1 X126.5490 Y102.9260 E16.2782
G1 X126.9560 Y102.5190 E16.2931
G1 X121.2230 Y96.7860 E16.5028
G1 X122.0380 Y96.7860 E16.5239
G1 X127.3630 Y102.1110 E16.7187
G1 X127.7710 Y101.7040 E16.7336
G1 X122.8520 Y96.7860 E16.9134
G1 X123.6670 Y96.7860 E16.9345
G1 X128.1780 Y101.2970 E17.0995
G1 X128.2140 Y101.2600 E17.1008
G1 X128.2140 Y100.5180 E17.1200
G1 X124.4820 Y96.7860 E17.2566
G1 X125.2960 Y96.7860 E17.2776
G1 X128.2140 Y99.7040 E17.3844
G1 X128.2140 Y98.8890 E17.4054
G1 X126.1110 Y96.7860 E17.4824
G92 E0.0000
G1 E-1 F2400 ; custom retraction
M104 S205 T0 ; custom hot end temp - A
M106 S255; custom fan 100% from layer 2
G1 Z0.240 F1200
G1 X126.5030 Y96.2000 F3000 ; custom feedrate
G1 E0 F2400 ; custom un-retraction/prime
G92 E0.0000
G1 X128.8000 Y98.4970 E0.0700 F1440 ; custom feedrate
G1 X128.8000 Y101.5030 E0.1348
G1 X126.5030 Y103.8000 E0.2048
G1 X73.4970 Y103.8000 E1.3472
G1 X71.2000 Y101.5030 E1.4172
G1 X71.2000 Y98.4970 E1.4820
G1 X73.4970 Y96.2000 E1.5520
G1 X126.5030 Y96.2000 E2.6945
G1 X126.7020 Y95.7200 F3000 ; custom feedrate
G92 E0.0000
G1 X129.2800 Y98.2980 E0.0786 F1440 ; custom feedrate
G1 X129.2800 Y101.7020 E0.1519
G1 X126.7020 Y104.2800 E0.2305
G1 X73.2980 Y104.2800 E1.3815
G1 X70.7200 Y101.7020 E1.4601
G1 X70.7200 Y98.2980 E1.5334
G1 X73.2980 Y95.7200 E1.6120
G1 X126.7020 Y95.7200 E2.7630
G1 X126.9010 Y95.2400 F3000 ; custom feedrate
G92 E0.0000
G1 X129.7600 Y98.0990 E0.0872 F1080 ; custom feedrate
G1 X129.7600 Y101.9010 E0.1691
G1 X126.9010 Y104.7600 E0.2562
G1 X73.0990 Y104.7600 E1.4158
G1 X70.2400 Y101.9010 E1.5029
G1 X70.2400 Y98.0990 E1.5849
G1 X73.0990 Y95.2400 E1.6720
G1 X126.9010 Y95.2400 E2.8316
G1 X128.5120 Y101.3560 F3000 ; custom feedrate
G92 E0.0000
G1 X126.3560 Y103.5120 E0.0657 F1440 ; custom feedrate
G1 X125.6770 Y103.5120 E0.0803
G1 X128.5120 Y100.6770 E0.1667
G1 X128.5120 Y99.9990 E0.1814
G1 X124.9990 Y103.5120 E0.2885
G1 X124.3200 Y103.5120 E0.3031
G1 X128.5120 Y99.3200 E0.4309
G1 X128.5120 Y98.6410 E0.4455
G1 X123.6410 Y103.5120 E0.5940
G1 X122.9620 Y103.5120 E0.6086
G1 X128.1850 Y98.2890 E0.7678
G1 X127.8450 Y97.9500 E0.7781
G1 X122.2830 Y103.5120 E0.9477
G1 X121.6040 Y103.5120 E0.9623
G1 X127.5060 Y97.6100 E1.1422
G1 X127.1670 Y97.2710 E1.1525
G1 X120.9260 Y103.5120 E1.3427
G1 X120.2470 Y103.5120 E1.3574
G1 X126.8270 Y96.9320 E1.5579
G1 X126.4880 Y96.5920 E1.5683
G1 X119.5680 Y103.5120 E1.7792
G1 X118.8890 Y103.5120 E1.7938
G1 X125.9130 Y96.4880 E2.0079
G1 X125.2340 Y96.4880 E2.0226
G1 X118.2100 Y103.5120 E2.2367
G1 X117.5320 Y103.5120 E2.2513
G1 X124.5560 Y96.4880 E2.4654
G1 X123.8770 Y96.4880 E2.4800
G1 X116.8530 Y103.5120 E2.6941
G1 X116.1740 Y103.5120 E2.7087
G1 X123.1980 Y96.4880 E2.9228
G1 X122.5190 Y96.4880 E2.9374
G1 X115.4950 Y103.5120 E3.1515
G1 X114.8160 Y103.5120 E3.1662
G1 X121.8400 Y96.4880 E3.3803
G1 X121.1610 Y96.4880 E3.3949
G1 X114.1370 Y103.5120 E3.6090
G1 X113.4590 Y103.5120 E3.6236
G1 X120.4830 Y96.4880 E3.8377
G1 X119.8040 Y96.4880 E3.8523
G1 X112.7800 Y103.5120 E4.0664
G1 X112.1010 Y103.5120 E4.0811
G1 X119.1250 Y96.4880 E4.2951
G1 X118.4460 Y96.4880 E4.3098
G1 X111.4220 Y103.5120 E4.5239
G1 X110.7430 Y103.5120 E4.5385
G1 X117.7670 Y96.4880 E4.7526
G1 X117.0880 Y96.4880 E4.7672
G1 X110.0640 Y103.5120 E4.9813
G1 X109.3860 Y103.5120 E4.9959
G1 X116.4100 Y96.4880 E5.2100
G1 X115.7310 Y96.4880 E5.2247
G1 X108.7070 Y103.5120 E5.4388
G1 X108.0280 Y103.5120 E5.4534
G1 X115.0520 Y96.4880 E5.6675
G1 X114.3730 Y96.4880 E5.6821
G1 X107.3490 Y103.5120 E5.8962
G1 X106.6700 Y103.5120 E5.9108
G1 X113.6940 Y96.4880 E6.1249
G1 X113.0160 Y96.4880 E6.1395
G1 X105.9920 Y103.5120 E6.3536
G1 X105.3130 Y103.5120 E6.3683
G1 X112.3370 Y96.4880 E6.5824
G1 X111.6580 Y96.4880 E6.5970
G1 X104.6340 Y103.5120 E6.8111
G1 X103.9550 Y103.5120 E6.8257
G1 X110.9790 Y96.4880 E7.0398
G1 X110.3000 Y96.4880 E7.0544
G1 X103.2760 Y103.5120 E7.2685
G1 X102.5970 Y103.5120 E7.2832
G1 X109.6210 Y96.4880 E7.4972
G1 X108.9430 Y96.4880 E7.5119
G1 X101.9190 Y103.5120 E7.7260
G1 X101.2400 Y103.5120 E7.7406
G1 X108.2640 Y96.4880 E7.9547
G1 X107.5850 Y96.4880 E7.9693
G1 X100.5610 Y103.5120 E8.1834
G1 X99.8820 Y103.5120 E8.1980
G1 X106.9060 Y96.4880 E8.4121
G1 X106.2270 Y96.4880 E8.4268
G1 X99.2030 Y103.5120 E8.6409
G1 X98.5250 Y103.5120 E8.6555
G1 X105.5490 Y96.4880 E8.8696
G1 X104.8700 Y96.4880 E8.8842
G1 X97.8460 Y103.5120 E9.0983
G1 X97.1670 Y103.5120 E9.1129
G1 X104.1910 Y96.4880 E9.3270
G1 X103.5120 Y96.4880 E9.3416
G1 X96.4880 Y103.5120 E9.5557
G1 X95.8090 Y103.5120 E9.5704
G1 X102.8330 Y96.4880 E9.7845
G1 X102.1540 Y96.4880 E9.7991
G1 X95.1300 Y103.5120 E10.0132
G1 X94.4520 Y103.5120 E10.0278
G1 X101.4760 Y96.4880 E10.2419
G1 X100.7970 Y96.4880 E10.2565
G1 X93.7730 Y103.5120 E10.4706
G1 X93.0940 Y103.5120 E10.4853
G1 X100.1180 Y96.4880 E10.6993
G1 X99.4390 Y96.4880 E10.7140
G1 X92.4150 Y103.5120 E10.9281
G1 X91.7360 Y103.5120 E10.9427
G1 X98.7600 Y96.4880 E11.1568
G1 X98.0810 Y96.4880 E11.1714
G1 X91.0570 Y103.5120 E11.3855
G1 X90.3790 Y103.5120 E11.4001
G1 X97.4030 Y96.4880 E11.6142
G1 X96.7240 Y96.4880 E11.6289
G1 X89.7000 Y103.5120 E11.8430
G1 X89.0210 Y103.5120 E11.8576
G1 X96.0450 Y96.4880 E12.0717
G1 X95.3660 Y96.4880 E12.0863
G1 X88.3420 Y103.5120 E12.3004
G1 X87.6630 Y103.5120 E12.3150
G1 X94.6870 Y96.4880 E12.5291
G1 X94.0090 Y96.4880 E12.5437
G1 X86.9850 Y103.5120 E12.7578
G1 X86.3060 Y103.5120 E12.7725
G1 X93.3300 Y96.4880 E12.9866
G1 X92.6510 Y96.4880 E13.0012
G1 X85.6270 Y103.5120 E13.2153
G1 X84.9480 Y103.5120 E13.2299
G1 X91.9720 Y96.4880 E13.4440
G1 X91.2930 Y96.4880 E13.4586
G1 X84.2690 Y103.5120 E13.6727
G1 X83.5900 Y103.5120 E13.6874
G1 X90.6140 Y96.4880 E13.9014
G1 X89.9360 Y96.4880 E13.9161
G1 X82.9120 Y103.5120 E14.1302
G1 X82.2330 Y103.5120 E14.1448
G1 X89.2570 Y96.4880 E14.3589
G1 X88.5780 Y96.4880 E14.3735
G1 X81.5540 Y103.5120 E14.5876
G1 X80.8750 Y103.5120 E14.6022
G1 X87.8990 Y96.4880 E14.8163
G1 X87.2200 Y96.4880 E14.8310
G1 X80.1960 Y103.5120 E15.0450
G1 X79.5170 Y103.5120 E15.0597
G1 X86.5410 Y96.4880 E15.2738
G1 X85.8630 Y96.4880 E15.2884
G1 X78.8390 Y103.5120 E15.5025
G1 X78.1600 Y103.5120 E15.5171
G1 X85.1840 Y96.4880 E15.7312
G1 X84.5050 Y96.4880 E15.7458
G1 X77.4810 Y103.5120 E15.9599
G1 X76.8020 Y103.5120 E15.9746
G1 X83.8260 Y96.4880 E16.1887
G1 X83.1470 Y96.4880 E16.2033
G1 X76.1230 Y103.5120 E16.4174
G1 X75.4450 Y103.5120 E16.4320
G1 X82.4690 Y96.4880 E16.6461
G1 X81.7900 Y96.4880 E16.6607
G1 X74.7660 Y103.5120 E16.8748
G1 X74.0870 Y103.5120 E16.8895
G1 X81.1110 Y96.4880 E17.1035
G1 X80.4320 Y96.4880 E17.1182
G1 X73.5120 Y103.4080 E17.3291
G1 X73.1730 Y103.0680 E17.3394
G1 X79.7530 Y96.4880 E17.5400
G1 X79.0740 Y96.4880 E17.5546
G1 X72.8330 Y102.7290 E17.7449
G1 X72.4940 Y102.3900 E17.7552
G1 X78.3960 Y96.4880 E17.9351
G1 X77.7170 Y96.4880 E17.9497
G1 X72.1550 Y102.0500 E18.1193
G1 X71.8150 Y101.7110 E18.1296
G1 X77.0380 Y96.4880 E18.2888
G1 X76.3590 Y96.4880 E18.3034
G1 X71.4880 Y101.3590 E18.4519
G1 X71.4880 Y100.6800 E18.4665
G1 X75.6800 Y96.4880 E18.5943
G1 X75.0010 Y96.4880 E18.6089
G1 X71.4880 Y100.0010 E18.7160
G1 X71.4880 Y99.3230 E18.7307
G1 X74.3230 Y96.4880 E18.8171
G1 X73.6440 Y96.4880 E18.8317
G1 X71.4880 Y98.6440 E18.8974
G92 E0.0000
G1 E-1 F2400 ; custom retraction
;layer 3, Z = 0.360
;fan3;
G1 Z0.360 F1200
G1 X71.2000 Y98.4970 F3000 ; custom feedrate
G1 E0 F2400 ; custom un-retraction/prime
G92 E0.0000
G1 X73.4970 Y96.2000 E0.0700 F1440 ; custom feedrate
G1 X126.5030 Y96.2000 E1.2124
G1 X128.8000 Y98.4970 E1.2824
G1 X128.8000 Y101.5030 E1.3472
G1 X126.5030 Y103.8000 E1.4172
G1 X73.4970 Y103.8000 E2.5597
G1 X71.2000 Y101.5030 E2.6297
G1 X71.2000 Y98.4970 E2.6945
G1 X70.7200 Y98.2980 F3000 ; custom feedrate
G92 E0.0000
G1 X73.2980 Y95.7200 E0.0786 F1440 ; custom feedrate
G1 X126.7020 Y95.7200 E1.2296
G1 X129.2800 Y98.2980 E1.3082
G1 X129.2800 Y101.7020 E1.3815
G1 X126.7020 Y104.2800 E1.4601
G1 X73.2980 Y104.2800 E2.6111
G1 X70.7200 Y101.7020 E2.6897
G1 X70.7200 Y98.2980 E2.7630
G1 X70.2400 Y98.0990 F3000 ; custom feedrate
G92 E0.0000
G1 X73.0990 Y95.2400 E0.0872 F1080 ; custom feedrate
G1 X126.9010 Y95.2400 E1.2467
G1 X129.7600 Y98.0990 E1.3339
G1 X129.7600 Y101.9010 E1.4158
G1 X126.9010 Y104.7600 E1.5029
G1 X73.0990 Y104.7600 E2.6625
G1 X70.2400 Y101.9010 E2.7497
G1 X70.2400 Y98.0990 E2.8316
G1 X73.6440 Y103.5120 F3000 ; custom feedrate
G92 E0.0000
G1 X71.4880 Y101.3560 E0.0657 F1440 ; custom feedrate
G1 X71.4880 Y100.6770 E0.0803
G1 X74.3230 Y103.5120 E0.1667
G1 X75.0010 Y103.5120 E0.1814
G1 X71.4880 Y99.9990 E0.2885
G1 X71.4880 Y99.3200 E0.3031
G1 X75.6800 Y103.5120 E0.4309
G1 X76.3590 Y103.5120 E0.4455
G1 X71.4880 Y98.6410 E0.5940
G1 X71.4880 Y98.6160 E0.5945
G1 X71.8150 Y98.2890 E0.6045
G1 X77.0380 Y103.5120 E0.7637
G1 X77.7170 Y103.5120 E0.7783
G1 X72.1550 Y97.9500 E0.9478
G1 X72.4940 Y97.6100 E0.9582
G1 X78.3960 Y103.5120 E1.1381
G1 X79.0740 Y103.5120 E1.1527
G1 X72.8330 Y97.2710 E1.3429
G1 X73.1730 Y96.9320 E1.3533
G1 X79.7530 Y103.5120 E1.5538
G1 X80.4320 Y103.5120 E1.5685
G1 X73.5120 Y96.5920 E1.7794
G1 X73.6160 Y96.4880 E1.7825
G1 X74.0870 Y96.4880 E1.7927
G1 X81.1110 Y103.5120 E2.0068
G1 X81.7900 Y103.5120 E2.0214
G1 X74.7660 Y96.4880 E2.2355
G1 X75.4450 Y96.4880 E2.2501
G1 X82.4690 Y103.5120 E2.4642
G1 X83.1470 Y103.5120 E2.4789
G1 X76.1230 Y96.4880 E2.6929
G1 X76.8020 Y96.4880 E2.7076
G1 X83.8260 Y103.5120 E2.9217
G1 X84.5050 Y103.5120 E2.9363
G1 X77.4810 Y96.4880 E3.1504
G1 X78.1600 Y96.4880 E3.1650
G1 X85.1840 Y103.5120 E3.3791
G1 X85.8630 Y103.5120 E3.3937
G1 X78.8390 Y96.4880 E3.6078
G1 X79.5170 Y96.4880 E3.6225
G1 X86.5410 Y103.5120 E3.8366
G1 X87.2200 Y103.5120 E3.8512
G1 X80.1960 Y96.4880 E4.0653
G1 X80.8750 Y96.4880 E4.0799
G1 X87.8990 Y103.5120 E4.2940
G1 X88.5780 Y103.5120 E4.3086
G1 X81.5540 Y96.4880 E4.5227
G1 X82.2330 Y96.4880 E4.5373
G1 X89.2570 Y103.5120 E4.7514
G1 X89.9360 Y103.5120 E4.7661
G1 X82.9120 Y96.4880 E4.9802
G1 X83.5900 Y96.4880 E4.9948
G1 X90.6140 Y103.5120 E5.2089
G1 X91.2930 Y103.5120 E5.2235
G1 X84.2690 Y96.4880 E5.4376
G1 X84.9480 Y96.4880 E5.4522
G1 X91.9720 Y103.5120 E5.6663
G1 X92.6510 Y103.5120 E5.6810
G1 X85.6270 Y96.4880 E5.8950
G1 X86.3060 Y96.4880 E5.9097
G1 X93.3300 Y103.5120 E6.1238
G1 X94.0080 Y103.5120 E6.1384
G1 X86.9840 Y96.4880 E6.3525
G1 X87.6630 Y96.4880 E6.3671
G1 X94.6870 Y103.5120 E6.5812
G1 X95.3660 Y103.5120 E6.5958
G1 X88.3420 Y96.4880 E6.8099
G1 X89.0210 Y96.4880 E6.8246
G1 X96.0450 Y103.5120 E7.0387
G1 X96.7240 Y103.5120 E7.0533
G1 X89.7000 Y96.4880 E7.2674
G1 X90.3790 Y96.4880 E7.2820
G1 X97.4030 Y103.5120 E7.4961
G1 X98.0810 Y103.5120 E7.5107
G1 X91.0570 Y96.4880 E7.7248
G1 X91.7360 Y96.4880 E7.7394
G1 X98.7600 Y103.5120 E7.9535
G1 X99.4390 Y103.5120 E7.9682
G1 X92.4150 Y96.4880 E8.1823
G1 X93.0940 Y96.4880 E8.1969
G1 X100.1180 Y103.5120 E8.4110
G1 X100.7970 Y103.5120 E8.4256
G1 X93.7730 Y96.4880 E8.6397
G1 X94.4520 Y96.4880 E8.6543
G1 X101.4760 Y103.5120 E8.8684
G1 X102.1540 Y103.5120 E8.8831
G1 X95.1300 Y96.4880 E9.0971
G1 X95.8090 Y96.4880 E9.1118
G1 X102.8330 Y103.5120 E9.3259
G1 X103.5120 Y103.5120 E9.3405
G1 X96.4880 Y96.4880 E9.5546
G1 X97.1670 Y96.4880 E9.5692
G1 X104.1910 Y103.5120 E9.7833
G1 X104.8700 Y103.5120 E9.7979
G1 X97.8460 Y96.4880 E10.0120
G1 X98.5240 Y96.4880 E10.0267
G1 X105.5480 Y103.5120 E10.2408
G1 X106.2270 Y103.5120 E10.2554
G1 X99.2030 Y96.4880 E10.4695
G1 X99.8820 Y96.4880 E10.4841
G1 X106.9060 Y103.5120 E10.6982
G1 X107.5850 Y103.5120 E10.7128
G1 X100.5610 Y96.4880 E10.9269
G1 X101.2400 Y96.4880 E10.9415
G1 X108.2640 Y103.5120 E11.1556
G1 X108.9430 Y103.5120 E11.1703
G1 X101.9190 Y96.4880 E11.3844
G1 X102.5970 Y96.4880 E11.3990
G1 X109.6210 Y103.5120 E11.6131
G1 X110.3000 Y103.5120 E11.6277
G1 X103.2760 Y96.4880 E11.8418
G1 X103.9550 Y96.4880 E11.8564
G1 X110.9790 Y103.5120 E12.0705
G1 X111.6580 Y103.5120 E12.0852
G1 X104.6340 Y96.4880 E12.2992
G1 X105.3130 Y96.4880 E12.3139
G1 X112.3370 Y103.5120 E12.5280
G1 X113.0160 Y103.5120 E12.5426
G1 X105.9920 Y96.4880 E12.7567
G1 X106.6700 Y96.4880 E12.7713
G1 X113.6940 Y103.5120 E12.9854
G1 X114.3730 Y103.5120 E13.0000
G1 X107.3490 Y96.4880 E13.2141
G1 X108.0280 Y96.4880 E13.2288
G1 X115.0520 Y103.5120 E13.4429
G1 X115.7310 Y103.5120 E13.4575
G1 X108.7070 Y96.4880 E13.6716
G1 X109.3860 Y96.4880 E13.6862
G1 X116.4100 Y103.5120 E13.9003
G1 X117.0880 Y103.5120 E13.9149
G1 X110.0640 Y96.4880 E14.1290
G1 X110.7430 Y96.4880 E14.1436
G1 X117.7670 Y103.5120 E14.3577
G1 X118.4460 Y103.5120 E14.3724
G1 X111.4220 Y96.4880 E14.5865
G1 X112.1010 Y96.4880 E14.6011
G1 X119.1250 Y103.5120 E14.8152
G1 X119.8040 Y103.5120 E14.8298
G1 X112.7800 Y96.4880 E15.0439
G1 X113.4590 Y96.4880 E15.0585
G1 X120.4830 Y103.5120 E15.2726
G1 X121.1610 Y103.5120 E15.2873
G1 X114.1370 Y96.4880 E15.5013
G1 X114.8160 Y96.4880 E15.5160
G1 X121.8400 Y103.5120 E15.7301
G1 X122.5190 Y103.5120 E15.7447
G1 X115.4950 Y96.4880 E15.9588
G1 X116.1740 Y96.4880 E15.9734
G1 X123.1980 Y103.5120 E16.1875
G1 X123.8770 Y103.5120 E16.2021
G1 X116.8530 Y96.4880 E16.4162
G1 X117.5320 Y96.4880 E16.4309
G1 X124.5560 Y103.5120 E16.6450
G1 X125.2340 Y103.5120 E16.6596
G1 X118.2100 Y96.4880 E16.8737
G1 X118.8890 Y96.4880 E16.8883
G1 X125.9130 Y103.5120 E17.1024
G1 X126.3840 Y103.5120 E17.1125
G1 X126.4880 Y103.4080 E17.1157
G1 X119.5680 Y96.4880 E17.3266
G1 X120.2470 Y96.4880 E17.3413
G1 X126.8270 Y103.0680 E17.5418
G1 X127.1670 Y102.7290 E17.5522
G1 X120.9260 Y96.4880 E17.7424
G1 X121.6040 Y96.4880 E17.7570
G1 X127.5060 Y102.3900 E17.9369
G1 X127.8450 Y102.0500 E17.9473
G1 X122.2830 Y96.4880 E18.1168
G1 X122.9620 Y96.4880 E18.1314
G1 X128.1850 Y101.7110 E18.2906
G1 X128.5120 Y101.3840 E18.3006
G1 X128.5120 Y101.3590 E18.3011
G1 X123.6410 Y96.4880 E18.4496
G1 X124.3200 Y96.4880 E18.4642
G1 X128.5120 Y100.6800 E18.5920
G1 X128.5120 Y100.0010 E18.6066
G1 X124.9990 Y96.4880 E18.7137
G1 X125.6770 Y96.4880 E18.7283
G1 X128.5120 Y99.3230 E18.8147
G1 X128.5120 Y98.6440 E18.8294
G1 X126.3560 Y96.4880 E18.8951
G92 E0.0000
G1 E-1 F2400 ; custom retraction
;layer 4, Z = 0.480
;fan4;
G1 Z0.480 F1200
G1 X126.5030 Y96.2000 F3000 ; custom feedrate
G1 E0 F2400 ; custom un-retraction/prime
G92 E0.0000
G1 X128.8000 Y98.4970 E0.0700 F1440 ; custom feedrate
G1 X128.8000 Y101.5030 E0.1348
G1 X126.5030 Y103.8000 E0.2048
G1 X73.4970 Y103.8000 E1.3472
G1 X71.2000 Y101.5030 E1.4172
G1 X71.2000 Y98.4970 E1.4820
G1 X73.4970 Y96.2000 E1.5520
G1 X126.5030 Y96.2000 E2.6945
G1 X126.7020 Y95.7200 F3000 ; custom feedrate
G92 E0.0000
G1 X129.2800 Y98.2980 E0.0786 F1440 ; custom feedrate
G1 X129.2800 Y101.7020 E0.1519
G1 X126.7020 Y104.2800 E0.2305
G1 X73.2980 Y104.2800 E1.3815
G1 X70.7200 Y101.7020 E1.4601
G1 X70.7200 Y98.2980 E1.5334
G1 X73.2980 Y95.7200 E1.6120
G1 X126.7020 Y95.7200 E2.7630
G1 X126.9010 Y95.2400 F3000 ; custom feedrate
G92 E0.0000
G1 X129.7600 Y98.0990 E0.0872 F1080 ; custom feedrate
G1 X129.7600 Y101.9010 E0.1691
G1 X126.9010 Y104.7600 E0.2562
G1 X73.0990 Y104.7600 E1.4158
G1 X70.2400 Y101.9010 E1.5029
G1 X70.2400 Y98.0990 E1.5849
G1 X73.0990 Y95.2400 E1.6720
G1 X126.9010 Y95.2400 E2.8316
G1 X128.4520 Y101.2470 F3000 ; custom feedrate
G92 E0.0000
G1 X126.2470 Y103.4520 E0.0840 F1800 ; custom feedrate
G1 X122.0040 Y103.4520 E0.1983
G1 X127.6330 Y97.8230 E0.4128
G1 X126.3590 Y96.5480 E0.4614
G1 X124.6650 Y96.5480 E0.5070
G1 X117.7610 Y103.4520 E0.7700
G1 X113.5190 Y103.4520 E0.8843
G1 X120.4230 Y96.5480 E1.1474
G1 X116.1800 Y96.5480 E1.2617
G1 X109.2760 Y103.4520 E1.5247
G1 X105.0330 Y103.4520 E1.6390
G1 X111.9370 Y96.5480 E1.9021
G1 X107.6950 Y96.5480 E2.0164
G1 X100.7910 Y103.4520 E2.2794
G1 X96.5480 Y103.4520 E2.3937
G1 X103.4520 Y96.5480 E2.6567
G1 X99.2090 Y96.5480 E2.7710
G1 X92.3050 Y103.4520 E3.0341
G1 X88.0630 Y103.4520 E3.1484
G1 X94.9670 Y96.5480 E3.4114
G1 X90.7240 Y96.5480 E3.5257
G1 X83.8200 Y103.4520 E3.7888
G1 X79.5770 Y103.4520 E3.9031
G1 X86.4810 Y96.5480 E4.1661
G1 X82.2390 Y96.5480 E4.2804
G1 X75.3350 Y103.4520 E4.5435
G1 X73.6410 Y103.4520 E4.5891
G1 X72.3670 Y102.1770 E4.6376
G1 X77.9960 Y96.5480 E4.8521
G1 X73.7540 Y96.5480 E4.9664
G1 X71.5480 Y98.7540 E5.0505
G92 E0.0000
G1 E-1 F2400 ; custom retraction
;layer 5, Z = 0.600
;fan5;
;
G1 Z0.600 F1200
G1 X71.2000 Y98.4970 F3000 ; custom feedrate
G1 E0 F2400 ; custom un-retraction/prime
G92 E0.0000
G1 X73.4970 Y96.2000 E0.0700 F1440 ; custom feedrate
G1 X126.5030 Y96.2000 E1.2124
G1 X128.8000 Y98.4970 E1.2824
G1 X128.8000 Y101.5030 E1.3472
G1 X126.5030 Y103.8000 E1.4172
G1 X73.4970 Y103.8000 E2.5597
G1 X71.2000 Y101.5030 E2.6297
G1 X71.2000 Y98.4970 E2.6945
G1 X70.7200 Y98.2980 F3000 ; custom feedrate
G92 E0.0000
G1 X73.2980 Y95.7200 E0.0786 F1440 ; custom feedrate
G1 X126.7020 Y95.7200 E1.2296
G1 X129.2800 Y98.2980 E1.3082
G1 X129.2800 Y101.7020 E1.3815
G1 X126.7020 Y104.2800 E1.4601
G1 X73.2980 Y104.2800 E2.6111
G1 X70.7200 Y101.7020 E2.6897
G1 X70.7200 Y98.2980 E2.7630
G1 X70.2400 Y98.0990 F3000 ; custom feedrate
G92 E0.0000
G1 X73.0990 Y95.2400 E0.0872 F1080 ; custom feedrate
G1 X126.9010 Y95.2400 E1.2467
G1 X129.7600 Y98.0990 E1.3339
G1 X129.7600 Y101.9010 E1.4158
G1 X126.9010 Y104.7600 E1.5029
G1 X73.0990 Y104.7600 E2.6625
G1 X70.2400 Y101.9010 E2.7497
G1 X70.2400 Y98.0990 E2.8316
G1 X73.6440 Y103.5120 F3000 ; custom feedrate
G92 E0.0000
G1 X71.4880 Y101.3560 E0.0657 F1440 ; custom feedrate
G1 X71.4880 Y100.6770 E0.0803
G1 X74.3230 Y103.5120 E0.1667
G1 X75.0010 Y103.5120 E0.1814
G1 X71.4880 Y99.9990 E0.2885
G1 X71.4880 Y99.3200 E0.3031
G1 X75.6800 Y103.5120 E0.4309
G1 X76.3590 Y103.5120 E0.4455
G1 X71.4880 Y98.6410 E0.5940
G1 X71.4880 Y98.6160 E0.5945
G1 X71.8150 Y98.2890 E0.6045
G1 X77.0380 Y103.5120 E0.7637
G1 X77.7170 Y103.5120 E0.7783
G1 X72.1550 Y97.9500 E0.9478
G1 X72.4940 Y97.6100 E0.9582
G1 X78.3960 Y103.5120 E1.1381
G1 X79.0740 Y103.5120 E1.1527
G1 X77.0740 Y101.5120 E1.2136
G1 X76.4880 Y101.5120 E1.2263
G1 X76.4880 Y100.9260 E1.2389
G1 X72.8330 Y97.2710 E1.3503
G1 X73.1730 Y96.9320 E1.3607
G1 X76.4880 Y100.2470 E1.4617
G1 X76.4880 Y99.5680 E1.4763
G1 X73.5120 Y96.5920 E1.5670
G1 X73.6160 Y96.4880 E1.5702
G1 X74.0870 Y96.4880 E1.5804
G1 X76.4880 Y98.8890 E1.6535
G1 X76.4880 Y98.4880 E1.6622
G1 X76.7660 Y98.4880 E1.6682
G1 X74.7660 Y96.4880 E1.7291
G1 X75.4450 Y96.4880 E1.7438
G1 X77.4450 Y98.4880 E1.8047
G1 X78.1230 Y98.4880 E1.8193
G1 X76.1230 Y96.4880 E1.8803
G1 X76.8020 Y96.4880 E1.8949
G1 X83.8260 Y103.5120 E2.1090
G1 X84.5050 Y103.5120 E2.1237
G1 X77.4810 Y96.4880 E2.3378
G1 X78.1600 Y96.4880 E2.3524
G1 X85.1840 Y103.5120 E2.5665
G1 X85.8630 Y103.5120 E2.5811
G1 X78.8390 Y96.4880 E2.7952
G1 X79.5170 Y96.4880 E2.8098
G1 X86.5410 Y103.5120 E3.0239
G1 X87.2200 Y103.5120 E3.0385
G1 X80.1960 Y96.4880 E3.2526
G1 X80.8750 Y96.4880 E3.2673
G1 X87.8990 Y103.5120 E3.4814
G1 X88.5780 Y103.5120 E3.4960
G1 X81.5540 Y96.4880 E3.7101
G1 X82.2330 Y96.4880 E3.7247
G1 X89.2570 Y103.5120 E3.9388
G1 X89.9360 Y103.5120 E3.9534
G1 X82.9120 Y96.4880 E4.1675
G1 X83.5900 Y96.4880 E4.1822
G1 X90.6140 Y103.5120 E4.3962
G1 X91.2930 Y103.5120 E4.4109
G1 X84.2690 Y96.4880 E4.6250
G1 X84.9480 Y96.4880 E4.6396
G1 X91.9720 Y103.5120 E4.8537
G1 X92.6510 Y103.5120 E4.8683
G1 X85.6270 Y96.4880 E5.0824
G1 X86.3060 Y96.4880 E5.0970
G1 X93.3300 Y103.5120 E5.3111
G1 X94.0080 Y103.5120 E5.3258
G1 X86.9840 Y96.4880 E5.5399
G1 X87.6630 Y96.4880 E5.5545
G1 X94.6870 Y103.5120 E5.7686
G1 X95.3660 Y103.5120 E5.7832
G1 X88.3420 Y96.4880 E5.9973
G1 X89.0210 Y96.4880 E6.0119
G1 X96.0450 Y103.5120 E6.2260
G1 X96.7240 Y103.5120 E6.2406
G1 X89.7000 Y96.4880 E6.4547
G1 X90.3790 Y96.4880 E6.4694
G1 X97.4030 Y103.5120 E6.6835
G1 X98.0810 Y103.5120 E6.6981
G1 X91.0570 Y96.4880 E6.9122
G1 X91.7360 Y96.4880 E6.9268
G1 X98.7600 Y103.5120 E7.1409
G1 X99.4390 Y103.5120 E7.1555
G1 X92.4150 Y96.4880 E7.3696
G1 X93.0940 Y96.4880 E7.3843
G1 X100.1180 Y103.5120 E7.5983
G1 X100.7970 Y103.5120 E7.6130
G1 X93.7730 Y96.4880 E7.8271
G1 X94.4520 Y96.4880 E7.8417
G1 X101.4760 Y103.5120 E8.0558
G1 X102.1540 Y103.5120 E8.0704
G1 X95.1300 Y96.4880 E8.2845
G1 X95.8090 Y96.4880 E8.2991
G1 X102.8330 Y103.5120 E8.5132
G1 X103.5120 Y103.5120 E8.5279
G1 X96.4880 Y96.4880 E8.7420
G1 X97.1670 Y96.4880 E8.7566
G1 X104.1910 Y103.5120 E8.9707
G1 X104.8700 Y103.5120 E8.9853
G1 X97.8460 Y96.4880 E9.1994
G1 X98.5240 Y96.4880 E9.2140
G1 X105.5480 Y103.5120 E9.4281
G1 X106.2270 Y103.5120 E9.4427
G1 X99.2030 Y96.4880 E9.6568
G1 X99.8820 Y96.4880 E9.6715
G1 X106.9060 Y103.5120 E9.8856
G1 X107.5850 Y103.5120 E9.9002
G1 X100.5610 Y96.4880 E10.1143
G1 X101.2400 Y96.4880 E10.1289
G1 X108.2640 Y103.5120 E10.3430
G1 X108.9430 Y103.5120 E10.3576
G1 X101.9190 Y96.4880 E10.5717
G1 X102.5970 Y96.4880 E10.5864
G1 X109.6210 Y103.5120 E10.8004
G1 X110.3000 Y103.5120 E10.8151
G1 X103.2760 Y96.4880 E11.0292
G1 X103.9550 Y96.4880 E11.0438
G1 X110.9790 Y103.5120 E11.2579
G1 X111.6580 Y103.5120 E11.2725
G1 X104.6340 Y96.4880 E11.4866
G1 X105.3130 Y96.4880 E11.5012
G1 X112.3370 Y103.5120 E11.7153
G1 X113.0160 Y103.5120 E11.7300
G1 X105.9920 Y96.4880 E11.9441
G1 X106.6700 Y96.4880 E11.9587
G1 X113.6940 Y103.5120 E12.1728
G1 X114.3730 Y103.5120 E12.1874
G1 X107.3490 Y96.4880 E12.4015
G1 X108.0280 Y96.4880 E12.4161
G1 X115.0520 Y103.5120 E12.6302
G1 X115.7310 Y103.5120 E12.6448
G1 X108.7070 Y96.4880 E12.8589
G1 X109.3860 Y96.4880 E12.8736
G1 X116.4100 Y103.5120 E13.0877
G1 X117.0880 Y103.5120 E13.1023
G1 X110.0640 Y96.4880 E13.3164
G1 X110.7430 Y96.4880 E13.3310
G1 X117.7670 Y103.5120 E13.5451
G1 X118.4460 Y103.5120 E13.5597
G1 X111.4220 Y96.4880 E13.7738
G1 X112.1010 Y96.4880 E13.7885
G1 X119.1250 Y103.5120 E14.0025
G1 X119.8040 Y103.5120 E14.0172
G1 X112.7800 Y96.4880 E14.2313
G1 X113.4590 Y96.4880 E14.2459
G1 X120.4830 Y103.5120 E14.4600
G1 X121.1610 Y103.5120 E14.4746
G1 X114.1370 Y96.4880 E14.6887
G1 X114.8160 Y96.4880 E14.7033
G1 X119.4710 Y101.1430 E14.8452
G1 X119.4710 Y100.4640 E14.8599
G1 X115.4950 Y96.4880 E14.9811
G1 X116.1740 Y96.4880 E14.9957
G1 X119.4710 Y99.7850 E15.0962
G1 X119.4710 Y99.1070 E15.1108
G1 X116.8530 Y96.4880 E15.1906
G1 X117.5320 Y96.4880 E15.2053
G1 X119.5320 Y98.4880 E15.2662
G1 X120.2100 Y98.4880 E15.2809
G1 X118.2100 Y96.4880 E15.3418
G1 X118.8890 Y96.4880 E15.3564
G1 X120.8890 Y98.4880 E15.4174
G1 X121.5680 Y98.4880 E15.4320
G1 X119.5680 Y96.4880 E15.4930
G1 X120.2470 Y96.4880 E15.5076
G1 X122.2470 Y98.4880 E15.5686
G1 X122.9260 Y98.4880 E15.5832
G1 X120.9260 Y96.4880 E15.6442
G1 X121.6040 Y96.4880 E15.6588
G1 X123.6040 Y98.4880 E15.7198
G1 X124.2830 Y98.4880 E15.7344
G1 X122.2830 Y96.4880 E15.7954
G1 X122.9620 Y96.4880 E15.8100
G1 X124.9620 Y98.4880 E15.8709
G1 X125.6410 Y98.4880 E15.8856
G1 X123.6410 Y96.4880 E15.9465
G1 X124.3200 Y96.4880 E15.9612
G1 X126.3200 Y98.4880 E16.0221
G1 X126.5120 Y98.4880 E16.0263
G1 X126.5120 Y98.6800 E16.0304
G1 X128.5120 Y100.6800 E16.0914
G1 X128.5120 Y100.0010 E16.1060
G1 X124.9990 Y96.4880 E16.2131
G1 X125.6770 Y96.4880 E16.2277
G1 X128.5120 Y99.3230 E16.3141
G1 X128.5120 Y98.6440 E16.3288
G1 X126.3560 Y96.4880 E16.3945
G1 X126.5120 Y99.3590 F3000 ; custom feedrate
G92 E0.0000
G1 X128.5120 Y101.3590 E0.0610 F1440 ; custom feedrate
G1 X128.5120 Y101.3840 E0.0615
G1 X128.1850 Y101.7110 E0.0715
G1 X126.5120 Y100.0380 E0.1224
G1 X126.5120 Y100.7170 E0.1371
G1 X127.8450 Y102.0500 E0.1777
G1 X127.5060 Y102.3900 E0.1881
G1 X126.5120 Y101.3960 E0.2184
G1 X126.5120 Y101.5120 E0.2209
G1 X125.9500 Y101.5120 E0.2330
G1 X127.1670 Y102.7290 E0.2701
G1 X126.8270 Y103.0680 E0.2804
G1 X125.2710 Y101.5120 E0.3279
G1 X124.5920 Y101.5120 E0.3425
G1 X126.4880 Y103.4080 E0.4003
G1 X126.3840 Y103.5120 E0.4035
G1 X125.9130 Y103.5120 E0.4136
G1 X123.9130 Y101.5120 E0.4746
G1 X123.2340 Y101.5120 E0.4892
G1 X125.2340 Y103.5120 E0.5502
G1 X124.5560 Y103.5120 E0.5648
G1 X122.5560 Y101.5120 E0.6257
G1 X121.8770 Y101.5120 E0.6404
G1 X123.8770 Y103.5120 E0.7013
G1 X123.1980 Y103.5120 E0.7160
G1 X121.1980 Y101.5120 E0.7769
G1 X120.5190 Y101.5120 E0.7916
G1 X122.5190 Y103.5120 E0.8525
G1 X121.8400 Y103.5120 E0.8671
G1 X119.8400 Y101.5120 E0.9281
G1 X78.5290 Y98.8930 F3000 ; custom feedrate
G92 E0.0000
G1 X83.1470 Y103.5120 E0.1408 F1440 ; custom feedrate
G1 X82.4690 Y103.5120 E0.1554
G1 X78.5290 Y99.5720 E0.2755
G1 X78.5290 Y100.2510 E0.2901
G1 X81.7900 Y103.5120 E0.3895
G1 X81.1110 Y103.5120 E0.4041
G1 X78.5290 Y100.9300 E0.4829
G1 X78.5290 Y101.5120 E0.4954
G1 X78.4320 Y101.5120 E0.4975
G1 X80.4320 Y103.5120 E0.5584
G1 X79.7530 Y103.5120 E0.5731
G1 X77.7530 Y101.5120 E0.6340
G1 X120.2410 Y99.0280 F3000 ; custom feedrate
G92 E0.0000
G1 X122.1850 Y100.9720 E0.0741 F1800 ; custom feedrate
G1 X125.9720 Y100.9720 E0.1761
G1 X125.9720 Y100.5160 E0.1884
G1 X124.4840 Y99.0280 E0.2451
G92 E0.0000
G1 E-1 F2400 ; custom retraction
;layer 6, Z = 0.720
;fan6;
G1 Z0.720 F1200
G1 X126.5030 Y96.2000 F3000 ; custom feedrate
G1 E0 F2400 ; custom un-retraction/prime
G92 E0.0000
G1 X128.8000 Y98.4970 E0.0700 F1440 ; custom feedrate
G1 X128.8000 Y101.5030 E0.1348
G1 X126.5030 Y103.8000 E0.2048
G1 X73.4970 Y103.8000 E1.3472
G1 X71.2000 Y101.5030 E1.4172
G1 X71.2000 Y98.4970 E1.4820
G1 X73.4970 Y96.2000 E1.5520
G1 X126.5030 Y96.2000 E2.6945
G1 X126.7020 Y95.7200 F3000 ; custom feedrate
G92 E0.0000
G1 X129.2800 Y98.2980 E0.0786 F1440 ; custom feedrate
G1 X129.2800 Y101.7020 E0.1519
G1 X126.7020 Y104.2800 E0.2305
G1 X73.2980 Y104.2800 E1.3815
G1 X70.7200 Y101.7020 E1.4601
G1 X70.7200 Y98.2980 E1.5334
G1 X73.2980 Y95.7200 E1.6120
G1 X126.7020 Y95.7200 E2.7630
G1 X126.9010 Y95.2400 F3000 ; custom feedrate
G92 E0.0000
G1 X129.7600 Y98.0990 E0.0872 F1080 ; custom feedrate
G1 X129.7600 Y101.9010 E0.1691
G1 X126.9010 Y104.7600 E0.2562
G1 X73.0990 Y104.7600 E1.4158
G1 X70.2400 Y101.9010 E1.5029
G1 X70.2400 Y98.0990 E1.5849
G1 X73.0990 Y95.2400 E1.6720
G1 X126.9010 Y95.2400 E2.8316
G1 X126.5120 Y101.3200 F3000 ; custom feedrate
G92 E0.0000
G1 X128.5120 Y99.3200 E0.0610 F1440 ; custom feedrate
G1 X128.5120 Y98.6410 E0.0756
G1 X126.5120 Y100.6410 E0.1366
G1 X126.5120 Y99.9620 E0.1512
G1 X128.1850 Y98.2890 E0.2022
G1 X127.8450 Y97.9500 E0.2125
G1 X126.5120 Y99.2830 E0.2532
G1 X126.5120 Y98.6040 E0.2678
G1 X127.5060 Y97.6100 E0.2981
G1 X127.1670 Y97.2710 E0.3084
G1 X125.9500 Y98.4880 E0.3455
G1 X125.2710 Y98.4880 E0.3602
G1 X126.8270 Y96.9320 E0.4076
G1 X126.4880 Y96.5920 E0.4179
G1 X124.5920 Y98.4880 E0.4757
G1 X123.9130 Y98.4880 E0.4904
G1 X125.9130 Y96.4880 E0.5513
G1 X125.2340 Y96.4880 E0.5659
G1 X123.2340 Y98.4880 E0.6269
G1 X122.5560 Y98.4880 E0.6415
G1 X124.5560 Y96.4880 E0.7025
G1 X123.8770 Y96.4880 E0.7171
G1 X121.8770 Y98.4880 E0.7781
G1 X121.1980 Y98.4880 E0.7927
G1 X123.1980 Y96.4880 E0.8537
G1 X122.5190 Y96.4880 E0.8683
G1 X120.5190 Y98.4880 E0.9293
G1 X128.5120 Y101.3560 F3000 ; custom feedrate
G92 E0.0000
G1 X126.3560 Y103.5120 E0.0657 F1440 ; custom feedrate
G1 X125.6770 Y103.5120 E0.0803
G1 X128.5120 Y100.6770 E0.1667
G1 X128.5120 Y99.9990 E0.1814
G1 X124.9990 Y103.5120 E0.2885
G1 X124.3200 Y103.5120 E0.3031
G1 X126.3200 Y101.5120 E0.3640
G1 X125.6410 Y101.5120 E0.3787
G1 X123.6410 Y103.5120 E0.4396
G1 X122.9620 Y103.5120 E0.4543
G1 X124.9620 Y101.5120 E0.5152
G1 X124.2830 Y101.5120 E0.5299
G1 X122.2830 Y103.5120 E0.5908
G1 X121.6040 Y103.5120 E0.6054
G1 X123.6040 Y101.5120 E0.6664
G1 X122.9260 Y101.5120 E0.6810
G1 X120.9260 Y103.5120 E0.7420
G1 X120.2470 Y103.5120 E0.7566
G1 X122.2470 Y101.5120 E0.8176
G1 X121.5680 Y101.5120 E0.8322
G1 X119.5680 Y103.5120 E0.8932
G1 X118.8890 Y103.5120 E0.9078
G1 X120.8890 Y101.5120 E0.9688
G1 X120.2100 Y101.5120 E0.9834
G1 X118.2100 Y103.5120 E1.0444
G1 X117.5320 Y103.5120 E1.0590
G1 X119.5320 Y101.5120 E1.1200
G1 X119.4710 Y101.5120 E1.1212
G1 X119.4710 Y100.8930 E1.1346
G1 X116.8530 Y103.5120 E1.2144
G1 X116.1740 Y103.5120 E1.2290
G1 X119.4710 Y100.2150 E1.3295
G1 X119.4710 Y99.5360 E1.3442
G1 X115.4950 Y103.5120 E1.4654
G1 X114.8160 Y103.5120 E1.4800
G1 X119.4710 Y98.8570 E1.6219
G1 X119.4710 Y98.4880 E1.6298
G1 X119.8400 Y98.4880 E1.6378
G1 X121.8400 Y96.4880 E1.6987
G1 X121.1610 Y96.4880 E1.7134
G1 X114.1370 Y103.5120 E1.9275
G1 X113.4590 Y103.5120 E1.9421
G1 X120.4830 Y96.4880 E2.1562
G1 X119.8040 Y96.4880 E2.1708
G1 X112.7800 Y103.5120 E2.3849
G1 X112.1010 Y103.5120 E2.3995
G1 X119.1250 Y96.4880 E2.6136
G1 X118.4460 Y96.4880 E2.6283
G1 X111.4220 Y103.5120 E2.8423
G1 X110.7430 Y103.5120 E2.8570
G1 X117.7670 Y96.4880 E3.0711
G1 X117.0880 Y96.4880 E3.0857
G1 X110.0640 Y103.5120 E3.2998
G1 X109.3860 Y103.5120 E3.3144
G1 X116.4100 Y96.4880 E3.5285
G1 X115.7310 Y96.4880 E3.5431
G1 X108.7070 Y103.5120 E3.7572
G1 X108.0280 Y103.5120 E3.7719
G1 X115.0520 Y96.4880 E3.9860
G1 X114.3730 Y96.4880 E4.0006
G1 X107.3490 Y103.5120 E4.2147
G1 X106.6700 Y103.5120 E4.2293
G1 X113.6940 Y96.4880 E4.4434
G1 X113.0160 Y96.4880 E4.4580
G1 X105.9920 Y103.5120 E4.6721
G1 X105.3130 Y103.5120 E4.6867
G1 X112.3370 Y96.4880 E4.9008
G1 X111.6580 Y96.4880 E4.9155
G1 X104.6340 Y103.5120 E5.1296
G1 X103.9550 Y103.5120 E5.1442
G1 X110.9790 Y96.4880 E5.3583
G1 X110.3000 Y96.4880 E5.3729
G1 X103.2760 Y103.5120 E5.5870
G1 X102.5970 Y103.5120 E5.6016
G1 X109.6210 Y96.4880 E5.8157
G1 X108.9430 Y96.4880 E5.8304
G1 X101.9190 Y103.5120 E6.0444
G1 X101.2400 Y103.5120 E6.0591
G1 X108.2640 Y96.4880 E6.2732
G1 X107.5850 Y96.4880 E6.2878
G1 X100.5610 Y103.5120 E6.5019
G1 X99.8820 Y103.5120 E6.5165
G1 X106.9060 Y96.4880 E6.7306
G1 X106.2270 Y96.4880 E6.7452
G1 X99.2030 Y103.5120 E6.9593
G1 X98.5250 Y103.5120 E6.9740
G1 X105.5490 Y96.4880 E7.1881
G1 X104.8700 Y96.4880 E7.2027
G1 X97.8460 Y103.5120 E7.4168
G1 X97.1670 Y103.5120 E7.4314
G1 X104.1910 Y96.4880 E7.6455
G1 X103.5120 Y96.4880 E7.6601
G1 X96.4880 Y103.5120 E7.8742
G1 X95.8090 Y103.5120 E7.8888
G1 X102.8330 Y96.4880 E8.1029
G1 X102.1540 Y96.4880 E8.1176
G1 X95.1300 Y103.5120 E8.3317
G1 X94.4520 Y103.5120 E8.3463
G1 X101.4760 Y96.4880 E8.5604
G1 X100.7970 Y96.4880 E8.5750
G1 X93.7730 Y103.5120 E8.7891
G1 X93.0940 Y103.5120 E8.8037
G1 X100.1180 Y96.4880 E9.0178
G1 X99.4390 Y96.4880 E9.0325
G1 X92.4150 Y103.5120 E9.2465
G1 X91.7360 Y103.5120 E9.2612
G1 X98.7600 Y96.4880 E9.4753
G1 X98.0810 Y96.4880 E9.4899
G1 X91.0570 Y103.5120 E9.7040
G1 X90.3790 Y103.5120 E9.7186
G1 X97.4030 Y96.4880 E9.9327
G1 X96.7240 Y96.4880 E9.9473
G1 X89.7000 Y103.5120 E10.1614
G1 X89.0210 Y103.5120 E10.1761
G1 X96.0450 Y96.4880 E10.3902
G1 X95.3660 Y96.4880 E10.4048
G1 X88.3420 Y103.5120 E10.6189
G1 X87.6630 Y103.5120 E10.6335
G1 X94.6870 Y96.4880 E10.8476
G1 X94.0090 Y96.4880 E10.8622
G1 X86.9850 Y103.5120 E11.0763
G1 X86.3060 Y103.5120 E11.0909
G1 X93.3300 Y96.4880 E11.3050
G1 X92.6510 Y96.4880 E11.3197
G1 X85.6270 Y103.5120 E11.5338
G1 X84.9480 Y103.5120 E11.5484
G1 X91.9720 Y96.4880 E11.7625
G1 X91.2930 Y96.4880 E11.7771
G1 X84.2690 Y103.5120 E11.9912
G1 X83.5900 Y103.5120 E12.0058
G1 X90.6140 Y96.4880 E12.2199
G1 X89.9360 Y96.4880 E12.2346
G1 X82.9120 Y103.5120 E12.4486
G1 X82.2330 Y103.5120 E12.4633
G1 X89.2570 Y96.4880 E12.6774
G1 X88.5780 Y96.4880 E12.6920
G1 X81.5540 Y103.5120 E12.9061
G1 X80.8750 Y103.5120 E12.9207
G1 X87.8990 Y96.4880 E13.1348
G1 X87.2200 Y96.4880 E13.1494
G1 X80.1960 Y103.5120 E13.3635
G1 X79.5170 Y103.5120 E13.3782
G1 X86.5410 Y96.4880 E13.5922
G1 X85.8630 Y96.4880 E13.6069
G1 X78.8390 Y103.5120 E13.8210
G1 X78.1600 Y103.5120 E13.8356
G1 X85.1840 Y96.4880 E14.0497
G1 X84.5050 Y96.4880 E14.0643
G1 X77.4810 Y103.5120 E14.2784
G1 X76.8020 Y103.5120 E14.2930
G1 X83.8260 Y96.4880 E14.5071
G1 X83.1470 Y96.4880 E14.5218
G1 X78.5290 Y101.1070 E14.6625
G1 X78.5290 Y101.5120 E14.6713
G1 X78.1230 Y101.5120 E14.6800
G1 X76.1230 Y103.5120 E14.7410
G1 X75.4450 Y103.5120 E14.7556
G1 X77.4450 Y101.5120 E14.8166
G1 X76.7660 Y101.5120 E14.8312
G1 X74.7660 Y103.5120 E14.8922
G1 X74.0870 Y103.5120 E14.9068
G1 X76.4880 Y101.1110 E14.9800
G1 X76.4880 Y100.4320 E14.9946
G1 X73.5120 Y103.4080 E15.0853
G1 X73.1730 Y103.0680 E15.0956
G1 X76.4880 Y99.7530 E15.1967
G1 X76.4880 Y99.0740 E15.2113
G1 X72.8330 Y102.7290 E15.3227
G1 X72.4940 Y102.3900 E15.3331
G1 X78.3960 Y96.4880 E15.5129
G1 X77.7170 Y96.4880 E15.5276
G1 X72.1550 Y102.0500 E15.6971
G1 X71.8150 Y101.7110 E15.7075
G1 X77.0380 Y96.4880 E15.8666
G1 X76.3590 Y96.4880 E15.8813
G1 X71.4880 Y101.3590 E16.0297
G1 X71.4880 Y100.6800 E16.0444
G1 X75.6800 Y96.4880 E16.1722
G1 X75.0010 Y96.4880 E16.1868
G1 X71.4880 Y100.0010 E16.2939
G1 X71.4880 Y99.3230 E16.3085
G1 X74.3230 Y96.4880 E16.3949
G1 X73.6440 Y96.4880 E16.4095
G1 X71.4880 Y98.6440 E16.4753
G1 X77.0740 Y98.4880 F3000 ; custom feedrate
G92 E0.0000
G1 X79.0740 Y96.4880 E0.0610 F1440 ; custom feedrate
G1 X79.7530 Y96.4880 E0.0756
G1 X77.7530 Y98.4880 E0.1365
G1 X78.4320 Y98.4880 E0.1512
G1 X80.4320 Y96.4880 E0.2121
G1 X81.1110 Y96.4880 E0.2268
G1 X78.5290 Y99.0700 E0.3055
G1 X78.5290 Y99.7490 E0.3201
G1 X81.7900 Y96.4880 E0.4195
G1 X82.4690 Y96.4880 E0.4341
G1 X78.5290 Y100.4280 E0.5542
G1 X120.2410 Y100.9720 F3000 ; custom feedrate
G92 E0.0000
G1 X122.1850 Y99.0280 E0.0741 F1800 ; custom feedrate
G1 X125.9720 Y99.0280 E0.1761
G1 X125.9720 Y99.4840 E0.1884
G1 X124.4840 Y100.9720 E0.2451
G92 E0.0000
G1 E-1 F2400 ; custom retraction
;layer 7, Z = 0.840
;fan7;
G1 Z0.840 F1200
G1 X126.5030 Y103.8000 F3000 ; custom feedrate
G1 E0 F2400 ; custom un-retraction/prime
G92 E0.0000
G1 X73.4970 Y103.8000 E1.1424 F1440 ; custom feedrate
G1 X71.2000 Y101.5030 E1.2124
G1 X71.2000 Y98.4970 E1.2772
G1 X73.4970 Y96.2000 E1.3472
G1 X126.5030 Y96.2000 E2.4896
G1 X128.8000 Y98.4970 E2.5597
G1 X128.8000 Y101.5030 E2.6244
G1 X126.5030 Y103.8000 E2.6945
G1 X126.7020 Y104.2800 F3000 ; custom feedrate
G92 E0.0000
G1 X73.2980 Y104.2800 E1.1510 F1440 ; custom feedrate
G1 X70.7200 Y101.7020 E1.2296
G1 X70.7200 Y98.2980 E1.3029
G1 X73.2980 Y95.7200 E1.3815
G1 X126.7020 Y95.7200 E2.5325
G1 X129.2800 Y98.2980 E2.6111
G1 X129.2800 Y101.7020 E2.6844
G1 X126.7020 Y104.2800 E2.7630
G1 X126.9010 Y104.7600 F3000 ; custom feedrate
G92 E0.0000
G1 X73.0990 Y104.7600 E1.1596 F1080 ; custom feedrate
G1 X70.2400 Y101.9010 E1.2467
G1 X70.2400 Y98.0990 E1.3286
G1 X73.0990 Y95.2400 E1.4158
G1 X126.9010 Y95.2400 E2.5753
G1 X129.7600 Y98.0990 E2.6625
G1 X129.7600 Y101.9010 E2.7444
G1 X126.9010 Y104.7600 E2.8316
G1 X126.5120 Y99.3590 F3000 ; custom feedrate
G92 E0.0000
G1 X128.5120 Y101.3590 E0.0610 F1440 ; custom feedrate
G1 X128.5120 Y101.3840 E0.0615
G1 X128.1850 Y101.7110 E0.0715
G1 X126.5120 Y100.0380 E0.1224
G1 X126.5120 Y100.7170 E0.1371
G1 X127.8450 Y102.0500 E0.1777
G1 X127.5060 Y102.3900 E0.1881
G1 X126.5120 Y101.3960 E0.2184
G1 X126.5120 Y101.5120 E0.2209
G1 X125.9500 Y101.5120 E0.2330
G1 X127.1670 Y102.7290 E0.2701
G1 X126.8270 Y103.0680 E0.2804
G1 X125.2710 Y101.5120 E0.3279
G1 X124.5920 Y101.5120 E0.3425
G1 X126.4880 Y103.4080 E0.4003
G1 X126.3840 Y103.5120 E0.4035
G1 X125.9130 Y103.5120 E0.4136
G1 X123.9130 Y101.5120 E0.4746
G1 X123.2340 Y101.5120 E0.4892
G1 X125.2340 Y103.5120 E0.5502
G1 X124.5560 Y103.5120 E0.5648
G1 X122.5560 Y101.5120 E0.6257
G1 X121.8770 Y101.5120 E0.6404
G1 X123.8770 Y103.5120 E0.7013
G1 X123.1980 Y103.5120 E0.7160
G1 X121.1980 Y101.5120 E0.7769
G1 X120.5190 Y101.5120 E0.7916
G1 X122.5190 Y103.5120 E0.8525
G1 X121.8400 Y103.5120 E0.8671
G1 X119.8400 Y101.5120 E0.9281
G1 X126.3560 Y96.4880 F3000 ; custom feedrate
G92 E0.0000
G1 X128.5120 Y98.6440 E0.0657 F1440 ; custom feedrate
G1 X128.5120 Y99.3230 E0.0803
G1 X125.6770 Y96.4880 E0.1667
G1 X124.9990 Y96.4880 E0.1814
G1 X128.5120 Y100.0010 E0.2885
G1 X128.5120 Y100.6800 E0.3031
G1 X126.5120 Y98.6800 E0.3640
G1 X126.5120 Y98.4880 E0.3682
G1 X126.3200 Y98.4880 E0.3723
G1 X124.3200 Y96.4880 E0.4333
G1 X123.6410 Y96.4880 E0.4479
G1 X125.6410 Y98.4880 E0.5089
G1 X124.9620 Y98.4880 E0.5235
G1 X122.9620 Y96.4880 E0.5845
G1 X122.2830 Y96.4880 E0.5991
G1 X124.2830 Y98.4880 E0.6601
G1 X123.6040 Y98.4880 E0.6747
G1 X121.6040 Y96.4880 E0.7357
G1 X120.9260 Y96.4880 E0.7503
G1 X122.9260 Y98.4880 E0.8112
G1 X122.2470 Y98.4880 E0.8259
G1 X120.2470 Y96.4880 E0.8868
G1 X119.5680 Y96.4880 E0.9015
G1 X121.5680 Y98.4880 E0.9624
G1 X120.8890 Y98.4880 E0.9771
G1 X118.8890 Y96.4880 E1.0380
G1 X118.2100 Y96.4880 E1.0526
G1 X120.2100 Y98.4880 E1.1136
G1 X119.5320 Y98.4880 E1.1282
G1 X117.5320 Y96.4880 E1.1892
G1 X116.8530 Y96.4880 E1.2038
G1 X119.4710 Y99.1070 E1.2836
G1 X119.4710 Y99.7850 E1.2983
G1 X116.1740 Y96.4880 E1.3988
G1 X115.4950 Y96.4880 E1.4134
G1 X119.4710 Y100.4640 E1.5346
G1 X119.4710 Y101.1430 E1.5492
G1 X114.8160 Y96.4880 E1.6911
G1 X114.1370 Y96.4880 E1.7058
G1 X121.1610 Y103.5120 E1.9198
G1 X120.4830 Y103.5120 E1.9345
G1 X113.4590 Y96.4880 E2.1486
G1 X112.7800 Y96.4880 E2.1632
G1 X119.8040 Y103.5120 E2.3773
G1 X119.1250 Y103.5120 E2.3919
G1 X112.1010 Y96.4880 E2.6060
G1 X111.4220 Y96.4880 E2.6206
G1 X118.4460 Y103.5120 E2.8347
G1 X117.7670 Y103.5120 E2.8494
G1 X110.7430 Y96.4880 E3.0635
G1 X110.0640 Y96.4880 E3.0781
G1 X117.0880 Y103.5120 E3.2922
G1 X116.4100 Y103.5120 E3.3068
G1 X109.3860 Y96.4880 E3.5209
G1 X108.7070 Y96.4880 E3.5355
G1 X115.7310 Y103.5120 E3.7496
G1 X115.0520 Y103.5120 E3.7642
G1 X108.0280 Y96.4880 E3.9783
G1 X107.3490 Y96.4880 E3.9930
G1 X114.3730 Y103.5120 E4.2071
G1 X113.6940 Y103.5120 E4.2217
G1 X106.6700 Y96.4880 E4.4358
G1 X105.9920 Y96.4880 E4.4504
G1 X113.0160 Y103.5120 E4.6645
G1 X112.3370 Y103.5120 E4.6791
G1 X105.3130 Y96.4880 E4.8932
G1 X104.6340 Y96.4880 E4.9079
G1 X111.6580 Y103.5120 E5.1219
G1 X110.9790 Y103.5120 E5.1366
G1 X103.9550 Y96.4880 E5.3507
G1 X103.2760 Y96.4880 E5.3653
G1 X110.3000 Y103.5120 E5.5794
G1 X109.6210 Y103.5120 E5.5940
G1 X102.5970 Y96.4880 E5.8081
G1 X101.9190 Y96.4880 E5.8227
G1 X108.9430 Y103.5120 E6.0368
G1 X108.2640 Y103.5120 E6.0515
G1 X101.2400 Y96.4880 E6.2656
G1 X100.5610 Y96.4880 E6.2802
G1 X107.5850 Y103.5120 E6.4943
G1 X106.9060 Y103.5120 E6.5089
G1 X99.8820 Y96.4880 E6.7230
G1 X99.2030 Y96.4880 E6.7376
G1 X106.2270 Y103.5120 E6.9517
G1 X105.5480 Y103.5120 E6.9663
G1 X98.5240 Y96.4880 E7.1804
G1 X97.8460 Y96.4880 E7.1951
G1 X104.8700 Y103.5120 E7.4092
G1 X104.1910 Y103.5120 E7.4238
G1 X97.1670 Y96.4880 E7.6379
G1 X96.4880 Y96.4880 E7.6525
G1 X103.5120 Y103.5120 E7.8666
G1 X102.8330 Y103.5120 E7.8812
G1 X95.8090 Y96.4880 E8.0953
G1 X95.1300 Y96.4880 E8.1100
G1 X102.1540 Y103.5120 E8.3240
G1 X101.4760 Y103.5120 E8.3387
G1 X94.4520 Y96.4880 E8.5528
G1 X93.7730 Y96.4880 E8.5674
G1 X100.7970 Y103.5120 E8.7815
G1 X100.1180 Y103.5120 E8.7961
G1 X93.0940 Y96.4880 E9.0102
G1 X92.4150 Y96.4880 E9.0248
G1 X99.4390 Y103.5120 E9.2389
G1 X98.7600 Y103.5120 E9.2536
G1 X91.7360 Y96.4880 E9.4677
G1 X91.0570 Y96.4880 E9.4823
G1 X98.0810 Y103.5120 E9.6964
G1 X97.4030 Y103.5120 E9.7110
G1 X90.3790 Y96.4880 E9.9251
G1 X89.7000 Y96.4880 E9.9397
G1 X96.7240 Y103.5120 E10.1538
G1 X96.0450 Y103.5120 E10.1684
G1 X89.0210 Y96.4880 E10.3825
G1 X88.3420 Y96.4880 E10.3972
G1 X95.3660 Y103.5120 E10.6113
G1 X94.6870 Y103.5120 E10.6259
G1 X87.6630 Y96.4880 E10.8400
G1 X86.9840 Y96.4880 E10.8546
G1 X94.0080 Y103.5120 E11.0687
G1 X93.3300 Y103.5120 E11.0833
G1 X86.3060 Y96.4880 E11.2974
G1 X85.6270 Y96.4880 E11.3121
G1 X92.6510 Y103.5120 E11.5261
G1 X91.9720 Y103.5120 E11.5408
G1 X84.9480 Y96.4880 E11.7549
G1 X84.2690 Y96.4880 E11.7695
G1 X91.2930 Y103.5120 E11.9836
G1 X90.6140 Y103.5120 E11.9982
G1 X83.5900 Y96.4880 E12.2123
G1 X82.9120 Y96.4880 E12.2269
G1 X89.9360 Y103.5120 E12.4410
G1 X89.2570 Y103.5120 E12.4557
G1 X82.2330 Y96.4880 E12.6697
G1 X81.5540 Y96.4880 E12.6844
G1 X88.5780 Y103.5120 E12.8985
G1 X87.8990 Y103.5120 E12.9131
G1 X80.8750 Y96.4880 E13.1272
G1 X80.1960 Y96.4880 E13.1418
G1 X87.2200 Y103.5120 E13.3559
G1 X86.5410 Y103.5120 E13.3705
G1 X79.5170 Y96.4880 E13.5846
G1 X78.8390 Y96.4880 E13.5993
G1 X85.8630 Y103.5120 E13.8134
G1 X85.1840 Y103.5120 E13.8280
G1 X78.1600 Y96.4880 E14.0421
G1 X77.4810 Y96.4880 E14.0567
G1 X84.5050 Y103.5120 E14.2708
G1 X83.8260 Y103.5120 E14.2854
G1 X76.8020 Y96.4880 E14.4995
G1 X76.1230 Y96.4880 E14.5142
G1 X78.1230 Y98.4880 E14.5751
G1 X77.4450 Y98.4880 E14.5897
G1 X75.4450 Y96.4880 E14.6507
G1 X74.7660 Y96.4880 E14.6653
G1 X76.7660 Y98.4880 E14.7263
G1 X76.4880 Y98.4880 E14.7323
G1 X76.4880 Y98.8890 E14.7409
G1 X74.0870 Y96.4880 E14.8141
G1 X73.6160 Y96.4880 E14.8242
G1 X73.5120 Y96.5920 E14.8274
G1 X76.4880 Y99.5680 E14.9181
G1 X76.4880 Y100.2470 E14.9328
G1 X73.1730 Y96.9320 E15.0338
G1 X72.8330 Y97.2710 E15.0441
G1 X76.4880 Y100.9260 E15.1555
G1 X76.4880 Y101.5120 E15.1682
G1 X77.0740 Y101.5120 E15.1808
G1 X79.0740 Y103.5120 E15.2418
G1 X78.3960 Y103.5120 E15.2564
G1 X72.4940 Y97.6100 E15.4363
G1 X72.1550 Y97.9500 E15.4466
G1 X77.7170 Y103.5120 E15.6162
G1 X77.0380 Y103.5120 E15.6308
G1 X71.8150 Y98.2890 E15.7900
G1 X71.4880 Y98.6160 E15.8000
G1 X71.4880 Y98.6410 E15.8005
G1 X76.3590 Y103.5120 E15.9490
G1 X75.6800 Y103.5120 E15.9636
G1 X71.4880 Y99.3200 E16.0914
G1 X71.4880 Y99.9990 E16.1060
G1 X75.0010 Y103.5120 E16.2131
G1 X74.3230 Y103.5120 E16.2277
G1 X71.4880 Y100.6770 E16.3141
G1 X71.4880 Y101.3560 E16.3288
G1 X73.6440 Y103.5120 E16.3945
G1 X77.7530 Y101.5120 F3000 ; custom feedrate
G92 E0.0000
G1 X79.7530 Y103.5120 E0.0610 F1440 ; custom feedrate
G1 X80.4320 Y103.5120 E0.0756
G1 X78.4320 Y101.5120 E0.1366
G1 X78.5290 Y101.5120 E0.1386
G1 X78.5290 Y100.9300 E0.1512
G1 X81.1110 Y103.5120 E0.2299
G1 X81.7900 Y103.5120 E0.2445
G1 X78.5290 Y100.2510 E0.3439
G1 X78.5290 Y99.5720 E0.3585
G1 X82.4690 Y103.5120 E0.4786
G1 X83.1470 Y103.5120 E0.4933
G1 X78.5290 Y98.8930 E0.6340
G1 X120.2410 Y99.0280 F3000 ; custom feedrate
G92 E0.0000
G1 X122.1850 Y100.9720 E0.0741 F1800 ; custom feedrate
G1 X125.9720 Y100.9720 E0.1761
G1 X125.9720 Y100.5160 E0.1884
G1 X124.4840 Y99.0280 E0.2451
G92 E0.0000
G1 E-1 F2400 ; custom retraction
;layer 8, Z = 0.960
;fan8;
G1 Z0.960 F1200
G1 X126.5030 Y96.2000 F3000 ; custom feedrate
G1 E0 F2400 ; custom un-retraction/prime
G92 E0.0000
G1 X128.8000 Y98.4970 E0.0700 F1440 ; custom feedrate
G1 X128.8000 Y101.5030 E0.1348
G1 X126.5030 Y103.8000 E0.2048
G1 X73.4970 Y103.8000 E1.3472
G1 X71.2000 Y101.5030 E1.4172
G1 X71.2000 Y98.4970 E1.4820
G1 X73.4970 Y96.2000 E1.5520
G1 X126.5030 Y96.2000 E2.6945
G1 X126.7020 Y95.7200 F3000 ; custom feedrate
G92 E0.0000
G1 X129.2800 Y98.2980 E0.0786 F1440 ; custom feedrate
G1 X129.2800 Y101.7020 E0.1519
G1 X126.7020 Y104.2800 E0.2305
G1 X73.2980 Y104.2800 E1.3815
G1 X70.7200 Y101.7020 E1.4601
G1 X70.7200 Y98.2980 E1.5334
G1 X73.2980 Y95.7200 E1.6120
G1 X126.7020 Y95.7200 E2.7630
G1 X126.9010 Y95.2400 F3000 ; custom feedrate
G92 E0.0000
G1 X129.7600 Y98.0990 E0.0872 F1080 ; custom feedrate
G1 X129.7600 Y101.9010 E0.1691
G1 X126.9010 Y104.7600 E0.2562
G1 X73.0990 Y104.7600 E1.4158
G1 X70.2400 Y101.9010 E1.5029
G1 X70.2400 Y98.0990 E1.5849
G1 X73.0990 Y95.2400 E1.6720
G1 X126.9010 Y95.2400 E2.8316
G1 X126.5120 Y101.3200 F3000 ; custom feedrate
G92 E0.0000
G1 X128.5120 Y99.3200 E0.0610 F1440 ; custom feedrate
G1 X128.5120 Y98.6410 E0.0756
G1 X126.5120 Y100.6410 E0.1366
G1 X126.5120 Y99.9620 E0.1512
G1 X128.1850 Y98.2890 E0.2022
G1 X127.8450 Y97.9500 E0.2125
G1 X126.5120 Y99.2830 E0.2532
G1 X126.5120 Y98.6040 E0.2678
G1 X127.5060 Y97.6100 E0.2981
G1 X127.1670 Y97.2710 E0.3084
G1 X125.9500 Y98.4880 E0.3455
G1 X125.2710 Y98.4880 E0.3602
G1 X126.8270 Y96.9320 E0.4076
G1 X126.4880 Y96.5920 E0.4179
G1 X124.5920 Y98.4880 E0.4757
G1 X123.9130 Y98.4880 E0.4904
G1 X125.9130 Y96.4880 E0.5513
G1 X125.2340 Y96.4880 E0.5659
G1 X123.2340 Y98.4880 E0.6269
G1 X122.5560 Y98.4880 E0.6415
G1 X124.5560 Y96.4880 E0.7025
G1 X123.8770 Y96.4880 E0.7171
G1 X121.8770 Y98.4880 E0.7781
G1 X121.1980 Y98.4880 E0.7927
G1 X123.1980 Y96.4880 E0.8537
G1 X122.5190 Y96.4880 E0.8683
G1 X120.5190 Y98.4880 E0.9293
G1 X128.5120 Y101.3560 F3000 ; custom feedrate
G92 E0.0000
G1 X126.3560 Y103.5120 E0.0657 F1440 ; custom feedrate
G1 X125.6770 Y103.5120 E0.0803
G1 X128.5120 Y100.6770 E0.1667
G1 X128.5120 Y99.9990 E0.1814
G1 X124.9990 Y103.5120 E0.2885
G1 X124.3200 Y103.5120 E0.3031
G1 X126.3200 Y101.5120 E0.3640
G1 X125.6410 Y101.5120 E0.3787
G1 X123.6410 Y103.5120 E0.4396
G1 X122.9620 Y103.5120 E0.4543
G1 X124.9620 Y101.5120 E0.5152
G1 X124.2830 Y101.5120 E0.5299
G1 X122.2830 Y103.5120 E0.5908
G1 X121.6040 Y103.5120 E0.6054
G1 X123.6040 Y101.5120 E0.6664
G1 X122.9260 Y101.5120 E0.6810
G1 X120.9260 Y103.5120 E0.7420
G1 X120.2470 Y103.5120 E0.7566
G1 X122.2470 Y101.5120 E0.8176
G1 X121.5680 Y101.5120 E0.8322
G1 X119.5680 Y103.5120 E0.8932
G1 X118.8890 Y103.5120 E0.9078
G1 X120.8890 Y101.5120 E0.9688
G1 X120.2100 Y101.5120 E0.9834
G1 X118.2100 Y103.5120 E1.0444
G1 X117.5320 Y103.5120 E1.0590
G1 X119.5320 Y101.5120 E1.1200
G1 X119.4710 Y101.5120 E1.1212
G1 X119.4710 Y100.8930 E1.1346
G1 X116.8530 Y103.5120 E1.2144
G1 X116.1740 Y103.5120 E1.2290
G1 X119.4710 Y100.2150 E1.3295
G1 X119.4710 Y99.5360 E1.3442
G1 X115.4950 Y103.5120 E1.4654
G1 X114.8160 Y103.5120 E1.4800
G1 X119.4710 Y98.8570 E1.6219
G1 X119.4710 Y98.4880 E1.6298
G1 X119.8400 Y98.4880 E1.6378
G1 X121.8400 Y96.4880 E1.6987
G1 X121.1610 Y96.4880 E1.7134
G1 X114.1370 Y103.5120 E1.9275
G1 X113.4590 Y103.5120 E1.9421
G1 X120.4830 Y96.4880 E2.1562
G1 X119.8040 Y96.4880 E2.1708
G1 X112.7800 Y103.5120 E2.3849
G1 X112.1010 Y103.5120 E2.3995
G1 X119.1250 Y96.4880 E2.6136
G1 X118.4460 Y96.4880 E2.6283
G1 X111.4220 Y103.5120 E2.8423
G1 X110.7430 Y103.5120 E2.8570
G1 X117.7670 Y96.4880 E3.0711
G1 X117.0880 Y96.4880 E3.0857
G1 X110.0640 Y103.5120 E3.2998
G1 X109.3860 Y103.5120 E3.3144
G1 X116.4100 Y96.4880 E3.5285
G1 X115.7310 Y96.4880 E3.5431
G1 X108.7070 Y103.5120 E3.7572
G1 X108.0280 Y103.5120 E3.7719
G1 X115.0520 Y96.4880 E3.9860
G1 X114.3730 Y96.4880 E4.0006
G1 X107.3490 Y103.5120 E4.2147
G1 X106.6700 Y103.5120 E4.2293
G1 X113.6940 Y96.4880 E4.4434
G1 X113.0160 Y96.4880 E4.4580
G1 X105.9920 Y103.5120 E4.6721
G1 X105.3130 Y103.5120 E4.6867
G1 X112.3370 Y96.4880 E4.9008
G1 X111.6580 Y96.4880 E4.9155
G1 X104.6340 Y103.5120 E5.1296
G1 X103.9550 Y103.5120 E5.1442
G1 X110.9790 Y96.4880 E5.3583
G1 X110.3000 Y96.4880 E5.3729
G1 X103.2760 Y103.5120 E5.5870
G1 X102.5970 Y103.5120 E5.6016
G1 X109.6210 Y96.4880 E5.8157
G1 X108.9430 Y96.4880 E5.8304
G1 X101.9190 Y103.5120 E6.0444
G1 X101.2400 Y103.5120 E6.0591
G1 X108.2640 Y96.4880 E6.2732
G1 X107.5850 Y96.4880 E6.2878
G1 X100.5610 Y103.5120 E6.5019
G1 X99.8820 Y103.5120 E6.5165
G1 X106.9060 Y96.4880 E6.7306
G1 X106.2270 Y96.4880 E6.7452
G1 X99.2030 Y103.5120 E6.9593
G1 X98.5250 Y103.5120 E6.9740
G1 X105.5490 Y96.4880 E7.1881
G1 X104.8700 Y96.4880 E7.2027
G1 X97.8460 Y103.5120 E7.4168
G1 X97.1670 Y103.5120 E7.4314
G1 X104.1910 Y96.4880 E7.6455
G1 X103.5120 Y96.4880 E7.6601
G1 X96.4880 Y103.5120 E7.8742
G1 X95.8090 Y103.5120 E7.8888
G1 X102.8330 Y96.4880 E8.1029
G1 X102.1540 Y96.4880 E8.1176
G1 X95.1300 Y103.5120 E8.3317
G1 X94.4520 Y103.5120 E8.3463
G1 X101.4760 Y96.4880 E8.5604
G1 X100.7970 Y96.4880 E8.5750
G1 X93.7730 Y103.5120 E8.7891
G1 X93.0940 Y103.5120 E8.8037
G1 X100.1180 Y96.4880 E9.0178
G1 X99.4390 Y96.4880 E9.0325
G1 X92.4150 Y103.5120 E9.2465
G1 X91.7360 Y103.5120 E9.2612
G1 X98.7600 Y96.4880 E9.4753
G1 X98.0810 Y96.4880 E9.4899
G1 X91.0570 Y103.5120 E9.7040
G1 X90.3790 Y103.5120 E9.7186
G1 X97.4030 Y96.4880 E9.9327
G1 X96.7240 Y96.4880 E9.9473
G1 X89.7000 Y103.5120 E10.1614
G1 X89.0210 Y103.5120 E10.1761
G1 X96.0450 Y96.4880 E10.3902
G1 X95.3660 Y96.4880 E10.4048
G1 X88.3420 Y103.5120 E10.6189
G1 X87.6630 Y103.5120 E10.6335
G1 X94.6870 Y96.4880 E10.8476
G1 X94.0090 Y96.4880 E10.8622
G1 X86.9850 Y103.5120 E11.0763
G1 X86.3060 Y103.5120 E11.0909
G1 X93.3300 Y96.4880 E11.3050
G1 X92.6510 Y96.4880 E11.3197
G1 X85.6270 Y103.5120 E11.5338
G1 X84.9480 Y103.5120 E11.5484
G1 X91.9720 Y96.4880 E11.7625
G1 X91.2930 Y96.4880 E11.7771
G1 X84.2690 Y103.5120 E11.9912
G1 X83.5900 Y103.5120 E12.0058
G1 X90.6140 Y96.4880 E12.2199
G1 X89.9360 Y96.4880 E12.2346
G1 X82.9120 Y103.5120 E12.4486
G1 X82.2330 Y103.5120 E12.4633
G1 X89.2570 Y96.4880 E12.6774
G1 X88.5780 Y96.4880 E12.6920
G1 X81.5540 Y103.5120 E12.9061
G1 X80.8750 Y103.5120 E12.9207
G1 X87.8990 Y96.4880 E13.1348
G1 X87.2200 Y96.4880 E13.1494
G1 X80.1960 Y103.5120 E13.3635
G1 X79.5170 Y103.5120 E13.3782
G1 X86.5410 Y96.4880 E13.5922
G1 X85.8630 Y96.4880 E13.6069
G1 X78.8390 Y103.5120 E13.8210
G1 X78.1600 Y103.5120 E13.8356
G1 X85.1840 Y96.4880 E14.0497
G1 X84.5050 Y96.4880 E14.0643
G1 X77.4810 Y103.5120 E14.2784
G1 X76.8020 Y103.5120 E14.2930
G1 X83.8260 Y96.4880 E14.5071
G1 X83.1470 Y96.4880 E14.5218
G1 X78.5290 Y101.1070 E14.6625
G1 X78.5290 Y101.5120 E14.6713
G1 X78.1230 Y101.5120 E14.6800
G1 X76.1230 Y103.5120 E14.7410
G1 X75.4450 Y103.5120 E14.7556
G1 X77.4450 Y101.5120 E14.8166
G1 X76.7660 Y101.5120 E14.8312
G1 X74.7660 Y103.5120 E14.8922
G1 X74.0870 Y103.5120 E14.9068
G1 X76.4880 Y101.1110 E14.9800
G1 X76.4880 Y100.4320 E14.9946
G1 X73.5120 Y103.4080 E15.0853
G1 X73.1730 Y103.0680 E15.0956
G1 X76.4880 Y99.7530 E15.1967
G1 X76.4880 Y99.0740 E15.2113
G1 X72.8330 Y102.7290 E15.3227
G1 X72.4940 Y102.3900 E15.3331
G1 X78.3960 Y96.4880 E15.5129
G1 X77.7170 Y96.4880 E15.5276
G1 X72.1550 Y102.0500 E15.6971
G1 X71.8150 Y101.7110 E15.7075
G1 X77.0380 Y96.4880 E15.8666
G1 X76.3590 Y96.4880 E15.8813
G1 X71.4880 Y101.3590 E16.0297
G1 X71.4880 Y100.6800 E16.0444
G1 X75.6800 Y96.4880 E16.1722
G1 X75.0010 Y96.4880 E16.1868
G1 X71.4880 Y100.0010 E16.2939
G1 X71.4880 Y99.3230 E16.3085
G1 X74.3230 Y96.4880 E16.3949
G1 X73.6440 Y96.4880 E16.4095
G1 X71.4880 Y98.6440 E16.4753
G1 X77.0740 Y98.4880 F3000 ; custom feedrate
G92 E0.0000
G1 X79.0740 Y96.4880 E0.0610 F1440 ; custom feedrate
G1 X79.7530 Y96.4880 E0.0756
G1 X77.7530 Y98.4880 E0.1365
G1 X78.4320 Y98.4880 E0.1512
G1 X80.4320 Y96.4880 E0.2121
G1 X81.1110 Y96.4880 E0.2268
G1 X78.5290 Y99.0700 E0.3055
G1 X78.5290 Y99.7490 E0.3201
G1 X81.7900 Y96.4880 E0.4195
G1 X82.4690 Y96.4880 E0.4341
G1 X78.5290 Y100.4280 E0.5542
G1 X120.2410 Y100.9720 F3000 ; custom feedrate
G92 E0.0000
G1 X122.1850 Y99.0280 E0.0741 F1800 ; custom feedrate
G1 X125.9720 Y99.0280 E0.1761
G1 X125.9720 Y99.4840 E0.1884
G1 X124.4840 Y100.9720 E0.2451
G92 E0.0000
G1 E-1 F2400 ; custom retraction
;layer 9, Z = 1.080
;fan9;
G1 Z1.080 F1200
G1 X126.3200 Y101.3200 F3000 ; custom feedrate
G1 E0 F2400 ; custom un-retraction/prime
G92 E0.0000
G1 X119.6630 Y101.3200 E0.1435 F1440 ; custom feedrate
G1 X119.6630 Y98.6800 E0.2004
G1 X126.3200 Y98.6800 E0.3438
G1 X126.3200 Y101.3200 E0.4007
G1 X126.8000 Y101.8000 F3000 ; custom feedrate
G92 E0.0000
G1 X119.1830 Y101.8000 E0.1642 F1440 ; custom feedrate
G1 X119.1830 Y98.2000 E0.2417
G1 X126.8000 Y98.2000 E0.4059
G1 X126.8000 Y101.8000 E0.4835
G1 X127.2800 Y102.2800 F3000 ; custom feedrate
G92 E0.0000
G1 X118.7030 Y102.2800 E0.1848 F1080 ; custom feedrate
G1 X118.7030 Y97.7200 E0.2831
G1 X127.2800 Y97.7200 E0.4680
G1 X127.2800 Y102.2800 E0.5663
G1 X124.4840 Y99.0280 F3000 ; custom feedrate
G92 E0.0000
G1 X125.9720 Y100.5160 E0.0567 F1800 ; custom feedrate
G1 X125.9720 Y100.9720 E0.0690
G1 X122.1850 Y100.9720 E0.1710
G1 X120.2410 Y99.0280 E0.2451
G92 E0.0000
G1 E-1 F2400 ; custom retraction
;zhop1
G1 X78.3370 Y98.6800 F3000 ; custom feedrate
G1 Z1.080 F1200
G1 E0 F2400 ; custom un-retraction/prime
G92 E0.0000
G1 X78.3370 Y101.3200 E0.0569 F1440 ; custom feedrate
G1 X76.6800 Y101.3200 E0.0926
G1 X76.6800 Y98.6800 E0.1495
G1 X78.3370 Y98.6800 E0.1852
G1 X78.8170 Y98.2000 F3000 ; custom feedrate
G92 E0.0000
G1 X78.8170 Y101.8000 E0.0776 F1440 ; custom feedrate
G1 X76.2000 Y101.8000 E0.1340
G1 X76.2000 Y98.2000 E0.2116
G1 X78.8170 Y98.2000 E0.2680
G1 X79.2970 Y97.7200 F3000 ; custom feedrate
G92 E0.0000
G1 X79.2970 Y102.2800 E0.0983 F1080 ; custom feedrate
G1 X75.7200 Y102.2800 E0.1754
G1 X75.7200 Y97.7200 E0.2736
G1 X79.2970 Y97.7200 E0.3507
G92 E0.0000
G1 E-1 F2400 ; custom retraction
;zhop1
G1 X75.7200 Y98.6730 F3000 ; custom feedrate
G1 X72.2570 Y99.2430
G1 X72.2570 Y99.5950
G1 X71.7770 Y99.7230
G1 Z1.080 F1200
G1 E0 F2400 ; custom un-retraction/prime
G92 E0.0000
G1 X71.7770 Y100.2770 E0.0119 F1440 ; custom feedrate
G1 X71.2230 Y100.2770 E0.0239
G1 X71.2230 Y99.7230 E0.0358
G1 X71.7770 Y99.7230 E0.0477
G1 X72.2570 Y99.2430 F3000 ; custom feedrate
G92 E0.0000
G1 X72.2570 Y100.7570 E0.0326 F1080 ; custom feedrate
G1 X70.7430 Y100.7570 E0.0652
G1 X70.7430 Y99.2430 E0.0979
G1 X72.2570 Y99.2430 E0.1305
G92 E0.0000
G1 E-1 F2400 ; custom retraction
;layer 10, Z = 1.200
;fan10;
G1 Z1.200 F1200
G1 X71.7580 Y99.7420 F3000 ; custom feedrate
G1 E0 F2400 ; custom un-retraction/prime
G92 E0.0000
G1 X71.7580 Y100.2580 E0.0111 F1440 ; custom feedrate
G1 X71.2420 Y100.2580 E0.0222
G1 X71.2420 Y99.7420 E0.0333
G1 X71.7580 Y99.7420 E0.0445
G1 X72.2380 Y99.2620 F3000 ; custom feedrate
G92 E0.0000
G1 X72.2380 Y100.7380 E0.0318 F1080 ; custom feedrate
G1 X70.7620 Y100.7380 E0.0636
G1 X70.7620 Y99.2620 E0.0954
G1 X72.2380 Y99.2620 E0.1272
G92 E0.0000
G1 E-1 F2400 ; custom retraction
;zhop1
G1 X76.5600 Y98.5600 F3000 ; custom feedrate
G1 Z1.200 F1200
G1 E0 F2400 ; custom un-retraction/prime
G92 E0.0000
G1 X78.4640 Y98.5600 E0.0410 F1440 ; custom feedrate
G1 X78.4640 Y101.4400 E0.1031
G1 X76.5600 Y101.4400 E0.1442
G1 X76.5600 Y98.5600 E0.2062
G1 X76.0800 Y98.0800 F3000 ; custom feedrate
G92 E0.0000
G1 X78.9440 Y98.0800 E0.0617 F1440 ; custom feedrate
G1 X78.9440 Y101.9200 E0.1445
G1 X76.0800 Y101.9200 E0.2062
G1 X76.0800 Y98.0800 E0.2890
G1 X75.6000 Y97.6000 F3000 ; custom feedrate
G92 E0.0000
G1 X79.4240 Y97.6000 E0.0824 F1080 ; custom feedrate
G1 X79.4240 Y102.4000 E0.1859
G1 X75.6000 Y102.4000 E0.2683
G1 X75.6000 Y97.6000 E0.3718
G92 E0.0000
G1 E-1 F2400 ; custom retraction
;zhop1
G1 X79.4240 Y97.6840 F3000 ; custom feedrate
G1 X118.5760 Y97.6000
G1 X118.5760 Y98.5390
G1 X119.5360 Y98.5600
G1 Z1.200 F1200
G1 E0 F2400 ; custom un-retraction/prime
G92 E0.0000
G1 X126.4400 Y98.5600 E0.1488 F1440 ; custom feedrate
G1 X126.4400 Y101.4400 E0.2109
G1 X119.5360 Y101.4400 E0.3597
G1 X119.5360 Y98.5600 E0.4218
G1 X119.0560 Y98.0800 F3000 ; custom feedrate
G92 E0.0000
G1 X126.9200 Y98.0800 E0.1695 F1440 ; custom feedrate
G1 X126.9200 Y101.9200 E0.2523
G1 X119.0560 Y101.9200 E0.4218
G1 X119.0560 Y98.0800 E0.5045
G1 X118.5760 Y97.6000 F3000 ; custom feedrate
G92 E0.0000
G1 X127.4000 Y97.6000 E0.1902 F1080 ; custom feedrate
G1 X127.4000 Y102.4000 E0.2936
G1 X118.5760 Y102.4000 E0.4838
G1 X118.5760 Y97.6000 E0.5873
G1 X120.1210 Y101.0920 F3000 ; custom feedrate
G92 E0.0000
G1 X122.3050 Y98.9080 E0.0832 F1800 ; custom feedrate
G1 X126.0920 Y98.9080 E0.1852
G1 X126.0920 Y99.3640 E0.1975
G1 X124.3640 Y101.0920 E0.2634
G92 E0.0000
G1 E-1 F2400 ; custom retraction
;layer 11, Z = 1.320
;fan11;
G1 Z1.320 F1200
G1 X126.5600 Y101.5600 F3000 ; custom feedrate
G1 E0 F2400 ; custom un-retraction/prime
G92 E0.0000
G1 X119.4080 Y101.5600 E0.1541 F1440 ; custom feedrate
G1 X119.4080 Y98.4400 E0.2214
G1 X126.5600 Y98.4400 E0.3755
G1 X126.5600 Y101.5600 E0.4428
G1 X127.0400 Y102.0400 F3000 ; custom feedrate
G92 E0.0000
G1 X118.9280 Y102.0400 E0.1748 F1440 ; custom feedrate
G1 X118.9280 Y97.9600 E0.2628
G1 X127.0400 Y97.9600 E0.4376
G1 X127.0400 Y102.0400 E0.5255
G1 X127.5200 Y102.5200 F3000 ; custom feedrate
G92 E0.0000
G1 X118.4480 Y102.5200 E0.1955 F1080 ; custom feedrate
G1 X118.4480 Y97.4800 E0.3041
G1 X127.5200 Y97.4800 E0.4997
G1 X127.5200 Y102.5200 E0.6083
G1 X124.2440 Y98.7880 F3000 ; custom feedrate
G92 E0.0000
G1 X126.2120 Y100.7560 E0.0750 F1800 ; custom feedrate
G1 X126.2120 Y101.2120 E0.0873
G1 X122.4250 Y101.2120 E0.1893
G1 X120.0010 Y98.7880 E0.2816
G92 E0.0000
G1 E-1 F2400 ; custom retraction
;zhop1
G1 X78.5920 Y98.4400 F3000 ; custom feedrate
G1 Z1.320 F1200
G1 E0 F2400 ; custom un-retraction/prime
G92 E0.0000
G1 X78.5920 Y101.5600 E0.0672 F1440 ; custom feedrate
G1 X76.4400 Y101.5600 E0.1136
G1 X76.4400 Y98.4400 E0.1809
G1 X78.5920 Y98.4400 E0.2272
G1 X79.0720 Y97.9600 F3000 ; custom feedrate
G92 E0.0000
G1 X79.0720 Y102.0400 E0.0879 F1440 ; custom feedrate
G1 X75.9600 Y102.0400 E0.1550
G1 X75.9600 Y97.9600 E0.2429
G1 X79.0720 Y97.9600 E0.3100
G1 X79.5520 Y97.4800 F3000 ; custom feedrate
G92 E0.0000
G1 X79.5520 Y102.5200 E0.1086 F1080 ; custom feedrate
G1 X75.4800 Y102.5200 E0.1964
G1 X75.4800 Y97.4800 E0.3050
G1 X79.5520 Y97.4800 E0.3928
G92 E0.0000
G1 E-1 F2400 ; custom retraction
;zhop1
G1 X75.4800 Y98.6690 F3000 ; custom feedrate
G1 X72.2190 Y99.2810
G1 X72.2190 Y99.6210
G1 X71.7390 Y99.7610
G1 Z1.320 F1200
G1 E0 F2400 ; custom un-retraction/prime
G92 E0.0000
G1 X71.7390 Y100.2390 E0.0103 F1440 ; custom feedrate
G1 X71.2610 Y100.2390 E0.0206
G1 X71.2610 Y99.7610 E0.0309
G1 X71.7390 Y99.7610 E0.0412
G1 X72.2190 Y99.2810 F3000 ; custom feedrate
G92 E0.0000
G1 X72.2190 Y100.7190 E0.0310 F1080 ; custom feedrate
G1 X70.7810 Y100.7190 E0.0620
G1 X70.7810 Y99.2810 E0.0930
G1 X72.2190 Y99.2810 E0.1239
G92 E0.0000
G1 E-1 F2400 ; custom retraction
;layer 12, Z = 1.440
;fan12;
G1 Z1.440 F1200
G1 X71.7200 Y99.7800 F3000 ; custom feedrate
G1 E0 F2400 ; custom un-retraction/prime
G92 E0.0000
G1 X71.7200 Y100.2200 E0.0095 F1440 ; custom feedrate
G1 X71.2800 Y100.2200 E0.0190
G1 X71.2800 Y99.7800 E0.0284
G1 X71.7200 Y99.7800 E0.0379
G1 X72.2000 Y99.3000 F3000 ; custom feedrate
G92 E0.0000
G1 X72.2000 Y100.7000 E0.0302 F1080 ; custom feedrate
G1 X70.8000 Y100.7000 E0.0603
G1 X70.8000 Y99.3000 E0.0905
G1 X72.2000 Y99.3000 E0.1207
G92 E0.0000
G1 E-1 F2400 ; custom retraction
;zhop1
G1 X76.3200 Y98.3200 F3000 ; custom feedrate
G1 Z1.440 F1200
G1 E0 F2400 ; custom un-retraction/prime
G92 E0.0000
G1 X78.7200 Y98.3200 E0.0517 F1440 ; custom feedrate
G1 X78.7200 Y101.6800 E0.1241
G1 X76.3200 Y101.6800 E0.1759
G1 X76.3200 Y98.3200 E0.2483
G1 X75.8400 Y97.8400 F3000 ; custom feedrate
G92 E0.0000
G1 X79.2000 Y97.8400 E0.0724 F1440 ; custom feedrate
G1 X79.2000 Y102.1600 E0.1655
G1 X75.8400 Y102.1600 E0.2379
G1 X75.8400 Y97.8400 E0.3310
G1 X75.3600 Y97.3600 F3000 ; custom feedrate
G92 E0.0000
G1 X79.6800 Y97.3600 E0.0931 F1080 ; custom feedrate
G1 X79.6800 Y102.6400 E0.2069
G1 X75.3600 Y102.6400 E0.3000
G1 X75.3600 Y97.3600 E0.4138
G92 E0.0000
G1 E-1 F2400 ; custom retraction
;zhop1
G1 X79.6800 Y97.4540 F3000 ; custom feedrate
G1 X118.3200 Y97.3600
G1 X118.3200 Y98.2990
G1 X119.2800 Y98.3200
G1 Z1.440 F1200
G1 E0 F2400 ; custom un-retraction/prime
G92 E0.0000
G1 X126.6800 Y98.3200 E0.1595 F1440 ; custom feedrate
G1 X126.6800 Y101.6800 E0.2319
G1 X119.2800 Y101.6800 E0.3914
G1 X119.2800 Y98.3200 E0.4638
G1 X118.8000 Y97.8400 F3000 ; custom feedrate
G92 E0.0000
G1 X127.1600 Y97.8400 E0.1802 F1440 ; custom feedrate
G1 X127.1600 Y102.1600 E0.2733
G1 X118.8000 Y102.1600 E0.4534
G1 X118.8000 Y97.8400 E0.5466
G1 X118.3200 Y97.3600 F3000 ; custom feedrate
G92 E0.0000
G1 X127.6400 Y97.3600 E0.2009 F1080 ; custom feedrate
G1 X127.6400 Y102.6400 E0.3147
G1 X118.3200 Y102.6400 E0.5155
G1 X118.3200 Y97.3600 E0.6293
G1 X119.8810 Y101.3320 F3000 ; custom feedrate
G92 E0.0000
G1 X122.5450 Y98.6680 E0.1015 F1800 ; custom feedrate
G1 X126.3320 Y98.6680 E0.2035
G1 X126.3320 Y99.1240 E0.2158
G1 X124.1240 Y101.3320 E0.2999
G92 E0.0000
G1 E-1 F2400 ; custom retraction
;layer 13, Z = 1.560
;fan13;
G1 Z1.560 F1200
G1 X126.8000 Y101.8000 F3000 ; custom feedrate
G1 E0 F2400 ; custom un-retraction/prime
G92 E0.0000
G1 X119.1840 Y101.8000 E0.1642 F1440 ; custom feedrate
G1 X119.1840 Y98.2000 E0.2417
G1 X126.8000 Y98.2000 E0.4059
G1 X126.8000 Y101.8000 E0.4835
G1 X127.2800 Y102.2800 F3000 ; custom feedrate
G92 E0.0000
G1 X118.7040 Y102.2800 E0.1848 F1440 ; custom feedrate
G1 X118.7040 Y97.7200 E0.2831
G1 X127.2800 Y97.7200 E0.4680
G1 X127.2800 Y102.2800 E0.5662
G1 X127.7600 Y102.7600 F3000 ; custom feedrate
G92 E0.0000
G1 X118.2240 Y102.7600 E0.2055 F1080 ; custom feedrate
G1 X118.2240 Y97.2400 E0.3245
G1 X127.7600 Y97.2400 E0.5300
G1 X127.7600 Y102.7600 E0.6490
G1 X124.0040 Y98.5480 F3000 ; custom feedrate
G92 E0.0000
G1 X126.4520 Y100.9960 E0.0933 F1800 ; custom feedrate
G1 X126.4520 Y101.4520 E0.1056
G1 X122.6650 Y101.4520 E0.2076
G1 X119.7610 Y98.5480 E0.3182
G92 E0.0000
G1 E-1 F2400 ; custom retraction
;zhop1
G1 X78.8160 Y98.2000 F3000 ; custom feedrate
G1 Z1.560 F1200
G1 E0 F2400 ; custom un-retraction/prime
G92 E0.0000
G1 X78.8160 Y101.8000 E0.0776 F1440 ; custom feedrate
G1 X76.2000 Y101.8000 E0.1340
G1 X76.2000 Y98.2000 E0.2116
G1 X78.8160 Y98.2000 E0.2680
G1 X79.2960 Y97.7200 F3000 ; custom feedrate
G92 E0.0000
G1 X79.2960 Y102.2800 E0.0983 F1440 ; custom feedrate
G1 X75.7200 Y102.2800 E0.1754
G1 X75.7200 Y97.7200 E0.2736
G1 X79.2960 Y97.7200 E0.3507
G1 X79.7760 Y97.2400 F3000 ; custom feedrate
G92 E0.0000
G1 X79.7760 Y102.7600 E0.1190 F1080 ; custom feedrate
G1 X75.2400 Y102.7600 E0.2167
G1 X75.2400 Y97.2400 E0.3357
G1 X79.7760 Y97.2400 E0.4335
G92 E0.0000
G1 E-1 F2400 ; custom retraction
;zhop1
G1 X72.1810 Y99.3190 F3000 ; custom feedrate
G1 Z1.560 F1200
G1 E0 F2400 ; custom un-retraction/prime
G92 E0.0000
G1 X72.1810 Y100.6810 E0.0293 F1080 ; custom feedrate
G1 X70.8190 Y100.6810 E0.0587
G1 X70.8190 Y99.3190 E0.0880
G1 X72.1810 Y99.3190 E0.1174
G1 X71.7750 Y99.6070 F3000 ; custom feedrate
G92 E0.0000
G1 X71.8930 Y99.7250 E0.0036 F1800 ; custom feedrate
G1 X71.8930 Y100.3930 E0.0180
G1 X71.8820 Y100.3930 E0.0182
G1 X71.1070 Y99.6180 E0.0418
G1 X71.1070 Y100.2970 E0.0565
G1 X71.2030 Y100.3930 E0.0594
G92 E0.0000
G1 E-1 F2400 ; custom retraction
;layer 14, Z = 1.680
;fan14;
G1 Z1.680 F1200
G1 X70.8380 Y100.6620 F3000 ; custom feedrate
G1 E0 F2400 ; custom un-retraction/prime
G92 E0.0000
G1 X70.8380 Y99.3380 E0.0285 F1080 ; custom feedrate
G1 X72.1620 Y99.3380 E0.0571
G1 X72.1620 Y100.6620 E0.0856
G1 X70.8380 Y100.6620 E0.1141
G1 X71.1260 Y99.6840 F3000 ; custom feedrate
G92 E0.0000
G1 X71.1840 Y99.6260 E0.0018 F1800 ; custom feedrate
G1 X71.8630 Y99.6260 E0.0164
G1 X71.1260 Y100.3630 E0.0389
G1 X71.1260 Y100.3740 E0.0391
G1 X71.7950 Y100.3740 E0.0535
G1 X71.8740 Y100.2950 E0.0559
G92 E0.0000
G1 E-1 F2400 ; custom retraction
;zhop1
G1 X72.1620 Y100.3950 F3000 ; custom feedrate
G1 X72.1620 Y100.6620
G1 X75.2400 Y101.4660
G1 X76.2000 Y101.8000
G1 Z1.680 F1200
G1 E0 F2400 ; custom un-retraction/prime
G92 E0.0000
G1 X76.2000 Y98.2000 E0.0776 F1440 ; custom feedrate
G1 X78.8270 Y98.2000 E0.1342
G1 X78.8270 Y101.8000 E0.2118
G1 X76.2000 Y101.8000 E0.2684
G1 X75.7200 Y102.2800 F3000 ; custom feedrate
G92 E0.0000
G1 X75.7200 Y97.7200 E0.0983 F1440 ; custom feedrate
G1 X79.3070 Y97.7200 E0.1756
G1 X79.3070 Y102.2800 E0.2739
G1 X75.7200 Y102.2800 E0.3512
G1 X75.2400 Y102.7600 F3000 ; custom feedrate
G92 E0.0000
G1 X75.2400 Y97.2400 E0.1190 F1080 ; custom feedrate
G1 X79.7870 Y97.2400 E0.2170
G1 X79.7870 Y102.7600 E0.3359
G1 X75.2400 Y102.7600 E0.4339
G92 E0.0000
G1 E-1 F2400 ; custom retraction
;zhop1
G1 X79.7870 Y102.6610 F3000 ; custom feedrate
G1 X118.2130 Y102.7600
G1 X118.2130 Y101.8210
G1 X119.1730 Y101.8000
G1 Z1.680 F1200
G1 E0 F2400 ; custom un-retraction/prime
G92 E0.0000
G1 X119.1730 Y98.2000 E0.0776 F1440 ; custom feedrate
G1 X126.8000 Y98.2000 E0.2420
G1 X126.8000 Y101.8000 E0.3196
G1 X119.1730 Y101.8000 E0.4839
G1 X118.6930 Y102.2800 F3000 ; custom feedrate
G92 E0.0000
G1 X118.6930 Y97.7200 E0.0983 F1440 ; custom feedrate
G1 X127.2800 Y97.7200 E0.2833
G1 X127.2800 Y102.2800 E0.3816
G1 X118.6930 Y102.2800 E0.5667
G1 X118.2130 Y102.7600 F3000 ; custom feedrate
G92 E0.0000
G1 X118.2130 Y97.2400 E0.1190 F1080 ; custom feedrate
G1 X127.7600 Y97.2400 E0.3247
G1 X127.7600 Y102.7600 E0.4437
G1 X118.2130 Y102.7600 E0.6495
G1 X119.7610 Y101.4520 F3000 ; custom feedrate
G92 E0.0000
G1 X122.6650 Y98.5480 E0.1106 F1800 ; custom feedrate
G1 X126.4520 Y98.5480 E0.2127
G1 X126.4520 Y99.0040 E0.2249
G1 X124.0040 Y101.4520 E0.3182
G92 E0.0000
G1 E-1 F2400 ; custom retraction
;layer 15, Z = 1.800
;fan15;
G1 Z1.800 F1200
G1 X126.8000 Y101.8000 F3000 ; custom feedrate
G1 E0 F2400 ; custom un-retraction/prime
G92 E0.0000
G1 X119.1630 Y101.8000 E0.1646 F1440 ; custom feedrate
G1 X119.1630 Y98.2000 E0.2422
G1 X126.8000 Y98.2000 E0.4068
G1 X126.8000 Y101.8000 E0.4844
G1 X127.2800 Y102.2800 F3000 ; custom feedrate
G92 E0.0000
G1 X118.6830 Y102.2800 E0.1853 F1440 ; custom feedrate
G1 X118.6830 Y97.7200 E0.2836
G1 X127.2800 Y97.7200 E0.4689
G1 X127.2800 Y102.2800 E0.5671
G1 X127.7600 Y102.7600 F3000 ; custom feedrate
G92 E0.0000
G1 X118.2030 Y102.7600 E0.2060 F1080 ; custom feedrate
G1 X118.2030 Y97.2400 E0.3249
G1 X127.7600 Y97.2400 E0.5309
G1 X127.7600 Y102.7600 E0.6499
G1 X124.0040 Y98.5480 F3000 ; custom feedrate
G92 E0.0000
G1 X126.4520 Y100.9960 E0.0933 F1800 ; custom feedrate
G1 X126.4520 Y101.4520 E0.1056
G1 X122.6650 Y101.4520 E0.2076
G1 X119.7610 Y98.5480 E0.3182
G92 E0.0000
G1 E-1 F2400 ; custom retraction
;zhop1
G1 X78.8370 Y98.2000 F3000 ; custom feedrate
G1 Z1.800 F1200
G1 E0 F2400 ; custom un-retraction/prime
G92 E0.0000
G1 X78.8370 Y101.8000 E0.0776 F1440 ; custom feedrate
G1 X76.2000 Y101.8000 E0.1344
G1 X76.2000 Y98.2000 E0.2120
G1 X78.8370 Y98.2000 E0.2688
G1 X79.3170 Y97.7200 F3000 ; custom feedrate
G92 E0.0000
G1 X79.3170 Y102.2800 E0.0983 F1440 ; custom feedrate
G1 X75.7200 Y102.2800 E0.1758
G1 X75.7200 Y97.7200 E0.2741
G1 X79.3170 Y97.7200 E0.3516
G1 X79.7970 Y97.2400 F3000 ; custom feedrate
G92 E0.0000
G1 X79.7970 Y102.7600 E0.1190 F1080 ; custom feedrate
G1 X75.2400 Y102.7600 E0.2172
G1 X75.2400 Y97.2400 E0.3362
G1 X79.7970 Y97.2400 E0.4344
G92 E0.0000
G1 E-1 F2400 ; custom retraction
;zhop1
G1 X75.2400 Y98.5000 F3000 ; custom feedrate
G1 X72.1430 Y99.3570
G1 Z1.800 F1200
G1 E0 F2400 ; custom un-retraction/prime
G92 E0.0000
G1 X72.1430 Y100.6430 E0.0277 F1080 ; custom feedrate
G1 X70.8570 Y100.6430 E0.0554
G1 X70.8570 Y99.3570 E0.0831
G1 X72.1430 Y99.3570 E0.1108
G1 X71.8130 Y99.6450 F3000 ; custom feedrate
G92 E0.0000
G1 X71.8550 Y99.6870 E0.0013 F1800 ; custom feedrate
G1 X71.8550 Y100.3550 E0.0157
G1 X71.8440 Y100.3550 E0.0159
G1 X71.1450 Y99.6560 E0.0372
G1 X71.1450 Y100.3350 E0.0518
G1 X71.1650 Y100.3550 E0.0524
G92 E0.0000
G1 E-1 F2400 ; custom retraction
;layer 16, Z = 1.920
;fan16;
G1 Z1.920 F1200
G1 X70.8760 Y100.6240 F3000 ; custom feedrate
G1 E0 F2400 ; custom un-retraction/prime
G92 E0.0000
G1 X70.8760 Y99.3760 E0.0269 F1080 ; custom feedrate
G1 X72.1240 Y99.3760 E0.0538
G1 X72.1240 Y100.6240 E0.0807
G1 X70.8760 Y100.6240 E0.1076
G1 X71.1640 Y100.3250 F3000 ; custom feedrate
G92 E0.0000
G1 X71.8250 Y99.6640 E0.0201 F1800 ; custom feedrate
G1 X71.8360 Y99.6640 E0.0204
G1 X71.8330 Y100.3360 E0.0349
G92 E0.0000
G1 E-1 F2400 ; custom retraction
;zhop1
G1 X72.1240 Y100.4330 F3000 ; custom feedrate
G1 X72.1240 Y100.6240
G1 X75.2400 Y101.4780
G1 X76.2000 Y101.8000
G1 Z1.920 F1200
G1 E0 F2400 ; custom un-retraction/prime
G92 E0.0000
G1 X76.2000 Y98.2000 E0.0776 F1440 ; custom feedrate
G1 X78.8500 Y98.2000 E0.1347
G1 X78.8500 Y101.8000 E0.2123
G1 X76.2000 Y101.8000 E0.2694
G1 X75.7200 Y102.2800 F3000 ; custom feedrate
G92 E0.0000
G1 X75.7200 Y97.7200 E0.0983 F1440 ; custom feedrate
G1 X79.3300 Y97.7200 E0.1761
G1 X79.3300 Y102.2800 E0.2744
G1 X75.7200 Y102.2800 E0.3522
G1 X75.2400 Y102.7600 F3000 ; custom feedrate
G92 E0.0000
G1 X75.2400 Y97.2400 E0.1190 F1080 ; custom feedrate
G1 X79.8100 Y97.2400 E0.2175
G1 X79.8100 Y102.7600 E0.3364
G1 X75.2400 Y102.7600 E0.4349
G92 E0.0000
G1 E-1 F2400 ; custom retraction
;zhop1
G1 X79.8100 Y102.6600 F3000 ; custom feedrate
G1 X118.1900 Y102.7600
G1 X118.1900 Y101.8210
G1 X119.1500 Y101.8000
G1 Z1.920 F1200
G1 E0 F2400 ; custom un-retraction/prime
G92 E0.0000
G1 X119.1500 Y98.2000 E0.0776 F1440 ; custom feedrate
G1 X126.8000 Y98.2000 E0.2425
G1 X126.8000 Y101.8000 E0.3201
G1 X119.1500 Y101.8000 E0.4849
G1 X118.6700 Y102.2800 F3000 ; custom feedrate
G92 E0.0000
G1 X118.6700 Y97.7200 E0.0983 F1440 ; custom feedrate
G1 X127.2800 Y97.7200 E0.2838
G1 X127.2800 Y102.2800 E0.3821
G1 X118.6700 Y102.2800 E0.5677
G1 X118.1900 Y102.7600 F3000 ; custom feedrate
G92 E0.0000
G1 X118.1900 Y97.2400 E0.1190 F1080 ; custom feedrate
G1 X127.7600 Y97.2400 E0.3252
G1 X127.7600 Y102.7600 E0.4442
G1 X118.1900 Y102.7600 E0.6505
G1 X119.7610 Y101.4520 F3000 ; custom feedrate
G92 E0.0000
G1 X122.6650 Y98.5480 E0.1106 F1800 ; custom feedrate
G1 X126.4520 Y98.5480 E0.2127
G1 X126.4520 Y99.0040 E0.2249
G1 X124.0040 Y101.4520 E0.3182
G92 E0.0000
G1 E-1 F2400 ; custom retraction
;layer 17, Z = 2.040
;fan17;
G1 Z2.040 F1200
G1 X126.8000 Y101.8000 F3000 ; custom feedrate
G1 E0 F2400 ; custom un-retraction/prime
G92 E0.0000
G1 X119.1350 Y101.8000 E0.1652 F1440 ; custom feedrate
G1 X119.1350 Y98.2000 E0.2428
G1 X126.8000 Y98.2000 E0.4080
G1 X126.8000 Y101.8000 E0.4856
G1 X127.2800 Y102.2800 F3000 ; custom feedrate
G92 E0.0000
G1 X118.6550 Y102.2800 E0.1859 F1440 ; custom feedrate
G1 X118.6550 Y97.7200 E0.2842
G1 X127.2800 Y97.7200 E0.4701
G1 X127.2800 Y102.2800 E0.5683
G1 X127.7600 Y102.7600 F3000 ; custom feedrate
G92 E0.0000
G1 X118.1750 Y102.7600 E0.2066 F1080 ; custom feedrate
G1 X118.1750 Y97.2400 E0.3256
G1 X127.7600 Y97.2400 E0.5321
G1 X127.7600 Y102.7600 E0.6511
G1 X124.0040 Y98.5480 F3000 ; custom feedrate
G92 E0.0000
G1 X126.4520 Y100.9960 E0.0933 F1800 ; custom feedrate
G1 X126.4520 Y101.4520 E0.1056
G1 X122.6650 Y101.4520 E0.2076
G1 X119.7610 Y98.5480 E0.3182
G92 E0.0000
G1 E-1 F2400 ; custom retraction
;zhop1
G1 X78.8650 Y98.2000 F3000 ; custom feedrate
G1 Z2.040 F1200
G1 E0 F2400 ; custom un-retraction/prime
G92 E0.0000
G1 X78.8650 Y101.8000 E0.0776 F1440 ; custom feedrate
G1 X76.2000 Y101.8000 E0.1350
G1 X76.2000 Y98.2000 E0.2126
G1 X78.8650 Y98.2000 E0.2701
G1 X79.3450 Y97.7200 F3000 ; custom feedrate
G92 E0.0000
G1 X79.3450 Y102.2800 E0.0983 F1440 ; custom feedrate
G1 X75.7200 Y102.2800 E0.1764
G1 X75.7200 Y97.7200 E0.2747
G1 X79.3450 Y97.7200 E0.3528
G1 X79.8250 Y97.2400 F3000 ; custom feedrate
G92 E0.0000
G1 X79.8250 Y102.7600 E0.1190 F1080 ; custom feedrate
G1 X75.2400 Y102.7600 E0.2178
G1 X75.2400 Y97.2400 E0.3368
G1 X79.8250 Y97.2400 E0.4356
G92 E0.0000
G1 E-1 F2400 ; custom retraction
;zhop1
G1 X72.1050 Y99.3950 F3000 ; custom feedrate
G1 Z2.040 F1200
G1 E0 F2400 ; custom un-retraction/prime
G92 E0.0000
G1 X72.1050 Y100.6050 E0.0261 F1080 ; custom feedrate
G1 X70.8950 Y100.6050 E0.0521
G1 X70.8950 Y99.3950 E0.0782
G1 X72.1050 Y99.3950 E0.1043
G1 X71.1830 Y99.6940 F3000 ; custom feedrate
G92 E0.0000
G1 X71.8060 Y100.3170 E0.0190 F1800 ; custom feedrate
G92 E0.0000
G1 E-1 F2400 ; custom retraction
;layer 18, Z = 2.160
;fan18;
G1 Z2.160 F1200
G1 X72.0860 Y100.5860 F3000 ; custom feedrate
G1 E0 F2400 ; custom un-retraction/prime
G92 E0.0000
G1 X70.9140 Y100.5860 E0.0252 F1080 ; custom feedrate
G1 X70.9140 Y99.4140 E0.0505
G1 X72.0860 Y99.4140 E0.0757
G1 X72.0860 Y100.5860 E0.1010
G1 X71.2020 Y100.2870 F3000 ; custom feedrate
G92 E0.0000
G1 X71.7870 Y99.7020 E0.0178 F1800 ; custom feedrate
G92 E0.0000
G1 E-1 F2400 ; custom retraction
;zhop1
G1 X72.0860 Y99.6010 F3000 ; custom feedrate
G1 X72.0860 Y99.4140
G1 X75.2400 Y98.5270
G1 X76.2000 Y98.2000
G1 Z2.160 F1200
G1 E0 F2400 ; custom un-retraction/prime
G92 E0.0000
G1 X78.8800 Y98.2000 E0.0578 F1440 ; custom feedrate
G1 X78.8800 Y101.8000 E0.1354
G1 X76.2000 Y101.8000 E0.1931
G1 X76.2000 Y98.2000 E0.2707
G1 X75.7200 Y97.7200 F3000 ; custom feedrate
G92 E0.0000
G1 X79.3600 Y97.7200 E0.0785 F1440 ; custom feedrate
G1 X79.3600 Y102.2800 E0.1767
G1 X75.7200 Y102.2800 E0.2552
G1 X75.7200 Y97.7200 E0.3535
G1 X75.2400 Y97.2400 F3000 ; custom feedrate
G92 E0.0000
G1 X79.8400 Y97.2400 E0.0991 F1080 ; custom feedrate
G1 X79.8400 Y102.7600 E0.2181
G1 X75.2400 Y102.7600 E0.3173
G1 X75.2400 Y97.2400 E0.4362
G92 E0.0000
G1 E-1 F2400 ; custom retraction
;zhop1
G1 X79.8400 Y97.3410 F3000 ; custom feedrate
G1 X118.1600 Y97.2400
G1 X118.1600 Y98.1790
G1 X119.1200 Y98.2000
G1 Z2.160 F1200
G1 E0 F2400 ; custom un-retraction/prime
G92 E0.0000
G1 X126.8000 Y98.2000 E0.1655 F1440 ; custom feedrate
G1 X126.8000 Y101.8000 E0.2431
G1 X119.1200 Y101.8000 E0.4086
G1 X119.1200 Y98.2000 E0.4862
G1 X118.6400 Y97.7200 F3000 ; custom feedrate
G92 E0.0000
G1 X127.2800 Y97.7200 E0.1862 F1440 ; custom feedrate
G1 X127.2800 Y102.2800 E0.2845
G1 X118.6400 Y102.2800 E0.4707
G1 X118.6400 Y97.7200 E0.5690
G1 X118.1600 Y97.2400 F3000 ; custom feedrate
G92 E0.0000
G1 X127.7600 Y97.2400 E0.2069 F1080 ; custom feedrate
G1 X127.7600 Y102.7600 E0.3259
G1 X118.1600 Y102.7600 E0.5328
G1 X118.1600 Y97.2400 E0.6518
G1 X119.7610 Y101.4520 F3000 ; custom feedrate
G92 E0.0000
G1 X122.6650 Y98.5480 E0.1106 F1800 ; custom feedrate
G1 X126.4520 Y98.5480 E0.2127
G1 X126.4520 Y99.0040 E0.2249
G1 X124.0040 Y101.4520 E0.3182
G92 E0.0000
G1 E-1 F2400 ; custom retraction
;layer 19, Z = 2.280
;fan19;
G1 Z2.280 F1200
G1 X126.8000 Y101.8000 F3000 ; custom feedrate
G1 E0 F2400 ; custom un-retraction/prime
G92 E0.0000
G1 X119.1000 Y101.8000 E0.1660 F1440 ; custom feedrate
G1 X119.1000 Y98.2000 E0.2435
G1 X126.8000 Y98.2000 E0.4095
G1 X126.8000 Y101.8000 E0.4871
G1 X127.2800 Y102.2800 F3000 ; custom feedrate
G92 E0.0000
G1 X118.6200 Y102.2800 E0.1866 F1440 ; custom feedrate
G1 X118.6200 Y97.7200 E0.2849
G1 X127.2800 Y97.7200 E0.4716
G1 X127.2800 Y102.2800 E0.5698
G1 X127.7600 Y102.7600 F3000 ; custom feedrate
G92 E0.0000
G1 X118.1400 Y102.7600 E0.2073 F1080 ; custom feedrate
G1 X118.1400 Y97.2400 E0.3263
G1 X127.7600 Y97.2400 E0.5336
G1 X127.7600 Y102.7600 E0.6526
G1 X124.0040 Y98.5480 F3000 ; custom feedrate
G92 E0.0000
G1 X126.4520 Y100.9960 E0.0933 F1800 ; custom feedrate
G1 X126.4520 Y101.4520 E0.1056
G1 X122.6650 Y101.4520 E0.2076
G1 X119.7610 Y98.5480 E0.3182
G92 E0.0000
G1 E-1 F2400 ; custom retraction
;zhop1
G1 X78.9000 Y98.2000 F3000 ; custom feedrate
G1 Z2.280 F1200
G1 E0 F2400 ; custom un-retraction/prime
G92 E0.0000
G1 X78.9000 Y101.8000 E0.0776 F1440 ; custom feedrate
G1 X76.2000 Y101.8000 E0.1358
G1 X76.2000 Y98.2000 E0.2134
G1 X78.9000 Y98.2000 E0.2716
G1 X79.3800 Y97.7200 F3000 ; custom feedrate
G92 E0.0000
G1 X79.3800 Y102.2800 E0.0983 F1440 ; custom feedrate
G1 X75.7200 Y102.2800 E0.1772
G1 X75.7200 Y97.7200 E0.2754
G1 X79.3800 Y97.7200 E0.3543
G1 X79.8600 Y97.2400 F3000 ; custom feedrate
G92 E0.0000
G1 X79.8600 Y102.7600 E0.1190 F1080 ; custom feedrate
G1 X75.2400 Y102.7600 E0.2185
G1 X75.2400 Y97.2400 E0.3375
G1 X79.8600 Y97.2400 E0.4371
G92 E0.0000
G1 E-1 F2400 ; custom retraction
;zhop1
G1 X72.0670 Y99.4330 F3000 ; custom feedrate
G1 Z2.280 F1200
G1 E0 F2400 ; custom un-retraction/prime
G92 E0.0000
G1 X72.0670 Y100.5670 E0.0244 F1080 ; custom feedrate
G1 X70.9330 Y100.5670 E0.0489
G1 X70.9330 Y99.4330 E0.0733
G1 X72.0670 Y99.4330 E0.0977
G1 X71.2210 Y99.7320 F3000 ; custom feedrate
G92 E0.0000
G1 X71.7680 Y100.2790 E0.0167 F1800 ; custom feedrate
G92 E0.0000
G1 E-1 F2400 ; custom retraction
;layer 20, Z = 2.400
;fan20;
G1 Z2.400 F1200
G1 X72.0480 Y100.5480 F3000 ; custom feedrate
G1 E0 F2400 ; custom un-retraction/prime
G92 E0.0000
G1 X70.9520 Y100.5480 E0.0236 F1080 ; custom feedrate
G1 X70.9520 Y99.4520 E0.0472
G1 X72.0480 Y99.4520 E0.0708
G1 X72.0480 Y100.5480 E0.0944
G1 X71.2400 Y100.2490 F3000 ; custom feedrate
G92 E0.0000
G1 X71.7490 Y99.7400 E0.0155 F1800 ; custom feedrate
G92 E0.0000
G1 E-1 F2400 ; custom retraction
;zhop1
G1 X72.0480 Y99.6370 F3000 ; custom feedrate
G1 X72.0480 Y99.4520
G1 X75.2400 Y98.5320
G1 X76.2000 Y98.2000
G1 Z2.400 F1200
G1 E0 F2400 ; custom un-retraction/prime
G92 E0.0000
G1 X78.9200 Y98.2000 E0.0586 F1440 ; custom feedrate
G1 X78.9200 Y101.8000 E0.1362
G1 X76.2000 Y101.8000 E0.1949
G1 X76.2000 Y98.2000 E0.2724
G1 X75.7200 Y97.7200 F3000 ; custom feedrate
G92 E0.0000
G1 X79.4000 Y97.7200 E0.0793 F1440 ; custom feedrate
G1 X79.4000 Y102.2800 E0.1776
G1 X75.7200 Y102.2800 E0.2569
G1 X75.7200 Y97.7200 E0.3552
G1 X75.2400 Y97.2400 F3000 ; custom feedrate
G92 E0.0000
G1 X79.8800 Y97.2400 E0.1000 F1080 ; custom feedrate
G1 X79.8800 Y102.7600 E0.2190
G1 X75.2400 Y102.7600 E0.3190
G1 X75.2400 Y97.2400 E0.4380
G92 E0.0000
G1 E-1 F2400 ; custom retraction
;zhop1
G1 X79.8800 Y97.3420 F3000 ; custom feedrate
G1 X118.1200 Y97.2400
G1 X118.1200 Y98.1790
G1 X119.0800 Y98.2000
G1 Z2.400 F1200
G1 E0 F2400 ; custom un-retraction/prime
G92 E0.0000
G1 X126.8000 Y98.2000 E0.1664 F1440 ; custom feedrate
G1 X126.8000 Y101.8000 E0.2440
G1 X119.0800 Y101.8000 E0.4104
G1 X119.0800 Y98.2000 E0.4880
G1 X118.6000 Y97.7200 F3000 ; custom feedrate
G92 E0.0000
G1 X127.2800 Y97.7200 E0.1871 F1440 ; custom feedrate
G1 X127.2800 Y102.2800 E0.2854
G1 X118.6000 Y102.2800 E0.4724
G1 X118.6000 Y97.7200 E0.5707
G1 X118.1200 Y97.2400 F3000 ; custom feedrate
G92 E0.0000
G1 X127.7600 Y97.2400 E0.2078 F1080 ; custom feedrate
G1 X127.7600 Y102.7600 E0.3267
G1 X118.1200 Y102.7600 E0.5345
G1 X118.1200 Y97.2400 E0.6535
G1 X119.7610 Y101.4520 F3000 ; custom feedrate
G92 E0.0000
G1 X122.6650 Y98.5480 E0.1106 F1800 ; custom feedrate
G1 X126.4520 Y98.5480 E0.2127
G1 X126.4520 Y99.0040 E0.2249
G1 X124.0040 Y101.4520 E0.3182
G92 E0.0000
G1 E-1 F2400 ; custom retraction
;layer 21, Z = 2.520
;fan21;
G1 Z2.520 F1200
G1 X126.8000 Y101.8000 F3000 ; custom feedrate
G1 E0 F2400 ; custom un-retraction/prime
G92 E0.0000
G1 X119.0580 Y101.8000 E0.1669 F1440 ; custom feedrate
G1 X119.0580 Y98.2000 E0.2444
G1 X126.8000 Y98.2000 E0.4113
G1 X126.8000 Y101.8000 E0.4889
G1 X127.2800 Y102.2800 F3000 ; custom feedrate
G92 E0.0000
G1 X118.5780 Y102.2800 E0.1875 F1440 ; custom feedrate
G1 X118.5780 Y97.7200 E0.2858
G1 X127.2800 Y97.7200 E0.4734
G1 X127.2800 Y102.2800 E0.5716
G1 X127.7600 Y102.7600 F3000 ; custom feedrate
G92 E0.0000
G1 X118.0980 Y102.7600 E0.2082 F1080 ; custom feedrate
G1 X118.0980 Y97.2400 E0.3272
G1 X127.7600 Y97.2400 E0.5354
G1 X127.7600 Y102.7600 E0.6544
G1 X124.0040 Y98.5480 F3000 ; custom feedrate
G92 E0.0000
G1 X126.4520 Y100.9960 E0.0933 F1800 ; custom feedrate
G1 X126.4520 Y101.4520 E0.1056
G1 X122.6650 Y101.4520 E0.2076
G1 X119.7610 Y98.5480 E0.3182
G92 E0.0000
G1 E-1 F2400 ; custom retraction
;zhop1
G1 X78.9420 Y98.2000 F3000 ; custom feedrate
G1 Z2.520 F1200
G1 E0 F2400 ; custom un-retraction/prime
G92 E0.0000
G1 X78.9420 Y101.8000 E0.0776 F1440 ; custom feedrate
G1 X76.2000 Y101.8000 E0.1367
G1 X76.2000 Y98.2000 E0.2143
G1 X78.9420 Y98.2000 E0.2734
G1 X79.4220 Y97.7200 F3000 ; custom feedrate
G92 E0.0000
G1 X79.4220 Y102.2800 E0.0983 F1440 ; custom feedrate
G1 X75.7200 Y102.2800 E0.1781
G1 X75.7200 Y97.7200 E0.2763
G1 X79.4220 Y97.7200 E0.3561
G1 X79.9020 Y97.2400 F3000 ; custom feedrate
G92 E0.0000
G1 X79.9020 Y102.7600 E0.1190 F1080 ; custom feedrate
G1 X75.2400 Y102.7600 E0.2194
G1 X75.2400 Y97.2400 E0.3384
G1 X79.9020 Y97.2400 E0.4389
G92 E0.0000
G1 E-1 F2400 ; custom retraction
;zhop1
G1 X72.0290 Y99.4710 F3000 ; custom feedrate
G1 Z2.520 F1200
G1 E0 F2400 ; custom un-retraction/prime
G92 E0.0000
G1 X72.0290 Y100.5290 E0.0228 F1080 ; custom feedrate
G1 X70.9710 Y100.5290 E0.0456
G1 X70.9710 Y99.4710 E0.0684
G1 X72.0290 Y99.4710 E0.0912
G1 X71.2590 Y99.7700 F3000 ; custom feedrate
G92 E0.0000
G1 X71.7300 Y100.2410 E0.0144 F1800 ; custom feedrate
G92 E0.0000
G1 E-1 F2400 ; custom retraction
;layer 22, Z = 2.640
;fan22;
G1 Z2.640 F1200
G1 X72.0100 Y100.5100 F3000 ; custom feedrate
G1 E0 F2400 ; custom un-retraction/prime
G92 E0.0000
G1 X70.9900 Y100.5100 E0.0220 F1080 ; custom feedrate
G1 X70.9900 Y99.4900 E0.0439
G1 X72.0100 Y99.4900 E0.0659
G1 X72.0100 Y100.5100 E0.0879
G1 X71.2780 Y100.2110 F3000 ; custom feedrate
G92 E0.0000
G1 X71.7110 Y99.7780 E0.0132 F1800 ; custom feedrate
G92 E0.0000
G1 E-1 F2400 ; custom retraction
;zhop1
G1 X72.0100 Y99.6730 F3000 ; custom feedrate
G1 X72.0100 Y99.4900
G1 X75.2400 Y98.5380
G1 X76.2000 Y98.2000
G1 Z2.640 F1200
G1 E0 F2400 ; custom un-retraction/prime
G92 E0.0000
G1 X78.9670 Y98.2000 E0.0596 F1440 ; custom feedrate
G1 X78.9670 Y101.8000 E0.1372
G1 X76.2000 Y101.8000 E0.1969
G1 X76.2000 Y98.2000 E0.2745
G1 X75.7200 Y97.7200 F3000 ; custom feedrate
G92 E0.0000
G1 X79.4470 Y97.7200 E0.0803 F1440 ; custom feedrate
G1 X79.4470 Y102.2800 E0.1786
G1 X75.7200 Y102.2800 E0.2590
G1 X75.7200 Y97.7200 E0.3572
G1 X75.2400 Y97.2400 F3000 ; custom feedrate
G92 E0.0000
G1 X79.9270 Y97.2400 E0.1010 F1080 ; custom feedrate
G1 X79.9270 Y102.7600 E0.2200
G1 X75.2400 Y102.7600 E0.3210
G1 X75.2400 Y97.2400 E0.4400
G92 E0.0000
G1 E-1 F2400 ; custom retraction
;zhop1
G1 X79.9270 Y97.3430 F3000 ; custom feedrate
G1 X118.0730 Y97.2400
G1 X118.0730 Y98.1790
G1 X119.0330 Y98.2000
G1 Z2.640 F1200
G1 E0 F2400 ; custom un-retraction/prime
G92 E0.0000
G1 X126.8000 Y98.2000 E0.1674 F1440 ; custom feedrate
G1 X126.8000 Y101.8000 E0.2450
G1 X119.0330 Y101.8000 E0.4124
G1 X119.0330 Y98.2000 E0.4900
G1 X118.5530 Y97.7200 F3000 ; custom feedrate
G92 E0.0000
G1 X127.2800 Y97.7200 E0.1881 F1440 ; custom feedrate
G1 X127.2800 Y102.2800 E0.2864
G1 X118.5530 Y102.2800 E0.4745
G1 X118.5530 Y97.7200 E0.5728
G1 X118.0730 Y97.2400 F3000 ; custom feedrate
G92 E0.0000
G1 X127.7600 Y97.2400 E0.2088 F1080 ; custom feedrate
G1 X127.7600 Y102.7600 E0.3278
G1 X118.0730 Y102.7600 E0.5365
G1 X118.0730 Y97.2400 E0.6555
G1 X119.7610 Y101.4520 F3000 ; custom feedrate
G92 E0.0000
G1 X122.6650 Y98.5480 E0.1106 F1800 ; custom feedrate
G1 X126.4520 Y98.5480 E0.2127
G1 X126.4520 Y99.0040 E0.2249
G1 X124.0040 Y101.4520 E0.3182
G92 E0.0000
G1 E-1 F2400 ; custom retraction
;layer 23, Z = 2.760
;fan23;
G1 Z2.760 F1200
G1 X126.8000 Y101.8000 F3000 ; custom feedrate
G1 E0 F2400 ; custom un-retraction/prime
G92 E0.0000
G1 X119.0070 Y101.8000 E0.1680 F1440 ; custom feedrate
G1 X119.0070 Y98.2000 E0.2456
G1 X126.8000 Y98.2000 E0.4135
G1 X126.8000 Y101.8000 E0.4911
G1 X127.2800 Y102.2800 F3000 ; custom feedrate
G92 E0.0000
G1 X118.5270 Y102.2800 E0.1887 F1440 ; custom feedrate
G1 X118.5270 Y97.7200 E0.2869
G1 X127.2800 Y97.7200 E0.4756
G1 X127.2800 Y102.2800 E0.5739
G1 X127.7600 Y102.7600 F3000 ; custom feedrate
G92 E0.0000
G1 X118.0470 Y102.7600 E0.2093 F1080 ; custom feedrate
G1 X118.0470 Y97.2400 E0.3283
G1 X127.7600 Y97.2400 E0.5377
G1 X127.7600 Y102.7600 E0.6566
G1 X124.0040 Y98.5480 F3000 ; custom feedrate
G92 E0.0000
G1 X126.4520 Y100.9960 E0.0933 F1800 ; custom feedrate
G1 X126.4520 Y101.4520 E0.1056
G1 X122.6650 Y101.4520 E0.2076
G1 X119.7610 Y98.5480 E0.3182
G92 E0.0000
G1 E-1 F2400 ; custom retraction
;zhop1
G1 X78.9930 Y98.2000 F3000 ; custom feedrate
G1 Z2.760 F1200
G1 E0 F2400 ; custom un-retraction/prime
G92 E0.0000
G1 X78.9930 Y101.8000 E0.0776 F1440 ; custom feedrate
G1 X76.2000 Y101.8000 E0.1378
G1 X76.2000 Y98.2000 E0.2154
G1 X78.9930 Y98.2000 E0.2756
G1 X79.4730 Y97.7200 F3000 ; custom feedrate
G92 E0.0000
G1 X79.4730 Y102.2800 E0.0983 F1440 ; custom feedrate
G1 X75.7200 Y102.2800 E0.1792
G1 X75.7200 Y97.7200 E0.2775
G1 X79.4730 Y97.7200 E0.3583
G1 X79.9530 Y97.2400 F3000 ; custom feedrate
G92 E0.0000
G1 X79.9530 Y102.7600 E0.1190 F1080 ; custom feedrate
G1 X75.2400 Y102.7600 E0.2206
G1 X75.2400 Y97.2400 E0.3395
G1 X79.9530 Y97.2400 E0.4411
G92 E0.0000
G1 E-1 F2400 ; custom retraction
;zhop1
G1 X75.2400 Y98.5830 F3000 ; custom feedrate
G1 X71.9910 Y99.5090
G1 Z2.760 F1200
G1 E0 F2400 ; custom un-retraction/prime
G92 E0.0000
G1 X71.9910 Y100.4910 E0.0212 F1080 ; custom feedrate
G1 X71.0090 Y100.4910 E0.0423
G1 X71.0090 Y99.5090 E0.0635
G1 X71.9910 Y99.5090 E0.0846
G1 X71.2970 Y99.8080 F3000 ; custom feedrate
G92 E0.0000
G1 X71.6920 Y100.2030 E0.0120 F1800 ; custom feedrate
G92 E0.0000
G1 E-1 F2400 ; custom retraction
;layer 24, Z = 2.880
;fan24;
G1 Z2.880 F1200
G1 X71.9720 Y100.4720 F3000 ; custom feedrate
G1 E0 F2400 ; custom un-retraction/prime
G92 E0.0000
G1 X71.0280 Y100.4720 E0.0203 F1080 ; custom feedrate
G1 X71.0280 Y99.5280 E0.0407
G1 X71.9720 Y99.5280 E0.0610
G1 X71.9720 Y100.4720 E0.0813
G1 X71.3160 Y100.1730 F3000 ; custom feedrate
G92 E0.0000
G1 X71.6730 Y99.8160 E0.0109 F1800 ; custom feedrate
G92 E0.0000
G1 E-1 F2400 ; custom retraction
;zhop1
G1 X71.9720 Y99.7100 F3000 ; custom feedrate
G1 X71.9720 Y99.5280
G1 X75.2400 Y98.5430
G1 X76.2000 Y98.2000
G1 Z2.880 F1200
G1 E0 F2400 ; custom un-retraction/prime
G92 E0.0000
G1 X79.0220 Y98.2000 E0.0608 F1440 ; custom feedrate
G1 X79.0220 Y101.8000 E0.1384
G1 X76.2000 Y101.8000 E0.1992
G1 X76.2000 Y98.2000 E0.2768
G1 X75.7200 Y97.7200 F3000 ; custom feedrate
G92 E0.0000
G1 X79.5020 Y97.7200 E0.0815 F1440 ; custom feedrate
G1 X79.5020 Y102.2800 E0.1798
G1 X75.7200 Y102.2800 E0.2613
G1 X75.7200 Y97.7200 E0.3596
G1 X75.2400 Y97.2400 F3000 ; custom feedrate
G92 E0.0000
G1 X79.9820 Y97.2400 E0.1022 F1080 ; custom feedrate
G1 X79.9820 Y102.7600 E0.2212
G1 X75.2400 Y102.7600 E0.3234
G1 X75.2400 Y97.2400 E0.4423
G92 E0.0000
G1 E-1 F2400 ; custom retraction
;zhop1
G1 X79.9820 Y97.3440 F3000 ; custom feedrate
G1 X118.0180 Y97.2400
G1 X118.0180 Y98.1790
G1 X118.9780 Y98.2000
G1 Z2.880 F1200
G1 E0 F2400 ; custom un-retraction/prime
G92 E0.0000
G1 X126.8000 Y98.2000 E0.1686 F1440 ; custom feedrate
G1 X126.8000 Y101.8000 E0.2462
G1 X118.9780 Y101.8000 E0.4147
G1 X118.9780 Y98.2000 E0.4923
G1 X118.4980 Y97.7200 F3000 ; custom feedrate
G92 E0.0000
G1 X127.2800 Y97.7200 E0.1893 F1440 ; custom feedrate
G1 X127.2800 Y102.2800 E0.2875
G1 X118.4980 Y102.2800 E0.4768
G1 X118.4980 Y97.7200 E0.5751
G1 X118.0180 Y97.2400 F3000 ; custom feedrate
G92 E0.0000
G1 X127.7600 Y97.2400 E0.2100 F1080 ; custom feedrate
G1 X127.7600 Y102.7600 E0.3289
G1 X118.0180 Y102.7600 E0.5389
G1 X118.0180 Y97.2400 E0.6579
G1 X119.7610 Y101.4520 F3000 ; custom feedrate
G92 E0.0000
G1 X122.6650 Y98.5480 E0.1106 F1800 ; custom feedrate
G1 X126.4520 Y98.5480 E0.2127
G1 X126.4520 Y99.0040 E0.2249
G1 X124.0040 Y101.4520 E0.3182
G92 E0.0000
G1 E-1 F2400 ; custom retraction
;layer 25, Z = 3.000
;fan25;
G1 Z3.000 F1200
G1 X126.8000 Y101.8000 F3000 ; custom feedrate
G1 E0 F2400 ; custom un-retraction/prime
G92 E0.0000
G1 X118.9470 Y101.8000 E0.1693 F1440 ; custom feedrate
G1 X118.9470 Y98.2000 E0.2468
G1 X126.8000 Y98.2000 E0.4161
G1 X126.8000 Y101.8000 E0.4937
G1 X127.2800 Y102.2800 F3000 ; custom feedrate
G92 E0.0000
G1 X118.4670 Y102.2800 E0.1899 F1440 ; custom feedrate
G1 X118.4670 Y97.7200 E0.2882
G1 X127.2800 Y97.7200 E0.4782
G1 X127.2800 Y102.2800 E0.5764
G1 X127.7600 Y102.7600 F3000 ; custom feedrate
G92 E0.0000
G1 X117.9870 Y102.7600 E0.2106 F1080 ; custom feedrate
G1 X117.9870 Y97.2400 E0.3296
G1 X127.7600 Y97.2400 E0.5402
G1 X127.7600 Y102.7600 E0.6592
G1 X124.0040 Y98.5480 F3000 ; custom feedrate
G92 E0.0000
G1 X126.4520 Y100.9960 E0.0933 F1800 ; custom feedrate
G1 X126.4520 Y101.4520 E0.1056
G1 X122.6650 Y101.4520 E0.2076
G1 X119.7610 Y98.5480 E0.3182
G92 E0.0000
G1 E-1 F2400 ; custom retraction
;zhop1
G1 X79.0530 Y98.2000 F3000 ; custom feedrate
G1 Z3.000 F1200
G1 E0 F2400 ; custom un-retraction/prime
G92 E0.0000
G1 X79.0530 Y101.8000 E0.0776 F1440 ; custom feedrate
G1 X76.2000 Y101.8000 E0.1391
G1 X76.2000 Y98.2000 E0.2167
G1 X79.0530 Y98.2000 E0.2782
G1 X79.5330 Y97.7200 F3000 ; custom feedrate
G92 E0.0000
G1 X79.5330 Y102.2800 E0.0983 F1440 ; custom feedrate
G1 X75.7200 Y102.2800 E0.1805
G1 X75.7200 Y97.7200 E0.2787
G1 X79.5330 Y97.7200 E0.3609
G1 X80.0130 Y97.2400 F3000 ; custom feedrate
G92 E0.0000
G1 X80.0130 Y102.7600 E0.1190 F1080 ; custom feedrate
G1 X75.2400 Y102.7600 E0.2218
G1 X75.2400 Y97.2400 E0.3408
G1 X80.0130 Y97.2400 E0.4437
G92 E0.0000
G1 E-1 F2400 ; custom retraction
;zhop1
G1 X75.2400 Y98.6060 F3000 ; custom feedrate
G1 X71.9530 Y99.5470
G1 Z3.000 F1200
G1 E0 F2400 ; custom un-retraction/prime
G92 E0.0000
G1 X71.9530 Y100.4530 E0.0195 F1080 ; custom feedrate
G1 X71.0470 Y100.4530 E0.0390
G1 X71.0470 Y99.5470 E0.0585
G1 X71.9530 Y99.5470 E0.0781
G1 X71.3350 Y99.8460 F3000 ; custom feedrate
G92 E0.0000
G1 X71.6540 Y100.1650 E0.0097 F1800 ; custom feedrate
G92 E0.0000
G1 E-1 F2400 ; custom retraction
;layer 26, Z = 3.120
;fan26;
G1 Z3.120 F1200
G1 X71.9340 Y100.4340 F3000 ; custom feedrate
G1 E0 F2400 ; custom un-retraction/prime
G92 E0.0000
G1 X71.0660 Y100.4340 E0.0187 F1080 ; custom feedrate
G1 X71.0660 Y99.5660 E0.0374
G1 X71.9340 Y99.5660 E0.0561
G1 X71.9340 Y100.4340 E0.0748
G1 X71.6350 Y99.8540 F3000 ; custom feedrate
G92 E0.0000
G1 X71.3540 Y100.1350 E0.0086 F1800 ; custom feedrate
G92 E0.0000
G1 E-1 F2400 ; custom retraction
;zhop1
G1 X71.9340 Y100.3340 F3000 ; custom feedrate
G1 X71.9340 Y100.4340
G1 X75.2400 Y101.4700
G1 X76.2000 Y101.8000
G1 Z3.120 F1200
G1 E0 F2400 ; custom un-retraction/prime
G92 E0.0000
G1 X76.2000 Y98.2000 E0.0776 F1440 ; custom feedrate
G1 X79.0840 Y98.2000 E0.1398
G1 X79.0840 Y101.8000 E0.2173
G1 X76.2000 Y101.8000 E0.2795
G1 X75.7200 Y102.2800 F3000 ; custom feedrate
G92 E0.0000
G1 X75.7200 Y97.7200 E0.0983 F1440 ; custom feedrate
G1 X79.5640 Y97.7200 E0.1811
G1 X79.5640 Y102.2800 E0.2794
G1 X75.7200 Y102.2800 E0.3623
G1 X75.2400 Y102.7600 F3000 ; custom feedrate
G92 E0.0000
G1 X75.2400 Y97.2400 E0.1190 F1080 ; custom feedrate
G1 X80.0440 Y97.2400 E0.2225
G1 X80.0440 Y102.7600 E0.3415
G1 X75.2400 Y102.7600 E0.4450
G92 E0.0000
G1 E-1 F2400 ; custom retraction
;zhop1
G1 X80.0440 Y102.6540 F3000 ; custom feedrate
G1 X117.9560 Y102.7600
G1 X117.9560 Y101.8210
G1 X118.9160 Y101.8000
G1 Z3.120 F1200
G1 E0 F2400 ; custom un-retraction/prime
G92 E0.0000
G1 X118.9160 Y98.2000 E0.0776 F1440 ; custom feedrate
G1 X126.8000 Y98.2000 E0.2475
G1 X126.8000 Y101.8000 E0.3251
G1 X118.9160 Y101.8000 E0.4950
G1 X118.4360 Y102.2800 F3000 ; custom feedrate
G92 E0.0000
G1 X118.4360 Y97.7200 E0.0983 F1440 ; custom feedrate
G1 X127.2800 Y97.7200 E0.2889
G1 X127.2800 Y102.2800 E0.3872
G1 X118.4360 Y102.2800 E0.5778
G1 X117.9560 Y102.7600 F3000 ; custom feedrate
G92 E0.0000
G1 X117.9560 Y97.2400 E0.1190 F1080 ; custom feedrate
G1 X127.7600 Y97.2400 E0.3303
G1 X127.7600 Y102.7600 E0.4492
G1 X117.9560 Y102.7600 E0.6606
G1 X119.7610 Y101.4520 F3000 ; custom feedrate
G92 E0.0000
G1 X122.6650 Y98.5480 E0.1106 F1800 ; custom feedrate
G1 X126.4520 Y98.5480 E0.2127
G1 X126.4520 Y99.0040 E0.2249
G1 X124.0040 Y101.4520 E0.3182
G92 E0.0000
G1 E-1 F2400 ; custom retraction
;layer 27, Z = 3.240
;fan27;
G1 Z3.240 F1200
G1 X126.8000 Y101.8000 F3000 ; custom feedrate
G1 E0 F2400 ; custom un-retraction/prime
G92 E0.0000
G1 X118.8800 Y101.8000 E0.1707 F1440 ; custom feedrate
G1 X118.8800 Y98.2000 E0.2483
G1 X126.8000 Y98.2000 E0.4190
G1 X126.8000 Y101.8000 E0.4966
G1 X127.2800 Y102.2800 F3000 ; custom feedrate
G92 E0.0000
G1 X118.4000 Y102.2800 E0.1914 F1440 ; custom feedrate
G1 X118.4000 Y97.7200 E0.2897
G1 X127.2800 Y97.7200 E0.4811
G1 X127.2800 Y102.2800 E0.5793
G1 X127.7600 Y102.7600 F3000 ; custom feedrate
G92 E0.0000
G1 X117.9200 Y102.7600 E0.2121 F1080 ; custom feedrate
G1 X117.9200 Y97.2400 E0.3311
G1 X127.7600 Y97.2400 E0.5431
G1 X127.7600 Y102.7600 E0.6621
G1 X124.0040 Y98.5480 F3000 ; custom feedrate
G92 E0.0000
G1 X126.4520 Y100.9960 E0.0933 F1800 ; custom feedrate
G1 X126.4520 Y101.4520 E0.1056
G1 X122.6650 Y101.4520 E0.2076
G1 X119.7610 Y98.5480 E0.3182
G92 E0.0000
G1 E-1 F2400 ; custom retraction
;zhop1
G1 X79.1200 Y98.2000 F3000 ; custom feedrate
G1 Z3.240 F1200
G1 E0 F2400 ; custom un-retraction/prime
G92 E0.0000
G1 X79.1200 Y101.8000 E0.0776 F1440 ; custom feedrate
G1 X76.2000 Y101.8000 E0.1405
G1 X76.2000 Y98.2000 E0.2181
G1 X79.1200 Y98.2000 E0.2811
G1 X79.6000 Y97.7200 F3000 ; custom feedrate
G92 E0.0000
G1 X79.6000 Y102.2800 E0.0983 F1440 ; custom feedrate
G1 X75.7200 Y102.2800 E0.1819
G1 X75.7200 Y97.7200 E0.2802
G1 X79.6000 Y97.7200 E0.3638
G1 X80.0800 Y97.2400 F3000 ; custom feedrate
G92 E0.0000
G1 X80.0800 Y102.7600 E0.1190 F1080 ; custom feedrate
G1 X75.2400 Y102.7600 E0.2233
G1 X75.2400 Y97.2400 E0.3423
G1 X80.0800 Y97.2400 E0.4466
G92 E0.0000
G1 E-1 F2400 ; custom retraction
;zhop1
G1 X71.9150 Y99.5850 F3000 ; custom feedrate
G1 Z3.240 F1200
G1 E0 F2400 ; custom un-retraction/prime
G92 E0.0000
G1 X71.9150 Y100.4150 E0.0179 F1080 ; custom feedrate
G1 X71.0850 Y100.4150 E0.0358
G1 X71.0850 Y99.5850 E0.0536
G1 X71.9150 Y99.5850 E0.0715
G1 X71.3730 Y99.8840 F3000 ; custom feedrate
G92 E0.0000
G1 X71.6160 Y100.1270 E0.0074 F1800 ; custom feedrate
G92 E0.0000
G1 E-1 F2400 ; custom retraction
;layer 28, Z = 3.360
;fan28;
G1 Z3.360 F1200
G1 X71.8960 Y100.3960 F3000 ; custom feedrate
G1 E0 F2400 ; custom un-retraction/prime
G92 E0.0000
G1 X71.1040 Y100.3960 E0.0171 F1080 ; custom feedrate
G1 X71.1040 Y99.6040 E0.0341
G1 X71.8960 Y99.6040 E0.0512
G1 X71.8960 Y100.3960 E0.0682
G1 X71.5970 Y99.8920 F3000 ; custom feedrate
G92 E0.0000
G1 X71.3920 Y100.0970 E0.0062 F1800 ; custom feedrate
G92 E0.0000
G1 E-1 F2400 ; custom retraction
;zhop1
G1 X71.8960 Y100.2760 F3000 ; custom feedrate
G1 X71.8960 Y100.3960
G1 X75.2400 Y101.4600
G1 X76.2000 Y101.8000
G1 Z3.360 F1200
G1 E0 F2400 ; custom un-retraction/prime
G92 E0.0000
G1 X76.2000 Y98.2000 E0.0776 F1440 ; custom feedrate
G1 X79.1570 Y98.2000 E0.1413
G1 X79.1570 Y101.8000 E0.2189
G1 X76.2000 Y101.8000 E0.2826
G1 X75.7200 Y102.2800 F3000 ; custom feedrate
G92 E0.0000
G1 X75.7200 Y97.7200 E0.0983 F1440 ; custom feedrate
G1 X79.6370 Y97.7200 E0.1827
G1 X79.6370 Y102.2800 E0.2810
G1 X75.7200 Y102.2800 E0.3654
G1 X75.2400 Y102.7600 F3000 ; custom feedrate
G92 E0.0000
G1 X75.2400 Y97.2400 E0.1190 F1080 ; custom feedrate
G1 X80.1170 Y97.2400 E0.2241
G1 X80.1170 Y102.7600 E0.3431
G1 X75.2400 Y102.7600 E0.4482
G92 E0.0000
G1 E-1 F2400 ; custom retraction
;zhop1
G1 X80.1170 Y102.6530 F3000 ; custom feedrate
G1 X117.8830 Y102.7600
G1 X117.8830 Y101.8210
G1 X118.8430 Y101.8000
G1 Z3.360 F1200
G1 E0 F2400 ; custom un-retraction/prime
G92 E0.0000
G1 X118.8430 Y98.2000 E0.0776 F1440 ; custom feedrate
G1 X126.8000 Y98.2000 E0.2491
G1 X126.8000 Y101.8000 E0.3267
G1 X118.8430 Y101.8000 E0.4982
G1 X118.3630 Y102.2800 F3000 ; custom feedrate
G92 E0.0000
G1 X118.3630 Y97.7200 E0.0983 F1440 ; custom feedrate
G1 X127.2800 Y97.7200 E0.2905
G1 X127.2800 Y102.2800 E0.3887
G1 X118.3630 Y102.2800 E0.5809
G1 X117.8830 Y102.7600 F3000 ; custom feedrate
G92 E0.0000
G1 X117.8830 Y97.2400 E0.1190 F1080 ; custom feedrate
G1 X127.7600 Y97.2400 E0.3318
G1 X127.7600 Y102.7600 E0.4508
G1 X117.8830 Y102.7600 E0.6637
