; Postprocessed by [ArcWelder](https://github.com/FormerLurker/ArcWelderLib)
; Copyright(C) 2020 - Brad Hochgesang
; arc_welder_resolution_mm = 0.05
; arc_welder_g90_influences_extruder = False

;FLAVOR:Marlin
;TIME:613
;Filament used: 0.357604m
;Layer height: 0.2
;MINX:21.259
;MINY:20.2
;MINZ:0.2
;MAXX:180.859
;MAXY:179.8
;MAXZ:0.6
;LINEARADVANCEPROCESSED
;Generated with Cura_SteamEngine 4.8.0
M140 S60
M105
M190 S60
M104 S210
M105
M109 S210
M82 ;absolute extrusion mode
G21 ;metric values
 G90 ;absolute positioning
 M82 ;set extruder to absolute mode
 M107 ;start with the fan off
 G28 X0 Y0 ;move X/Y to min endstops
 G28 Z0 ;move Z to min endstops
 G1 Z15.0 F150 ;move the platform down 15mm
 G92 E0 ;zero the extruded length
 G1 F200 E6 ;extrude 6 mm of feed stock
 G92 E0 ;zero the extruded length again
 G1 F150 
;Put printing message on LCD screen
 M117 Printing...
G92 E0
G92 E0
G1 F1800 E-1
;LAYER_COUNT:3
M900 K0.220000 T0 ;added by LinearAdvanceSettingPlugin
;LAYER:0
M117 INDICATOR-Layer0
M107
;MESH:Bed_Level_Test.stl
G0 F4500 X37.202 Y36.143 Z0.2
;TYPE:WALL-INNER
G1 F1800 E0
G1 F1200 X22.059 Y36.143 E0.48855
G1 X22.059 Y21 E0.9771
G1 X37.202 Y21 E1.46565
G1 X37.202 Y36.143 E1.95419
G1 F1800 E0.95419
G0 F4500 X37.588 Y36.529
G0 X38.867 Y36.529
G0 X93.102 Y90.764
G0 X93.102 Y92.043
G0 X108.631 Y107.571
G1 F1800 E1.95419
G1 F1200 X93.488 Y107.571 E2.44274
G1 X93.488 Y92.429 E2.93126
G1 X108.631 Y92.429 E3.41981
G1 X108.631 Y107.571 E3.90832
G1 F1800 E2.90832
G0 F4500 X109.017 Y92.043
G0 X109.017 Y90.764
G0 X163.251 Y36.529
G0 X164.53 Y36.529
G0 X164.916 Y36.143
G1 F1800 E3.90832
G1 F1200 X164.916 Y21 E4.39687
G1 X180.059 Y21 E4.88542
G1 X180.059 Y36.143 E5.37397
G1 X164.916 Y36.143 E5.86252
G1 F1800 E4.86252
G0 F4500 X180.059 Y36.523
G0 X180.059 Y37.808
G0 X180.059 Y162.192
G0 X180.059 Y163.477
G0 X180.059 Y163.857
G1 F1800 E5.86252
G1 F1200 X180.059 Y179 E6.35107
G1 X164.916 Y179 E6.83961
G1 X164.916 Y163.857 E7.32816
G1 X180.059 Y163.857 E7.81671
G1 F1800 E6.81671
G0 F4500 X164.536 Y163.857
G0 X163.251 Y163.857
G0 X38.867 Y163.857
G0 X37.582 Y163.857
G0 X22.059 Y163.857
G1 F1800 E7.81671
G1 F1200 X37.202 Y163.857 E8.30526
G1 X37.202 Y179 E8.79381
G1 X22.059 Y179 E9.28236
G1 X22.059 Y163.857 E9.77091
G0 F4500 X21.659 Y163.457
G1 F1200 X37.602 Y163.457 E10.28526
G1 X37.602 Y179.4 E10.79962
G1 X21.659 Y179.4 E11.31398
G1 X21.659 Y163.457 E11.82834
G1 F1800 E10.82834
G0 F4500 X21.729 Y163.527
G0 X37.588 Y163.471
G0 X37.588 Y162.192
G0 X91.823 Y107.957
G0 X93.102 Y107.957
G0 X93.158 Y92.099
G0 X93.088 Y92.029
G1 F1800 E11.82834
G1 F1200 X109.031 Y92.029 E12.3427
G1 X109.031 Y107.971 E12.85702
G1 X93.088 Y107.971 E13.37138
G1 X93.088 Y92.029 E13.88571
G1 F1800 E12.88571
G0 F4500 X93.158 Y92.099
G0 X93.102 Y90.764
G0 X38.867 Y36.529
G0 X37.588 Y36.529
G0 X21.729 Y36.473
G0 X21.659 Y36.543
G1 F1800 E13.88571
G1 F1200 X21.659 Y20.6 E14.40007
G1 X37.602 Y20.6 E14.91442
G1 X37.602 Y36.543 E15.42878
G1 X21.659 Y36.543 E15.94314
G1 F1800 E14.94314
G0 F4500 X21.729 Y36.473
G0 X37.582 Y36.473
G0 X38.867 Y36.473
G0 X163.251 Y36.473
G0 X164.536 Y36.473
G0 X180.389 Y36.473
G0 X180.459 Y36.543
G1 F1800 E15.94314
G1 F1200 X164.516 Y36.543 E16.4575
G1 X164.516 Y20.6 E16.97186
G1 X180.459 Y20.6 E17.48622
G1 X180.459 Y36.543 E18.00057
G1 F1800 E17.00057
G0 F4500 X180.389 Y36.473
G0 X164.586 Y36.523
G0 X164.586 Y37.808
G0 X164.586 Y162.192
G0 X164.586 Y163.477
G0 X164.516 Y163.457
G1 F1800 E18.00057
G1 F1200 X180.459 Y163.457 E18.51493
G1 X180.459 Y179.4 E19.02929
G1 X164.516 Y179.4 E19.54365
G1 X164.516 Y163.457 E20.05801
G0 F4500 X164.586 Y163.527
G0 X180.389 Y179.33
G0 X180.859 Y179.8
;TYPE:WALL-OUTER
G1 F1200 X164.116 Y179.8 E20.59818
G1 X164.116 Y163.057 E21.13834
G1 X180.859 Y163.057 E21.67851
G1 X180.859 Y179.8 E22.21868
G0 F4500 X180.659 Y179.8
G1 F1800 E21.21868
G0 F4500 X180.389 Y179.33
G0 X164.53 Y163.471
G0 X164.53 Y162.192
G0 X110.296 Y107.957
G0 X109.017 Y107.957
G0 X109.431 Y108.371
G1 F1800 E22.21868
G1 F1200 X92.688 Y108.371 E22.75885
G1 X92.688 Y91.629 E23.29898
G1 X109.431 Y91.629 E23.83915
G1 X109.431 Y108.371 E24.37929
G0 F4500 X109.231 Y108.371
G1 F1800 E23.37929
G0 F4500 X108.961 Y107.901
G0 X93.102 Y92.043
G0 X93.102 Y90.764
G0 X38.867 Y36.529
G0 X37.588 Y36.529
G0 X38.002 Y36.943
G1 F1800 E24.37929
G1 F1200 X21.259 Y36.943 E24.91946
G1 X21.259 Y20.2 E25.45962
G1 X38.002 Y20.2 E25.99979
G1 X38.002 Y36.943 E26.53996
G0 F4500 X37.802 Y36.943
G1 F1800 E25.53996
G0 F4500 X37.532 Y36.473
G0 X21.729 Y36.523
G0 X21.729 Y37.808
G0 X21.729 Y162.192
G0 X21.729 Y163.477
G0 X21.259 Y163.057
G1 F1800 E26.53996
G1 F1200 X38.002 Y163.057 E27.08013
G1 X38.002 Y179.8 E27.6203
G1 X21.259 Y179.8 E28.16047
G1 X21.259 Y163.057 E28.70063
G0 F4500 X21.459 Y163.057
G1 F1800 E27.70063
G0 F4500 X21.729 Y163.527
G0 X37.588 Y163.471
G0 X37.588 Y162.192
G0 X163.251 Y36.529
G0 X164.53 Y36.529
G0 X180.389 Y20.67
G0 X180.859 Y20.2
G1 F1800 E28.70063
G1 F1200 X180.859 Y36.943 E29.2408
G1 X164.116 Y36.943 E29.78097
G1 X164.116 Y20.2 E30.32114
G1 X180.859 Y20.2 E30.86131
G0 F4500 X180.859 Y20.4
G0 X180.389 Y20.67
G0 X179.669 Y21.39
;TYPE:SKIN
G1 F1200 X179.669 Y35.753 E31.32469
G1 X165.306 Y35.753 E31.78807
G1 X165.306 Y21.39 E32.25146
G1 X179.669 Y21.39 E32.71484
G0 F4500 X179.488 Y21.662
G1 F1200 X179.396 Y21.57 E32.71904
G0 F4500 X178.83 Y21.57
G1 F1200 X179.488 Y22.227 E32.74904
G0 F4500 X179.488 Y22.793
G1 F1200 X178.265 Y21.57 E32.80484
G0 F4500 X177.699 Y21.57
G1 F1200 X179.488 Y23.359 E32.88646
G0 F4500 X179.488 Y23.924
G1 F1200 X177.133 Y21.57 E32.99389
G0 F4500 X176.568 Y21.57
G1 F1200 X179.488 Y24.49 E33.12712
G0 F4500 X179.488 Y25.056
G1 F1200 X176.002 Y21.57 E33.28617
G0 F4500 X175.436 Y21.57
G1 F1200 X179.488 Y25.622 E33.47104
G0 F4500 X179.488 Y26.187
G1 F1200 X174.871 Y21.57 E33.6817
G0 F4500 X174.305 Y21.57
G1 F1200 X179.488 Y26.753 E33.91818
G0 F4500 X179.488 Y27.319
G1 F1200 X173.739 Y21.57 E34.18048
G0 F4500 X173.173 Y21.57
G1 F1200 X179.488 Y27.884 E34.46859
G0 F4500 X179.488 Y28.45
G1 F1200 X172.608 Y21.57 E34.78249
G0 F4500 X172.042 Y21.57
G1 F1200 X179.488 Y29.016 E35.12222
G0 F4500 X179.488 Y29.581
G1 F1200 X171.476 Y21.57 E35.48775
G0 F4500 X170.911 Y21.57
G1 F1200 X179.488 Y30.147 E35.87908
G0 F4500 X179.488 Y30.713
G1 F1200 X170.345 Y21.57 E36.29624
G0 F4500 X169.779 Y21.57
G1 F1200 X179.488 Y31.278 E36.7392
G0 F4500 X179.488 Y31.844
G1 F1200 X169.214 Y21.57 E37.20796
G0 F4500 X168.648 Y21.57
G1 F1200 X179.488 Y32.41 E37.70254
G0 F4500 X179.488 Y32.975
G1 F1200 X168.082 Y21.57 E38.22293
G0 F4500 X167.517 Y21.57
G1 F1200 X179.488 Y33.541 E38.76912
G0 F4500 X179.488 Y34.107
G1 F1200 X166.951 Y21.57 E39.34113
G0 F4500 X166.385 Y21.57
G1 F1200 X179.488 Y34.672 E39.93894
G0 F4500 X179.488 Y35.238
G1 F1200 X165.82 Y21.57 E40.56255
G0 F4500 X165.484 Y21.8
G1 F1200 X179.257 Y35.573 E41.19096
G0 F4500 X178.691 Y35.573
G1 F1200 X165.484 Y22.366 E41.79354
G0 F4500 X165.484 Y22.932
G1 F1200 X178.125 Y35.573 E42.37029
G0 F4500 X177.56 Y35.573
G1 F1200 X165.484 Y23.497 E42.92127
G0 F4500 X165.484 Y24.063
G1 F1200 X176.994 Y35.573 E43.44642
G0 F4500 X176.428 Y35.573
G1 F1200 X165.484 Y24.629 E43.94575
G0 F4500 X165.484 Y25.194
G1 F1200 X175.863 Y35.573 E44.4193
G0 F4500 X175.297 Y35.573
G1 F1200 X165.484 Y25.76 E44.86703
G0 F4500 X165.484 Y26.326
G1 F1200 X174.731 Y35.573 E45.28893
G0 F4500 X174.166 Y35.573
G1 F1200 X165.484 Y26.891 E45.68506
G0 F4500 X165.484 Y27.457
G1 F1200 X173.6 Y35.573 E46.05535
G0 F4500 X173.034 Y35.573
G1 F1200 X165.484 Y28.023 E46.39983
G0 F4500 X165.484 Y28.589
G1 F1200 X172.469 Y35.573 E46.7185
G0 F4500 X171.903 Y35.573
G1 F1200 X165.484 Y29.154 E47.01138
G0 F4500 X165.484 Y29.72
G1 F1200 X171.337 Y35.573 E47.27842
G0 F4500 X170.771 Y35.573
G1 F1200 X165.484 Y30.286 E47.51965
G0 F4500 X165.484 Y30.851
G1 F1200 X170.206 Y35.573 E47.73509
G0 F4500 X169.64 Y35.573
G1 F1200 X165.484 Y31.417 E47.92471
G0 F4500 X165.484 Y31.983
G1 F1200 X169.074 Y35.573 E48.08851
G0 F4500 X168.509 Y35.573
G1 F1200 X165.484 Y32.548 E48.22653
G0 F4500 X165.484 Y33.114
G1 F1200 X167.943 Y35.573 E48.33872
G0 F4500 X167.377 Y35.573
G1 F1200 X165.484 Y33.68 E48.42509
G0 F4500 X165.484 Y34.245
G1 F1200 X166.812 Y35.573 E48.48568
G0 F4500 X166.246 Y35.573
G1 F1200 X165.484 Y34.811 E48.52045
G0 F4500 X165.484 Y35.377
G1 F1200 X165.68 Y35.573 E48.52939
G1 F1800 E47.52939
G0 F4500 X164.53 Y36.529
G0 X163.251 Y36.529
G0 X109.017 Y90.764
G0 X109.017 Y92.043
G0 X108.241 Y92.819
G1 F1800 E48.52939
G1 F1200 X108.241 Y107.181 E48.99274
G1 X93.878 Y107.181 E49.45613
G1 X93.878 Y92.819 E49.91948
G1 X108.241 Y92.819 E50.38286
G0 F4500 X108.06 Y93.352
G1 F1200 X107.707 Y92.999 E50.39897
G0 F4500 X107.141 Y92.999
G1 F1200 X108.06 Y93.917 E50.44088
G0 F4500 X108.06 Y94.483
G1 F1200 X106.575 Y92.999 E50.50861
G0 F4500 X106.01 Y92.999
G1 F1200 X108.06 Y95.049 E50.60214
G0 F4500 X108.06 Y95.614
G1 F1200 X105.444 Y92.999 E50.72148
G0 F4500 X104.878 Y92.999
G1 F1200 X108.06 Y96.18 E50.86663
G0 F4500 X108.06 Y96.746
G1 F1200 X104.313 Y92.999 E51.03759
G0 F4500 X103.747 Y92.999
G1 F1200 X108.06 Y97.312 E51.23438
G0 F4500 X108.06 Y97.877
G1 F1200 X103.181 Y92.999 E51.45696
G0 F4500 X102.616 Y92.999
G1 F1200 X108.06 Y98.443 E51.70535
G0 F4500 X108.06 Y99.009
G1 F1200 X102.05 Y92.999 E51.97956
G0 F4500 X101.484 Y92.999
G1 F1200 X108.06 Y99.574 E52.27957
G0 F4500 X108.06 Y100.14
G1 F1200 X100.918 Y92.999 E52.60541
G0 F4500 X100.353 Y92.999
G1 F1200 X108.06 Y100.706 E52.95705
G0 F4500 X108.06 Y101.271
G1 F1200 X99.787 Y92.999 E53.33449
G0 F4500 X99.221 Y92.999
G1 F1200 X108.06 Y101.837 E53.73775
G0 F4500 X108.06 Y102.403
G1 F1200 X98.656 Y92.999 E54.16682
G0 F4500 X98.09 Y92.999
G1 F1200 X108.06 Y102.968 E54.62169
G0 F4500 X108.06 Y103.534
G1 F1200 X97.524 Y92.999 E55.10238
G0 F4500 X96.959 Y92.999
G1 F1200 X108.06 Y104.1 E55.60887
G0 F4500 X108.06 Y104.665
G1 F1200 X96.393 Y92.999 E56.14116
G0 F4500 X95.827 Y92.999
G1 F1200 X108.06 Y105.231 E56.69928
G0 F4500 X108.06 Y105.797
G1 F1200 X95.262 Y92.999 E57.2832
G0 F4500 X94.696 Y92.999
G1 F1200 X108.06 Y106.363 E57.89294
G0 F4500 X108.06 Y106.928
G1 F1200 X94.13 Y92.999 E58.52849
G0 F4500 X94.057 Y93.491
G1 F1200 X107.566 Y107 E59.14485
G0 F4500 X107 Y107
G1 F1200 X94.057 Y94.057 E59.73538
G0 F4500 X94.057 Y94.622
G1 F1200 X106.435 Y107 E60.30014
G0 F4500 X105.869 Y107
G1 F1200 X94.057 Y95.188 E60.83907
G0 F4500 X94.057 Y95.754
G1 F1200 X105.303 Y107 E61.35218
G0 F4500 X104.738 Y107
G1 F1200 X94.057 Y96.319 E61.83951
G0 F4500 X94.057 Y96.885
G1 F1200 X104.172 Y107 E62.30101
G0 F4500 X103.606 Y107
G1 F1200 X94.057 Y97.451 E62.73669
G0 F4500 X94.057 Y98.017
G1 F1200 X103.041 Y107 E63.14657
G0 F4500 X102.475 Y107
G1 F1200 X94.057 Y98.582 E63.53065
G0 F4500 X94.057 Y99.148
G1 F1200 X101.909 Y107 E63.88891
G0 F4500 X101.343 Y107
G1 F1200 X94.057 Y99.714 E64.22134
G0 F4500 X94.057 Y100.279
G1 F1200 X100.778 Y107 E64.52799
G0 F4500 X100.212 Y107
G1 F1200 X94.057 Y100.845 E64.80881
G0 F4500 X94.057 Y101.411
G1 F1200 X99.646 Y107 E65.06382
G0 F4500 X99.081 Y107
G1 F1200 X94.057 Y101.976 E65.29304
G0 F4500 X94.057 Y102.542
G1 F1200 X98.515 Y107 E65.49644
G0 F4500 X97.949 Y107
G1 F1200 X94.057 Y103.108 E65.67402
G0 F4500 X94.057 Y103.673
G1 F1200 X97.384 Y107 E65.82581
G0 F4500 X96.818 Y107
G1 F1200 X94.057 Y104.239 E65.95179
G0 F4500 X94.057 Y104.805
G1 F1200 X96.252 Y107 E66.05194
G0 F4500 X95.687 Y107
G1 F1200 X94.057 Y105.37 E66.12631
G0 F4500 X94.057 Y105.936
G1 F1200 X95.121 Y107 E66.17485
G0 F4500 X94.555 Y107
G1 F1200 X94.057 Y106.502 E66.19757
G1 F1800 E65.19757
G0 F4500 X109.017 Y107.957
G0 X110.296 Y107.957
G0 X164.53 Y162.192
G0 X164.53 Y163.471
G0 X165.306 Y164.247
G1 F1800 E66.19757
G1 F1200 X179.669 Y164.247 E66.66096
G1 X179.669 Y178.61 E67.12434
G1 X165.306 Y178.61 E67.58772
G1 X165.306 Y164.247 E68.05111
G0 F4500 X179.488 Y164.78
G1 F1200 X179.134 Y164.427 E68.06724
G0 F4500 X178.569 Y164.427
G1 F1200 X179.488 Y165.346 E68.10917
G0 F4500 X179.488 Y165.911
G1 F1200 X178.003 Y164.427 E68.1769
G0 F4500 X177.437 Y164.427
G1 F1200 X179.488 Y166.477 E68.27045
G0 F4500 X179.488 Y167.043
G1 F1200 X176.872 Y164.427 E68.38981
G0 F4500 X176.306 Y164.427
G1 F1200 X179.488 Y167.609 E68.53499
G0 F4500 X179.488 Y168.174
G1 F1200 X175.74 Y164.427 E68.70598
G0 F4500 X175.175 Y164.427
G1 F1200 X179.488 Y168.74 E68.90276
G0 F4500 X179.488 Y169.306
G1 F1200 X174.609 Y164.427 E69.12537
G0 F4500 X174.043 Y164.427
G1 F1200 X179.488 Y169.871 E69.37378
G0 F4500 X179.488 Y170.437
G1 F1200 X173.478 Y164.427 E69.64799
G0 F4500 X172.912 Y164.427
G1 F1200 X179.488 Y171.003 E69.94803
G0 F4500 X179.488 Y171.568
G1 F1200 X172.346 Y164.427 E70.27386
G0 F4500 X171.78 Y164.427
G1 F1200 X179.488 Y172.134 E70.62552
G0 F4500 X179.488 Y172.7
G1 F1200 X171.215 Y164.427 E71.00299
G0 F4500 X170.649 Y164.427
G1 F1200 X179.488 Y173.265 E71.40625
G0 F4500 X179.488 Y173.831
G1 F1200 X170.083 Y164.427 E71.83534
G0 F4500 X169.518 Y164.427
G1 F1200 X179.488 Y174.397 E72.29023
G0 F4500 X179.488 Y174.962
G1 F1200 X168.952 Y164.427 E72.77092
G0 F4500 X168.386 Y164.427
G1 F1200 X179.488 Y175.528 E73.27743
G0 F4500 X179.488 Y176.094
G1 F1200 X167.821 Y164.427 E73.80975
G0 F4500 X167.255 Y164.427
G1 F1200 X179.488 Y176.66 E74.36789
G0 F4500 X179.488 Y177.225
G1 F1200 X166.689 Y164.427 E74.95183
G0 F4500 X166.124 Y164.427
G1 F1200 X179.488 Y177.791 E75.56158
G0 F4500 X179.488 Y178.357
G1 F1200 X165.558 Y164.427 E76.19714
G0 F4500 X165.484 Y164.919
G1 F1200 X178.994 Y178.429 E76.81355
G0 F4500 X178.429 Y178.429
G1 F1200 X165.484 Y165.484 E77.40417
G0 F4500 X165.484 Y166.05
G1 F1200 X177.863 Y178.429 E77.96898
G0 F4500 X177.297 Y178.429
G1 F1200 X165.484 Y166.616 E78.50795
G0 F4500 X165.484 Y167.181
G1 F1200 X176.732 Y178.429 E79.02115
G0 F4500 X176.166 Y178.429
G1 F1200 X165.484 Y167.747 E79.50853
G0 F4500 X165.484 Y168.313
G1 F1200 X175.6 Y178.429 E79.97008
G0 F4500 X175.035 Y178.429
G1 F1200 X165.484 Y168.879 E80.40583
G0 F4500 X165.484 Y169.444
G1 F1200 X174.469 Y178.429 E80.81578
G0 F4500 X173.903 Y178.429
G1 F1200 X165.484 Y170.01 E81.1999
G0 F4500 X165.484 Y170.576
G1 F1200 X173.338 Y178.429 E81.55822
G0 F4500 X172.772 Y178.429
G1 F1200 X165.484 Y171.141 E81.89074
G0 F4500 X165.485 Y171.708
G1 F1200 X172.206 Y178.429 E82.1974
G0 F4500 X171.64 Y178.429
G1 F1200 X165.485 Y172.273 E82.47825
G0 F4500 X165.485 Y172.839
G1 F1200 X171.075 Y178.429 E82.73329
G0 F4500 X170.509 Y178.429
G1 F1200 X165.485 Y173.405 E82.96252
G0 F4500 X165.485 Y173.97
G1 F1200 X169.943 Y178.429 E83.16594
G0 F4500 X169.378 Y178.429
G1 F1200 X165.485 Y174.536 E83.34356
G0 F4500 X165.485 Y175.102
G1 F1200 X168.812 Y178.429 E83.49536
G0 F4500 X168.246 Y178.429
G1 F1200 X165.485 Y175.667 E83.62136
G0 F4500 X165.485 Y176.233
G1 F1200 X167.681 Y178.429 E83.72155
G0 F4500 X167.115 Y178.429
G1 F1200 X165.485 Y176.799 E83.79592
G0 F4500 X165.485 Y177.365
G1 F1200 X166.549 Y178.429 E83.84447
G0 F4500 X165.984 Y178.429
G1 F1200 X165.485 Y177.93 E83.86723
G1 F1800 E82.86723
G0 F4500 X164.536 Y178.61
G0 X163.251 Y178.61
G0 X38.867 Y178.61
G0 X37.582 Y178.61
G0 X36.812 Y178.61
G1 F1800 E83.86723
G1 F1200 X22.449 Y178.61 E84.33062
G1 X22.449 Y164.247 E84.794
G1 X36.812 Y164.247 E85.25738
G1 X36.812 Y178.61 E85.72077
G0 F4500 X36.632 Y165.042
G1 F1200 X36.015 Y164.426 E85.7489
G0 F4500 X35.45 Y164.426
G1 F1200 X36.632 Y165.608 E85.80283
G0 F4500 X36.632 Y166.174
G1 F1200 X34.884 Y164.426 E85.88258
G0 F4500 X34.318 Y164.426
G1 F1200 X36.632 Y166.74 E85.98816
G0 F4500 X36.632 Y167.305
G1 F1200 X33.753 Y164.426 E86.11952
G0 F4500 X33.187 Y164.426
