;FLAVOR:Marlin
;TIME:2891
;Filament used: 5.84482m
;Layer height: 0.2
;MINX:40.2
;MINY:40.2
;MINZ:0.3
;MAXX:159.8
;MAXY:159.8
;MAXZ:60.012
;LINEARADVANCEPROCESSED
;Generated with Cura_SteamEngine 4.10.0
M140 S60
M105
M190 S60
M104 S210
M105
M109 S210
M82 ;absolute extrusion mode
G21 ;metric values
 G90 ;absolute positioning
 M82 ;set extruder to absolute mode
 M107 ;start with the fan off
 G28 X0 Y0 ;move X/Y to min endstops
 G28 Z0 ;move Z to min endstops
 G1 Z15.0 F60.0 ;move the platform down 15mm
 G92 E0 ;zero the extruded length
 G1 F200 E6 ;extrude 6 mm of feed stock
 G92 E0 ;zero the extruded length again
 G1 F60.0 
 ;Put printing message on LCD screen
 M117 Printing...
G92 E0
G92 E0
G1 F1500 E-6.5
;LAYER_COUNT:300
M900 K0.000000 T0 ;added by LinearAdvanceSettingPlugin
;LAYER:0
M107
;MESH:ringing_tower.stl
G0 F1800 X47.8 Y47.8 Z0.3
;TYPE:WALL-OUTER
G1 F1500 E0
G1 F1800 X47.8 Y82.283 E1.72036
G1 X46.369 Y83.933 E1.82933
G1 X46.3 Y83.994 E1.83392
G1 X46.3 Y89.917 E2.12942
G1 X47.8 Y91.645 E2.24358
G1 X47.8 Y116.355 E3.47637
G1 X46.3 Y118.083 E3.59053
G1 X46.3 Y123.989 E3.88518
G1 X47.8 Y125.716 E3.9993
G1 X47.8 Y159.8 E5.69976
G1 X40.2 Y159.8 E6.07893
G1 X40.2 Y127.235 E7.7036
G1 X40.2 Y127.078 E7.71143
G1 X40.436 Y127.078 E7.72321
G1 X40.564 Y127.168 E7.72959
G1 X44.862 Y130.175 E7.99129
G1 X44.985 Y130.261 E7.99877
G1 X45.2 Y130.149 E8.01087
G1 X45.2 Y129.998 E8.0184
G1 X45.2 Y123.607 E8.33725
G1 X45.2 Y123.456 E8.34478
G1 X44.985 Y123.344 E8.35688
G1 X44.862 Y123.43 E8.36437
G1 X40.564 Y126.437 E8.62606
G1 X40.436 Y126.527 E8.63387
G1 X40.2 Y126.528 E8.64564
G1 X40.2 Y126.371 E8.65205
G1 X40.2 Y87.484 E10.59214
G1 X45.2 Y83.983 E10.89666
G1 X45.2 Y76.275 E11.28121
G1 X40.2 Y72.774 E11.58573
G1 X40.2 Y40.2 E13.21086
G1 X72.765 Y40.2 E14.83553
G1 X72.922 Y40.2 E14.84336
G1 X72.922 Y40.436 E14.85514
G1 X72.832 Y40.564 E14.86152
G1 X69.739 Y44.985 E15.1307
G1 X69.851 Y45.2 E15.1428
G1 X76.393 Y45.2 E15.46918
G1 X76.544 Y45.2 E15.47671
G1 X76.656 Y44.985 E15.48881
G1 X76.57 Y44.862 E15.4963
G1 X73.563 Y40.564 E15.75799
G1 X73.473 Y40.436 E15.7658
G1 X73.472 Y40.2 E15.77757
G1 X73.629 Y40.2 E15.78398
G1 X112.516 Y40.2 E17.72406
G1 X116.017 Y45.2 E18.02859
G1 X123.725 Y45.2 E18.41314
G1 X127.226 Y40.2 E18.71766
G1 X159.8 Y40.2 E20.34279
G1 X159.8 Y47.8 E20.72195
G1 X108.082 Y47.8 E23.30217
G1 X106.583 Y46.3 E23.40797
G1 X101.417 Y46.3 E23.6657
G1 X99.918 Y47.8 E23.7715
G1 X47.8 Y47.8 E26.37168
G0 X47.8 Y48
G0 X47.41 Y47.41
;TYPE:SKIN
G1 X47.41 Y82.137 E28.10422
G1 X46.093 Y83.656 E28.20452
G1 X45.91 Y83.818 E28.21671
G1 X45.91 Y90.063 E28.52828
G1 X47.41 Y91.791 E28.64244
G1 X47.41 Y116.209 E29.86065
G1 X45.91 Y117.937 E29.97481
G1 X45.91 Y124.135 E30.28403
G1 X47.41 Y125.862 E30.39816
G1 X47.41 Y159.41 E32.07187
G1 X40.59 Y159.41 E32.41212
G1 X40.59 Y127.662 E33.99604
G1 X44.956 Y130.716 E34.26186
G1 X45.59 Y130.385 E34.29754
G1 X45.59 Y123.22 E34.655
G1 X44.956 Y122.889 E34.69069
G1 X40.59 Y125.943 E34.95651
G1 X40.59 Y87.687 E36.86511
G1 X45.59 Y84.186 E37.16963
G1 X45.59 Y76.072 E37.57444
G1 X40.59 Y72.571 E37.87896
G1 X40.59 Y40.59 E39.4745
G1 X72.338 Y40.59 E41.05841
G1 X69.284 Y44.956 E41.32423
G1 X69.615 Y45.59 E41.35992
G1 X76.78 Y45.59 E41.71738
G1 X77.111 Y44.956 E41.75306
G1 X74.057 Y40.59 E42.01888
G1 X112.313 Y40.59 E43.92748
G1 X115.814 Y45.59 E44.232
G1 X123.928 Y45.59 E44.63681
G1 X127.429 Y40.59 E44.94134
G1 X159.41 Y40.59 E46.53687
G1 X159.41 Y47.41 E46.87713
G1 X108.242 Y47.41 E49.42991
G1 X106.745 Y45.91 E49.53563
G1 X101.255 Y45.91 E49.80953
G1 X99.758 Y47.41 E49.91526
G1 X47.41 Y47.41 E52.52691
G0 X123.743 Y45.235
G0 X159.229 Y41
G1 X158.998 Y40.77 E52.54317
G0 X158.432 Y40.77
G1 X159.229 Y41.566 E52.59937
G0 X159.229 Y42.132
G1 X157.867 Y40.77 E52.69547
G0 X157.301 Y40.77
G1 X159.229 Y42.697 E52.83146
G0 X159.229 Y43.263
G1 X156.735 Y40.77 E53.00739
G0 X156.17 Y40.77
G1 X159.229 Y43.829 E53.22322
G0 X159.229 Y44.394
G1 X155.604 Y40.77 E53.47895
G0 X155.038 Y40.77
G1 X159.229 Y44.96 E53.77461
G0 X159.229 Y45.526
G1 X154.473 Y40.77 E54.11017
G0 X153.907 Y40.77
G1 X159.229 Y46.092 E54.48567
G0 X159.229 Y46.657
G1 X153.341 Y40.77 E54.90107
G0 X152.776 Y40.77
G1 X159.229 Y47.223 E55.35636
G0 X158.669 Y47.229
G1 X152.21 Y40.77 E55.81208
G0 X151.644 Y40.77
G1 X158.104 Y47.229 E56.26783
G0 X157.538 Y47.229
G1 X151.079 Y40.77 E56.72355
G0 X150.513 Y40.77
G1 X156.972 Y47.229 E57.17926
G0 X156.407 Y47.229
G1 X149.947 Y40.77 E57.63502
G0 X149.381 Y40.77
G1 X155.841 Y47.229 E58.09077
G0 X155.275 Y47.229
G1 X148.816 Y40.77 E58.54649
G0 X148.25 Y40.77
G1 X154.71 Y47.229 E59.00224
G0 X154.144 Y47.229
G1 X147.684 Y40.77 E59.45799
G0 X147.119 Y40.77
G1 X153.578 Y47.229 E59.91371
G0 X153.012 Y47.229
G1 X146.553 Y40.77 E60.36943
G0 X145.987 Y40.77
G1 X152.447 Y47.229 E60.82518
G0 X151.881 Y47.229
G1 X145.422 Y40.77 E61.2809
G0 X144.856 Y40.77
G1 X151.315 Y47.229 E61.73661
G0 X150.75 Y47.229
G1 X144.29 Y40.77 E62.19237
G0 X143.725 Y40.77
G1 X150.184 Y47.229 E62.64808
G0 X149.618 Y47.229
G1 X143.159 Y40.77 E63.1038
G0 X142.593 Y40.77
G1 X149.053 Y47.229 E63.55955
G0 X148.487 Y47.229
G1 X142.028 Y40.77 E64.01527
G0 X141.462 Y40.77
G1 X147.921 Y47.229 E64.47099
G0 X147.356 Y47.229
G1 X140.896 Y40.77 E64.92674
G0 X140.33 Y40.77
G1 X146.79 Y47.229 E65.38249
G0 X146.224 Y47.229
G1 X139.765 Y40.77 E65.83821
G0 X139.199 Y40.77
G1 X145.659 Y47.229 E66.29396
G0 X145.093 Y47.229
G1 X138.633 Y40.77 E66.74972
G0 X138.068 Y40.77
G1 X144.527 Y47.229 E67.20543
G0 X143.961 Y47.229
G1 X137.502 Y40.77 E67.66115
G0 X136.936 Y40.77
G1 X143.396 Y47.229 E68.1169
G0 X142.83 Y47.229
G1 X136.371 Y40.77 E68.57262
G0 X135.805 Y40.77
G1 X142.264 Y47.229 E69.02834
G0 X141.699 Y47.229
G1 X135.239 Y40.77 E69.48409
G0 X134.674 Y40.77
G1 X141.133 Y47.229 E69.93981
G0 X140.567 Y47.229
G1 X134.108 Y40.77 E70.39553
G0 X133.542 Y40.77
G1 X140.002 Y47.229 E70.85128
G0 X139.436 Y47.229
G1 X132.977 Y40.77 E71.307
G0 X132.411 Y40.77
G1 X138.87 Y47.229 E71.76271
G0 X138.305 Y47.229
G1 X131.845 Y40.77 E72.21847
G0 X131.28 Y40.77
G1 X137.739 Y47.229 E72.67418
G0 X137.173 Y47.229
G1 X130.714 Y40.77 E73.1299
G0 X130.148 Y40.77
G1 X136.608 Y47.229 E73.58565
G0 X136.042 Y47.229
G1 X129.582 Y40.77 E74.04141
G0 X129.017 Y40.77
G1 X135.476 Y47.229 E74.49712
G0 X134.911 Y47.229
G1 X128.451 Y40.77 E74.95288
G0 X127.885 Y40.77
G1 X134.345 Y47.229 E75.40863
G0 X133.779 Y47.229
G1 X127.439 Y40.889 E75.85595
G0 X127.205 Y41.221
G1 X133.213 Y47.229 E76.27985
G0 X132.648 Y47.229
G1 X126.973 Y41.554 E76.68025
G0 X126.739 Y41.886
G1 X132.082 Y47.229 E77.05723
G0 X131.516 Y47.229
G1 X126.507 Y42.219 E77.41067
G0 X126.273 Y42.552
G1 X130.951 Y47.229 E77.7407
G0 X130.385 Y47.229
G1 X126.041 Y42.885 E78.04719
G0 X125.807 Y43.217
G1 X129.819 Y47.229 E78.33026
G0 X129.254 Y47.229
G1 X125.575 Y43.55 E78.58983
G0 X125.342 Y43.883
G1 X128.688 Y47.229 E78.82591
G0 X128.122 Y47.229
G1 X125.109 Y44.216 E79.03849
G0 X124.876 Y44.549
G1 X127.557 Y47.229 E79.22762
G0 X126.991 Y47.229
G1 X124.643 Y44.881 E79.39328
G0 X124.41 Y45.214
G1 X126.425 Y47.229 E79.53545
G0 X125.86 Y47.229
G1 X124.177 Y45.546 E79.65419
G0 X123.834 Y45.77
G1 X125.294 Y47.229 E79.75717
G0 X124.728 Y47.229
G1 X123.269 Y45.77 E79.86011
G0 X122.703 Y45.77
G1 X124.163 Y47.229 E79.96308
G0 X123.597 Y47.229
G1 X122.137 Y45.77 E80.06606
G0 X121.572 Y45.77
G1 X123.031 Y47.229 E80.169
G0 X122.465 Y47.229
G1 X121.006 Y45.77 E80.27194
G0 X120.44 Y45.77
G1 X121.9 Y47.229 E80.37492
G0 X121.334 Y47.229
G1 X119.875 Y45.77 E80.47786
G0 X119.309 Y45.77
G1 X120.768 Y47.229 E80.5808
G0 X120.203 Y47.229
G1 X118.743 Y45.77 E80.68377
G0 X118.178 Y45.77
G1 X119.637 Y47.229 E80.78671
G0 X119.071 Y47.229
G1 X117.612 Y45.77 E80.88965
G0 X117.046 Y45.77
G1 X118.506 Y47.229 E80.99263
G0 X117.94 Y47.229
G1 X116.48 Y45.77 E81.0956
G0 X115.915 Y45.77
G1 X117.374 Y47.229 E81.19855
G0 X116.809 Y47.229
G1 X110.348 Y40.769 E81.65437
G0 X109.783 Y40.769
G1 X116.243 Y47.229 E82.11016
G0 X115.677 Y47.229
G1 X109.217 Y40.769 E82.56594
G0 X108.651 Y40.769
G1 X115.112 Y47.229 E83.02177
G0 X114.546 Y47.229
G1 X108.086 Y40.769 E83.47756
G0 X107.52 Y40.769
G1 X113.98 Y47.229 E83.93334
G0 X113.414 Y47.229
G1 X106.954 Y40.769 E84.38913
G0 X106.389 Y40.769
G1 X112.849 Y47.229 E84.84492
G0 X112.283 Y47.229
G1 X105.823 Y40.769 E85.30071
G0 X105.257 Y40.769
G1 X111.717 Y47.229 E85.75649
G0 X111.152 Y47.229
G1 X104.692 Y40.769 E86.21228
G0 X104.126 Y40.769
G1 X110.586 Y47.229 E86.66807
G0 X110.02 Y47.229
G1 X103.56 Y40.769 E87.12386
G0 X102.995 Y40.769
G1 X109.455 Y47.229 E87.57965
G0 X108.889 Y47.229
G1 X102.429 Y40.769 E88.03543
G0 X101.863 Y40.769
G1 X108.323 Y47.229 E88.49122
G1 X108.393 Y47.299
G0 X106.258 Y45.73
G1 X101.297 Y40.769 E88.84125
G0 X100.732 Y40.769
G1 X105.692 Y45.73 E89.19124
G0 X105.126 Y45.73
G1 X100.166 Y40.769 E89.54123
G0 X99.6 Y40.769
G1 X104.561 Y45.73 E89.89125
G0 X103.995 Y45.73
G1 X99.035 Y40.769 E90.24124
G0 X98.469 Y40.769
G1 X103.429 Y45.73 E90.59123
G0 X102.864 Y45.73
G1 X97.903 Y40.769 E90.94126
G0 X97.338 Y40.769
G1 X102.298 Y45.73 E91.29125
G0 X101.732 Y45.73
G1 X96.772 Y40.769 E91.64124
G0 X96.206 Y40.769
G1 X101.174 Y45.737 E91.99176
G0 X100.891 Y46.019
G1 X95.641 Y40.769 E92.36217
G0 X95.075 Y40.769
G1 X100.608 Y46.302 E92.75256
G0 X100.326 Y46.586
G1 X94.509 Y40.769 E93.16298
G0 X93.944 Y40.769
G1 X100.043 Y46.869 E93.59333
G0 X99.76 Y47.152
G1 X93.378 Y40.769 E94.04365
G0 X92.812 Y40.769
G1 X99.272 Y47.229 E94.49944
G0 X98.707 Y47.229
G1 X92.247 Y40.769 E94.95523
G0 X91.681 Y40.769
G1 X98.141 Y47.229 E95.41101
G0 X97.575 Y47.229
G1 X91.115 Y40.769 E95.8668
G0 X90.549 Y40.769
G1 X97.01 Y47.229 E96.32262
G0 X96.444 Y47.229
G1 X89.984 Y40.769 E96.77841
G0 X89.418 Y40.769
G1 X95.878 Y47.229 E97.2342
G0 X95.313 Y47.229
G1 X88.852 Y40.769 E97.69002
G0 X88.287 Y40.769
G1 X94.747 Y47.229 E98.14581
G0 X94.181 Y47.229
G1 X87.721 Y40.769 E98.6016
G0 X87.155 Y40.769
G1 X93.615 Y47.229 E99.05739
G0 X93.05 Y47.229
G1 X86.59 Y40.769 E99.51318
G0 X86.024 Y40.769
G1 X92.484 Y47.229 E99.96896
G0 X91.918 Y47.229
G1 X85.458 Y40.769 E100.42475
G0 X84.893 Y40.769
G1 X91.353 Y47.229 E100.88054
G0 X90.787 Y47.229
G1 X84.327 Y40.769 E101.33633
G0 X83.761 Y40.769
G1 X90.221 Y47.229 E101.79211
G0 X89.656 Y47.229
G1 X83.196 Y40.769 E102.2479
G0 X82.63 Y40.769
G1 X89.09 Y47.229 E102.70369
G0 X88.524 Y47.229
G1 X82.064 Y40.769 E103.15948
G0 X81.499 Y40.769
G1 X87.959 Y47.229 E103.61527
G0 X87.393 Y47.229
G1 X80.933 Y40.769 E104.07105
G0 X80.367 Y40.769
G1 X86.827 Y47.229 E104.52684
G0 X86.262 Y47.229
G1 X79.801 Y40.769 E104.98267
G0 X79.236 Y40.769
G1 X85.696 Y47.229 E105.43845
G0 X85.13 Y47.229
G1 X78.67 Y40.769 E105.89424
G0 X78.104 Y40.769
G1 X84.565 Y47.229 E106.35006
G0 X83.999 Y47.229
G1 X77.539 Y40.769 E106.80585
G0 X76.973 Y40.769
G1 X83.433 Y47.229 E107.26164
G0 X82.867 Y47.229
G1 X76.407 Y40.769 E107.71743
G0 X75.842 Y40.769
G1 X82.302 Y47.229 E108.17322
G0 X81.736 Y47.229
G1 X75.276 Y40.769 E108.629
G0 X74.71 Y40.769
G1 X81.17 Y47.229 E109.08479
G0 X80.605 Y47.229
G1 X75 Y41.625 E109.48022
G1 X74.93 Y41.555
G0 X76.318 Y43.508
G1 X80.039 Y47.229 E109.74276
G0 X79.473 Y47.229
G1 X77.274 Y45.03 E109.89791
G0 X77.08 Y45.401
G1 X78.908 Y47.229 E110.02688
G0 X78.342 Y47.229
G1 X76.883 Y45.77 E110.12982
G0 X76.317 Y45.77
G1 X77.776 Y47.229 E110.23276
G0 X77.211 Y47.229
G1 X75.751 Y45.77 E110.33574
G0 X75.185 Y45.77
G1 X76.645 Y47.229 E110.43871
G0 X76.079 Y47.229
G1 X74.62 Y45.77 E110.54165
G0 X74.054 Y45.77
G1 X75.514 Y47.229 E110.64463
G0 X74.948 Y47.229
G1 X73.488 Y45.77 E110.74761
G0 X72.923 Y45.77
G1 X74.382 Y47.229 E110.85055
G0 X73.816 Y47.229
G1 X72.357 Y45.77 E110.95349
G0 X71.791 Y45.77
G1 X73.251 Y47.229 E111.05646
G0 X72.685 Y47.229
G1 X71.226 Y45.77 E111.1594
G0 X70.66 Y45.77
G1 X72.119 Y47.229 E111.26234
G0 X71.554 Y47.229
G1 X70.094 Y45.77 E111.36532
G0 X69.529 Y45.77
G1 X70.988 Y47.229 E111.46826
G0 X70.422 Y47.229
G1 X63.963 Y40.77 E111.92398
G0 X63.397 Y40.77
G1 X69.857 Y47.229 E112.37973
G0 X69.291 Y47.229
G1 X62.832 Y40.77 E112.83545
G0 X62.266 Y40.77
G1 X68.725 Y47.229 E113.29116
G0 X68.16 Y47.229
G1 X61.7 Y40.77 E113.74692
G0 X61.135 Y40.77
G1 X67.594 Y47.229 E114.20263
G0 X67.028 Y47.229
G1 X60.569 Y40.77 E114.65835
G0 X60.003 Y40.77
G1 X66.463 Y47.229 E115.1141
G0 X65.897 Y47.229
G1 X59.437 Y40.77 E115.56986
G0 X58.872 Y40.77
G1 X65.331 Y47.229 E116.02557
G0 X64.766 Y47.229
G1 X58.306 Y40.77 E116.48133
G0 X57.74 Y40.77
G1 X64.2 Y47.229 E116.93708
G0 X63.634 Y47.229
G1 X57.175 Y40.77 E117.3928
G0 X56.609 Y40.77
G1 X63.068 Y47.229 E117.84851
G0 X62.503 Y47.229
G1 X56.043 Y40.77 E118.30427
G0 X55.478 Y40.77
G1 X61.937 Y47.229 E118.75998
G0 X61.371 Y47.229
G1 X54.912 Y40.77 E119.2157
G0 X54.346 Y40.77
G1 X60.806 Y47.229 E119.67145
G0 X60.24 Y47.229
G1 X53.781 Y40.77 E120.12717
G0 X53.215 Y40.77
G1 X59.674 Y47.229 E120.58289
G0 X59.109 Y47.229
G1 X52.649 Y40.77 E121.03864
G0 X52.084 Y40.77
G1 X58.543 Y47.229 E121.49436
G0 X57.977 Y47.229
G1 X51.518 Y40.77 E121.95007
G0 X50.952 Y40.77
G1 X57.412 Y47.229 E122.40583
G0 X56.846 Y47.229
G1 X50.387 Y40.77 E122.86154
G0 X49.821 Y40.77
G1 X56.28 Y47.229 E123.31726
G0 X55.715 Y47.229
G1 X49.255 Y40.77 E123.77301
G0 X48.689 Y40.77
G1 X55.149 Y47.229 E124.22877
G0 X54.583 Y47.229
G1 X48.124 Y40.77 E124.68448
G0 X47.558 Y40.77
G1 X54.018 Y47.229 E125.14024
G0 X53.452 Y47.229
G1 X46.992 Y40.77 E125.59599
G0 X46.427 Y40.77
G1 X52.886 Y47.229 E126.05171
G0 X52.32 Y47.229
G1 X45.861 Y40.77 E126.50742
G0 X45.295 Y40.77
G1 X51.755 Y47.229 E126.96318
G0 X51.189 Y47.229
G1 X44.73 Y40.77 E127.41889
G0 X44.164 Y40.77
G1 X50.623 Y47.229 E127.87461
G0 X50.058 Y47.229
G1 X43.598 Y40.77 E128.33036
G0 X43.033 Y40.77
G1 X49.492 Y47.229 E128.78608
G0 X48.926 Y47.229
G1 X42.467 Y40.77 E129.2418
G0 X41.901 Y40.77
G1 X48.361 Y47.229 E129.69755
G0 X47.795 Y47.229
G1 X41.336 Y40.77 E130.15327
G0 X40.769 Y40.769
G1 X47.229 Y47.229 E130.60906
G0 X47.229 Y47.795
G1 X40.769 Y41.335 E131.06484
G0 X40.769 Y41.901
G1 X47.229 Y48.361 E131.52063
G0 X47.229 Y48.926
G1 X40.769 Y42.466 E131.97642
G0 X40.769 Y43.032
G1 X47.229 Y49.492 E132.43221
G0 X47.229 Y50.058
G1 X40.769 Y43.598 E132.888
G0 X40.769 Y44.163
G1 X47.229 Y50.623 E133.34378
G0 X47.229 Y51.189
G1 X40.769 Y44.729 E133.79957
G0 X40.769 Y45.295
G1 X47.229 Y51.755 E134.25536
G0 X47.229 Y52.32
G1 X40.769 Y45.86 E134.71115
G0 X40.769 Y46.426
G1 X47.229 Y52.886 E135.16694
G0 X47.229 Y53.452
G1 X40.769 Y46.992 E135.62272
G0 X40.769 Y47.557
G1 X47.229 Y54.018 E136.07855
G0 X47.229 Y54.583
G1 X40.769 Y48.123 E136.53433
G0 X40.769 Y48.689
G1 X47.229 Y55.149 E136.99012
G0 X47.229 Y55.715
G1 X40.769 Y49.254 E137.44595
G0 X40.769 Y49.82
G1 X47.229 Y56.28 E137.90173
G0 X47.229 Y56.846
G1 X40.769 Y50.386 E138.35752
G0 X40.769 Y50.951
G1 X47.229 Y57.412 E138.81334
G0 X47.229 Y57.977
G1 X40.769 Y51.517 E139.26913
G0 X40.769 Y52.083
G1 X47.229 Y58.543 E139.72492
G0 X47.229 Y59.109
G1 X40.769 Y52.649 E140.18071
G0 X40.769 Y53.214
G1 X47.229 Y59.674 E140.6365
G0 X47.229 Y60.24
G1 X40.769 Y53.78 E141.09228
G0 X40.769 Y54.346
G1 X47.229 Y60.806 E141.54807
G0 X47.229 Y61.371
G1 X40.769 Y54.911 E142.00386
G0 X40.769 Y55.477
G1 X47.229 Y61.937 E142.45965
G0 X47.229 Y62.503
G1 X40.769 Y56.043 E142.91544
G0 X40.769 Y56.608
G1 X47.229 Y63.068 E143.37122
G0 X47.229 Y63.634
G1 X40.769 Y57.174 E143.82701
G0 X40.769 Y57.74
G1 X47.229 Y64.2 E144.2828
G0 X47.229 Y64.766
G1 X40.769 Y58.305 E144.73862
G0 X40.769 Y58.871
G1 X47.229 Y65.331 E145.19441
