;FLAVOR:Marlin
;TIME:8805
;Filament used: 11.4164m
;Layer height: 0.22
;MINX:59.2
;MINY:59.227
;MINZ:0.2
;MAXX:140.8
;MAXY:140.773
;MAXZ:49.92
;LINEARADVANCEPROCESSED
;Generated with Cura_SteamEngine 4.10.0
M140 S60
M105
M190 S60
M104 S212
M105
M109 S212
M82 ;absolute extrusion mode
G21 ;metric values
 G90 ;absolute positioning
 M82 ;set extruder to absolute mode
 M107 ;start with the fan off
 G28 X0 Y0 ;move X/Y to min endstops
 G28 Z0 ;move Z to min endstops
 G1 Z15.0 F150 ;move the platform down 15mm
 G92 E0 ;zero the extruded length
 G1 F200 E6 ;extrude 6 mm of feed stock
 G92 E0 ;zero the extruded length again
 G1 F150 
 ;Put printing message on LCD screen
 M117 Printing...
G92 E0
G92 E0
G1 F1800 E-1
;LAYER_COUNT:227
M900 K0.220000 T0 ;added by LinearAdvanceSettingPlugin
;LAYER:0
M107
G0 F4500 X62.854 Y63.068 Z0.2
;TYPE:SKIRT
G1 F1800 E0
G1 F1650 X63.411 Y62.509 E0.02546
G1 X64.072 Y61.972 E0.05294
G1 X64.921 Y61.356 E0.08678
G1 X65.583 Y60.925 E0.11226
G1 X66.332 Y60.542 E0.1394
G1 X67.283 Y60.119 E0.17298
G1 X68.02 Y59.835 E0.19846
G1 X68.825 Y59.618 E0.22536
G1 X69.851 Y59.399 E0.25921
G1 X70.63 Y59.273 E0.28467
G1 X71.479 Y59.227 E0.3121
G1 X72.521 Y59.227 E0.34572
G1 X73.31 Y59.267 E0.3712
G1 X74.149 Y59.399 E0.3986
G1 X75.175 Y59.618 E0.43245
G1 X75.938 Y59.822 E0.45793
G1 X76.717 Y60.119 E0.48483
G1 X77.668 Y60.542 E0.51841
G1 X78.372 Y60.899 E0.54387
G1 X79.079 Y61.356 E0.57103
G1 X79.928 Y61.972 E0.60488
G1 X80.211 Y62.2 E0.6166
G1 X119.791 Y62.2 E1.89354
G1 X120.072 Y61.972 E1.90522
G1 X120.921 Y61.356 E1.93906
G1 X121.583 Y60.925 E1.96454
G1 X122.332 Y60.542 E1.99168
G1 X123.283 Y60.119 E2.02526
G1 X124.02 Y59.835 E2.05075
G1 X124.825 Y59.618 E2.07764
G1 X125.851 Y59.399 E2.11149
G1 X126.63 Y59.273 E2.13695
G1 X127.479 Y59.227 E2.16438
G1 X128.521 Y59.227 E2.198
G1 X129.31 Y59.267 E2.22349
G1 X130.149 Y59.399 E2.25089
G1 X131.175 Y59.618 E2.28473
G1 X131.938 Y59.822 E2.31021
G1 X132.717 Y60.119 E2.33711
G1 X133.668 Y60.542 E2.37069
G1 X134.372 Y60.899 E2.39616
G1 X135.079 Y61.356 E2.42332
G1 X135.928 Y61.972 E2.45716
G1 X136.543 Y62.467 E2.48263
G1 X137.146 Y63.068 E2.51009
G1 X137.845 Y63.845 E2.54381
G1 X138.343 Y64.458 E2.56929
G1 X138.8 Y65.161 E2.59635
G1 X139.321 Y66.063 E2.62995
G1 X139.681 Y66.766 E2.65543
G1 X139.983 Y67.547 E2.68245
G1 X140.307 Y68.541 E2.71618
G1 X140.513 Y69.303 E2.74164
G1 X140.649 Y70.145 E2.76916
G1 X140.758 Y71.185 E2.8029
G1 X140.8 Y71.973 E2.82836
G1 X140.758 Y72.809 E2.85536
G1 X140.649 Y73.852 E2.88919
G1 X140.527 Y74.632 E2.91466
G1 X140.307 Y75.458 E2.94224
G1 X139.983 Y76.452 E2.97597
G1 X139.701 Y77.19 E3.00146
G1 X139.323 Y77.933 E3.02836
G1 X138.802 Y78.836 E3.06199
G1 X138.373 Y79.499 E3.08747
G1 X137.845 Y80.155 E3.11463
G1 X137.8 Y80.205 E3.1168
G1 X137.8 Y119.795 E4.39407
G1 X137.845 Y119.845 E4.39624
G1 X138.343 Y120.458 E4.42172
G1 X138.8 Y121.161 E4.44877
G1 X139.321 Y122.063 E4.48238
G1 X139.681 Y122.766 E4.50786
G1 X139.983 Y123.547 E4.53488
G1 X140.307 Y124.541 E4.5686
G1 X140.513 Y125.303 E4.59407
G1 X140.649 Y126.145 E4.62159
G1 X140.758 Y127.185 E4.65532
G1 X140.8 Y127.973 E4.68078
G1 X140.758 Y128.809 E4.70779
G1 X140.649 Y129.852 E4.74162
G1 X140.527 Y130.632 E4.76709
G1 X140.307 Y131.458 E4.79467
G1 X139.983 Y132.452 E4.8284
G1 X139.701 Y133.19 E4.85389
G1 X139.323 Y133.933 E4.88078
G1 X138.802 Y134.836 E4.91442
G1 X138.373 Y135.499 E4.93989
G1 X137.845 Y136.155 E4.96706
G1 X137.146 Y136.932 E5.00078
G1 X136.589 Y137.491 E5.02624
G1 X135.926 Y138.029 E5.05379
G1 X135.078 Y138.644 E5.08758
G1 X134.416 Y139.075 E5.11307
G1 X133.672 Y139.455 E5.14002
G1 X132.72 Y139.879 E5.17364
G1 X131.984 Y140.164 E5.19911
G1 X131.175 Y140.382 E5.22614
G1 X130.149 Y140.601 E5.25998
G1 X129.37 Y140.727 E5.28544
G1 X128.521 Y140.773 E5.31287
G1 X127.479 Y140.773 E5.34649
G1 X126.69 Y140.733 E5.37198
G1 X125.851 Y140.601 E5.39938
G1 X124.825 Y140.382 E5.43323
G1 X124.062 Y140.178 E5.45871
G1 X123.28 Y139.879 E5.48572
G1 X122.328 Y139.455 E5.51934
G1 X121.623 Y139.098 E5.54483
G1 X120.922 Y138.644 E5.57178
G1 X120.074 Y138.029 E5.60558
G1 X119.789 Y137.8 E5.61737
G1 X80.208 Y137.8 E6.89435
G1 X79.926 Y138.029 E6.90607
G1 X79.078 Y138.644 E6.93986
G1 X78.416 Y139.075 E6.96535
G1 X77.672 Y139.455 E6.9923
G1 X76.72 Y139.879 E7.02592
G1 X75.984 Y140.164 E7.05139
G1 X75.175 Y140.382 E7.07842
G1 X74.149 Y140.601 E7.11226
G1 X73.37 Y140.727 E7.13772
G1 X72.521 Y140.773 E7.16515
G1 X71.479 Y140.773 E7.19877
G1 X70.69 Y140.733 E7.22426
G1 X69.851 Y140.601 E7.25166
G1 X68.825 Y140.382 E7.28551
G1 X68.062 Y140.178 E7.31099
G1 X67.28 Y139.879 E7.338
G1 X66.328 Y139.455 E7.37162
G1 X65.623 Y139.098 E7.39711
G1 X64.922 Y138.644 E7.42406
G1 X64.074 Y138.029 E7.45786
G1 X63.459 Y137.534 E7.48332
G1 X62.854 Y136.932 E7.51086
G1 X62.155 Y136.155 E7.54458
G1 X61.657 Y135.542 E7.57006
G1 X61.198 Y134.836 E7.59723
G1 X60.677 Y133.933 E7.63086
G1 X60.317 Y133.23 E7.65634
G1 X60.017 Y132.452 E7.68324
G1 X59.693 Y131.458 E7.71697
G1 X59.487 Y130.696 E7.74244
G1 X59.352 Y129.855 E7.76992
G1 X59.243 Y128.816 E7.80362
G1 X59.2 Y128.027 E7.82912
G1 X59.242 Y127.192 E7.85609
G1 X59.351 Y126.148 E7.88996
G1 X59.473 Y125.368 E7.91543
G1 X59.693 Y124.541 E7.94303
G1 X60.017 Y123.547 E7.97676
G1 X60.299 Y122.809 E8.00225
G1 X60.679 Y122.063 E8.02926
G1 X61.2 Y121.161 E8.06287
G1 X61.629 Y120.498 E8.08835
G1 X62.155 Y119.845 E8.1154
G1 X62.2 Y119.795 E8.11757
G1 X62.2 Y80.205 E9.39483
G1 X62.155 Y80.155 E9.397
G1 X61.657 Y79.542 E9.42249
G1 X61.198 Y78.836 E9.44965
G1 X60.677 Y77.933 E9.48329
G1 X60.317 Y77.23 E9.50877
G1 X60.017 Y76.452 E9.53567
G1 X59.693 Y75.458 E9.5694
G1 X59.487 Y74.696 E9.59487
G1 X59.352 Y73.855 E9.62235
G1 X59.243 Y72.816 E9.65605
G1 X59.2 Y72.027 E9.68154
G1 X59.242 Y71.192 E9.70852
G1 X59.351 Y70.148 E9.74238
G1 X59.473 Y69.368 E9.76785
G1 X59.693 Y68.541 E9.79546
G1 X60.017 Y67.547 E9.82919
G1 X60.299 Y66.809 E9.85468
G1 X60.679 Y66.063 E9.88169
G1 X61.2 Y65.161 E9.9153
G1 X61.629 Y64.498 E9.94077
G1 X62.155 Y63.845 E9.96782
G1 X62.854 Y63.068 E10.00154
G0 F4500 X63.152 Y63.336
G1 F1650 X63.695 Y62.792 E10.02634
G1 X64.307 Y62.295 E10.05178
G1 X65.156 Y61.679 E10.08562
G1 X65.801 Y61.261 E10.11041
G1 X66.495 Y60.908 E10.13553
G1 X67.446 Y60.485 E10.16911
G1 X68.164 Y60.209 E10.19393
G1 X68.908 Y60.009 E10.21879
G1 X69.934 Y59.79 E10.25263
G1 X70.694 Y59.669 E10.27746
G1 X71.479 Y59.627 E10.30282
G1 X72.521 Y59.627 E10.33644
G1 X73.289 Y59.667 E10.36125
G1 X74.066 Y59.79 E10.38663
G1 X75.092 Y60.009 E10.42048
G1 X75.835 Y60.208 E10.44529
G1 X76.554 Y60.485 E10.47015
G1 X77.505 Y60.908 E10.50373
G1 X78.191 Y61.256 E10.52855
G1 X78.844 Y61.679 E10.55365
G1 X79.693 Y62.295 E10.58749
G1 X80.07 Y62.6 E10.60314
G1 X119.931 Y62.6 E11.88914
G1 X120.307 Y62.295 E11.90476
G1 X121.156 Y61.679 E11.93861
G1 X121.801 Y61.261 E11.9634
G1 X122.495 Y60.908 E11.98852
G1 X123.446 Y60.485 E12.0221
G1 X124.164 Y60.209 E12.04692
G1 X124.908 Y60.009 E12.07177
G1 X125.934 Y59.79 E12.10562
G1 X126.694 Y59.669 E12.13045
G1 X127.479 Y59.627 E12.15581
G1 X128.521 Y59.627 E12.18943
G1 X129.289 Y59.667 E12.21424
G1 X130.066 Y59.79 E12.23962
G1 X131.092 Y60.009 E12.27347
G1 X131.835 Y60.208 E12.29828
G1 X132.554 Y60.485 E12.32314
G1 X133.505 Y60.908 E12.35672
G1 X134.191 Y61.256 E12.38154
G1 X134.844 Y61.679 E12.40664
G1 X135.693 Y62.295 E12.44048
G1 X136.291 Y62.779 E12.4653
G1 X136.848 Y63.336 E12.49071
G1 X137.547 Y64.113 E12.52443
G1 X138.031 Y64.711 E12.54925
G1 X138.454 Y65.361 E12.57427
G1 X138.975 Y66.263 E12.60788
G1 X139.324 Y66.948 E12.63268
G1 X139.603 Y67.671 E12.65768
G1 X139.927 Y68.665 E12.69141
G1 X140.127 Y69.407 E12.71621
G1 X140.251 Y70.187 E12.74169
G1 X140.36 Y71.227 E12.77542
G1 X140.4 Y71.995 E12.80023
G1 X140.36 Y72.767 E12.82517
G1 X140.251 Y73.81 E12.85901
G1 X140.131 Y74.57 E12.88383
G1 X139.927 Y75.334 E12.90934
G1 X139.603 Y76.328 E12.94307
G1 X139.327 Y77.046 E12.96789
G1 X138.977 Y77.733 E12.99276
G1 X138.456 Y78.636 E13.0264
G1 X138.037 Y79.281 E13.05121
G1 X137.547 Y79.887 E13.07635
G1 X137.4 Y80.05 E13.08344
G1 X137.4 Y119.95 E14.3707
G1 X137.547 Y120.113 E14.37778
G1 X138.031 Y120.711 E14.4026
G1 X138.454 Y121.361 E14.42762
G1 X138.975 Y122.263 E14.46123
G1 X139.324 Y122.948 E14.48603
G1 X139.603 Y123.671 E14.51104
G1 X139.927 Y124.665 E14.54476
G1 X140.127 Y125.407 E14.56956
G1 X140.251 Y126.187 E14.59504
G1 X140.36 Y127.227 E14.62878
G1 X140.4 Y127.995 E14.65359
G1 X140.36 Y128.767 E14.67853
G1 X140.251 Y129.81 E14.71236
G1 X140.131 Y130.57 E14.73718
G1 X139.927 Y131.334 E14.76269
G1 X139.603 Y132.328 E14.79642
G1 X139.327 Y133.046 E14.82124
G1 X138.977 Y133.733 E14.84612
G1 X138.456 Y134.636 E14.87975
G1 X138.037 Y135.281 E14.90456
G1 X137.547 Y135.887 E14.92971
G1 X136.848 Y136.664 E14.96343
G1 X136.305 Y137.208 E14.98822
G1 X135.691 Y137.705 E15.01371
G1 X134.843 Y138.32 E15.0475
G1 X134.198 Y138.739 E15.07232
G1 X133.51 Y139.09 E15.09724
G1 X132.558 Y139.514 E15.13086
G1 X131.84 Y139.79 E15.15568
G1 X131.092 Y139.991 E15.18066
G1 X130.066 Y140.21 E15.21451
G1 X129.306 Y140.331 E15.23934
G1 X128.521 Y140.373 E15.2647
G1 X127.479 Y140.373 E15.29832
G1 X126.711 Y140.333 E15.32313
G1 X125.934 Y140.21 E15.34851
G1 X124.908 Y139.991 E15.38236
G1 X124.165 Y139.792 E15.40717
G1 X123.442 Y139.514 E15.43216
G1 X122.49 Y139.09 E15.46579
G1 X121.805 Y138.741 E15.49059
G1 X121.157 Y138.32 E15.51552
G1 X120.309 Y137.705 E15.54931
G1 X119.931 Y137.4 E15.56498
G1 X80.068 Y137.4 E16.85106
G1 X79.691 Y137.705 E16.8667
G1 X78.843 Y138.32 E16.9005
G1 X78.198 Y138.739 E16.92531
G1 X77.51 Y139.09 E16.95023
G1 X76.558 Y139.514 E16.98385
G1 X75.84 Y139.79 E17.00867
G1 X75.092 Y139.991 E17.03366
G1 X74.066 Y140.21 E17.06751
G1 X73.306 Y140.331 E17.09233
G1 X72.521 Y140.373 E17.1177
G1 X71.479 Y140.373 E17.15131
G1 X70.711 Y140.333 E17.17612
G1 X69.934 Y140.21 E17.2015
G1 X68.908 Y139.991 E17.23535
G1 X68.165 Y139.792 E17.26017
G1 X67.442 Y139.514 E17.28516
G1 X66.49 Y139.09 E17.31878
G1 X65.805 Y138.741 E17.34358
G1 X65.157 Y138.32 E17.36851
G1 X64.309 Y137.705 E17.40231
G1 X63.71 Y137.222 E17.42713
G1 X63.152 Y136.664 E17.45259
G1 X62.453 Y135.887 E17.48631
G1 X61.969 Y135.289 E17.51113
G1 X61.544 Y134.636 E17.53627
G1 X61.023 Y133.733 E17.5699
G1 X60.674 Y133.048 E17.59471
G1 X60.397 Y132.328 E17.61959
G1 X60.073 Y131.334 E17.65332
G1 X59.873 Y130.592 E17.67812
G1 X59.749 Y129.813 E17.70357
G1 X59.64 Y128.774 E17.73727
G1 X59.6 Y128.006 E17.76208
G1 X59.64 Y127.234 E17.78702
G1 X59.749 Y126.19 E17.82089
G1 X59.869 Y125.43 E17.84571
G1 X60.073 Y124.665 E17.87125
G1 X60.397 Y123.671 E17.90498
G1 X60.673 Y122.953 E17.9298
G1 X61.025 Y122.263 E17.95479
G1 X61.546 Y121.361 E17.98839
G1 X61.965 Y120.716 E18.01321
G1 X62.453 Y120.113 E18.03824
G1 X62.6 Y119.95 E18.04532
G1 X62.6 Y80.05 E19.33258
G1 X62.453 Y79.887 E19.33967
G1 X61.969 Y79.289 E19.36449
G1 X61.544 Y78.636 E19.38962
G1 X61.023 Y77.733 E19.42326
G1 X60.674 Y77.048 E19.44806
G1 X60.397 Y76.328 E19.47295
G1 X60.073 Y75.334 E19.50668
G1 X59.873 Y74.592 E19.53147
G1 X59.749 Y73.813 E19.55692
G1 X59.64 Y72.774 E19.59062
G1 X59.6 Y72.006 E19.61543
G1 X59.64 Y71.234 E19.64037
G1 X59.749 Y70.19 E19.67424
G1 X59.869 Y69.43 E19.69906
G1 X60.073 Y68.665 E19.72461
G1 X60.397 Y67.671 E19.75834
G1 X60.673 Y66.953 E19.78315
G1 X61.025 Y66.263 E19.80814
G1 X61.546 Y65.361 E19.84175
G1 X61.965 Y64.716 E19.86656
G1 X62.453 Y64.113 E19.89159
G1 X63.152 Y63.336 E19.92531
G0 F4500 X63.449 Y63.603
G1 F1650 X63.978 Y63.075 E19.94942
G1 X64.542 Y62.619 E19.97282
G1 X65.391 Y62.003 E20.00666
G1 X66.019 Y61.597 E20.03079
G1 X66.657 Y61.273 E20.05387
G1 X67.608 Y60.85 E20.08745
G1 X68.307 Y60.583 E20.11159
G1 X68.992 Y60.4 E20.13447
G1 X70.018 Y60.181 E20.16832
G1 X70.757 Y60.064 E20.19245
G1 X71.479 Y60.027 E20.21578
G1 X72.521 Y60.027 E20.2494
G1 X73.268 Y60.067 E20.27353
G1 X73.982 Y60.181 E20.29686
G1 X75.008 Y60.4 E20.3307
G1 X75.73 Y60.595 E20.35483
G1 X76.392 Y60.85 E20.37772
G1 X77.343 Y61.273 E20.4113
G1 X78.009 Y61.613 E20.43542
G1 X78.609 Y62.003 E20.45851
G1 X79.458 Y62.619 E20.49235
G1 X79.928 Y63 E20.51187
G1 X120.071 Y63 E21.80698
G1 X120.542 Y62.619 E21.82652
G1 X121.391 Y62.003 E21.86036
G1 X122.019 Y61.597 E21.88449
G1 X122.657 Y61.273 E21.90758
G1 X123.608 Y60.85 E21.94116
G1 X124.307 Y60.583 E21.9653
G1 X124.992 Y60.4 E21.98817
G1 X126.018 Y60.181 E22.02202
G1 X126.757 Y60.064 E22.04616
G1 X127.479 Y60.027 E22.06948
G1 X128.521 Y60.027 E22.1031
G1 X129.268 Y60.067 E22.12723
G1 X129.982 Y60.181 E22.15056
G1 X131.008 Y60.4 E22.18441
G1 X131.73 Y60.595 E22.20853
G1 X132.392 Y60.85 E22.23142
G1 X133.343 Y61.273 E22.265
G1 X134.009 Y61.613 E22.28913
G1 X134.609 Y62.003 E22.31221
G1 X135.458 Y62.619 E22.34605
G1 X136.039 Y63.09 E22.37018
G1 X136.551 Y63.603 E22.39357
G1 X137.25 Y64.38 E22.42729
G1 X137.72 Y64.962 E22.45142
G1 X138.108 Y65.561 E22.47445
G1 X138.629 Y66.463 E22.50805
G1 X138.968 Y67.13 E22.53219
G1 X139.222 Y67.795 E22.55516
G1 X139.546 Y68.789 E22.58889
G1 X139.74 Y69.511 E22.61301
G1 X139.853 Y70.228 E22.63642
G1 X139.962 Y71.268 E22.67016
G1 X140 Y72.015 E22.69429
G1 X139.962 Y72.726 E22.71726
G1 X139.853 Y73.769 E22.7511
G1 X139.736 Y74.507 E22.7752
G1 X139.546 Y75.21 E22.7987
G1 X139.222 Y76.204 E22.83243
G1 X138.953 Y76.902 E22.85656
G1 X138.63 Y77.533 E22.87943
G1 X138.109 Y78.436 E22.91306
G1 X137.701 Y79.063 E22.9372
G1 X137.25 Y79.62 E22.96032
G1 X137 Y79.898 E22.97238
G1 X137 Y120.102 E24.26946
G1 X137.25 Y120.38 E24.28152
G1 X137.72 Y120.962 E24.30565
G1 X138.108 Y121.561 E24.32868
G1 X138.629 Y122.463 E24.36229
G1 X138.968 Y123.13 E24.38642
G1 X139.222 Y123.795 E24.40939
G1 X139.546 Y124.789 E24.44312
G1 X139.74 Y125.511 E24.46724
G1 X139.853 Y126.228 E24.49066
G1 X139.962 Y127.268 E24.52439
G1 X140 Y128.015 E24.54852
G1 X139.962 Y128.726 E24.5715
G1 X139.853 Y129.769 E24.60533
G1 X139.736 Y130.507 E24.62944
G1 X139.546 Y131.21 E24.65293
G1 X139.222 Y132.204 E24.68666
G1 X138.953 Y132.902 E24.71079
G1 X138.63 Y133.533 E24.73366
G1 X138.109 Y134.436 E24.7673
G1 X137.701 Y135.063 E24.79143
G1 X137.25 Y135.62 E24.81455
G1 X136.551 Y136.397 E24.84827
G1 X136.022 Y136.925 E24.87238
G1 X135.457 Y137.382 E24.89583
G1 X134.609 Y137.997 E24.92963
G1 X133.98 Y138.403 E24.95378
G1 X133.347 Y138.724 E24.97668
G1 X132.395 Y139.148 E25.0103
G1 X131.696 Y139.416 E25.03445
G1 X131.008 Y139.6 E25.05743
G1 X129.982 Y139.819 E25.09127
G1 X129.243 Y139.936 E25.11541
G1 X128.521 Y139.973 E25.13874
G1 X127.479 Y139.973 E25.17235
G1 X126.732 Y139.933 E25.19649
G1 X126.018 Y139.819 E25.21982
G1 X124.992 Y139.6 E25.25366
G1 X124.27 Y139.405 E25.27779
G1 X123.605 Y139.148 E25.30079
G1 X122.653 Y138.724 E25.33441
G1 X121.987 Y138.384 E25.35854
G1 X121.391 Y137.997 E25.38146
G1 X120.543 Y137.382 E25.41526
G1 X120.072 Y137 E25.43483
G1 X79.929 Y137 E26.72993
G1 X79.457 Y137.382 E26.74952
G1 X78.609 Y137.997 E26.78332
G1 X77.98 Y138.403 E26.80747
G1 X77.347 Y138.724 E26.83037
G1 X76.395 Y139.148 E26.86399
G1 X75.696 Y139.416 E26.88814
G1 X75.008 Y139.6 E26.91112
G1 X73.982 Y139.819 E26.94497
G1 X73.243 Y139.936 E26.96911
G1 X72.521 Y139.973 E26.99243
G1 X71.479 Y139.973 E27.02605
G1 X70.732 Y139.933 E27.05018
G1 X70.018 Y139.819 E27.07351
G1 X68.992 Y139.6 E27.10736
G1 X68.27 Y139.405 E27.13148
G1 X67.605 Y139.148 E27.15448
G1 X66.653 Y138.724 E27.18811
G1 X65.987 Y138.384 E27.21223
G1 X65.391 Y137.997 E27.23516
G1 X64.543 Y137.382 E27.26895
G1 X63.962 Y136.911 E27.29308
G1 X63.449 Y136.397 E27.31651
G1 X62.75 Y135.62 E27.35023
G1 X62.28 Y135.038 E27.37437
