;FLAVOR:Marlin
;TIME:4235
;Filament used: 7.54701m
;Layer height: 0.28
;MINX:84.701
;MINY:84.727
;MINZ:0.2
;MAXX:150.299
;MAXY:150.273
;MAXZ:50.04
;LINEARADVANCEPROCESSED
;Generated with Cura_SteamEngine 4.10.0
M140 S60
M105
M190 S60
M104 S210
M105
M109 S210
M82 ;absolute extrusion mode
M190 S60.0
M109 S210.0
G21 ;metric values
G90 ;absolute positioning
M82 ;set extruder to absolute mode
M107 ;start with the fan off
G28 X0 Y0 ;move X/Y to min endstops
G28 Z0 ;move Z to min endstops
G1 Z15.0 F9000 ;move the platform down 15mm
G92 E0 ;zero the extruded length
G1 F200 E3 ;extrude 3mm of feed stock
G92 E0 ;zero the extruded length again
G34; Stepper AutoAlign
G28; Home
G29 P1; UBL AutoProbe
G29 P3; Extrapolate
G29 F10; Set Fade Height
G29 S1; Save UBL
G29 A; Ensure UBL Active
G29 T; Print Mesh to Serial
G29 L1; Load Mesh 1
M500; Store setting
M501; Recall settings
;M420 S1 Z2; fade leveling a 2 mm
G1 F9000;Put printing message on LCD screen
M117 Printing...
G1 F10000; SET FEEDRATE FAST
G1 Z2; RAISE Z-AXIS TO 2MM
G1 X20 Y20; MOVE CLOSE TO HOME
G1 Z.1; LOWER Z-AXIS TO .1MM
G1 F1500; SET FEEDRATE SLOW
G1 X200 E10; CLEAR FILLAMENT
G92 E0; ZERO EXTRUDER
G1 F1800; START AT TRAVEL SPEED
G92 E0
G92 E0
;LAYER_COUNT:179
M900 K0.080000 T0 ;added by LinearAdvanceSettingPlugin
;LAYER:0
M107
;MESH:square_tower.stl
G0 F3000 X91.9 Y143.1 Z0.2
;TYPE:WALL-INNER
G1 F1260 X115.9 Y143.1 E0.83416
G1 X115.9 Y143.6 E0.85154
G1 X119.1 Y143.6 E0.96276
G1 X119.1 Y143.1 E0.98014
G1 X143.1 Y143.1 E1.81431
G1 X143.101 Y119.1 E2.64847
G1 X143.6 Y119.1 E2.66581
G1 X143.599 Y115.9 E2.77704
G1 X143.1 Y115.9 E2.79438
G1 X143.1 Y91.9 E3.62854
G1 X119.1 Y91.9 E4.46271
G1 X119.1 Y91.4 E4.48009
G1 X115.9 Y91.4 E4.59131
G1 X115.9 Y91.9 E4.60869
G1 X91.9 Y91.9 E5.44285
G1 X91.899 Y111.9 E6.13799
G1 X91.4 Y111.9 E6.15533
G1 X91.401 Y115.1 E6.26655
G1 X91.9 Y115.1 E6.2839
G1 X91.9 Y143.1 E7.25709
G0 F3000 X93.641 Y146.9
G1 F1260 X93.515 Y147.292 E7.2714
G1 X93.06 Y148.081 E7.30306
G1 X92.441 Y148.768 E7.3352
G1 X91.698 Y149.308 E7.36712
G1 X90.86 Y149.681 E7.399
G1 X89.959 Y149.873 E7.43102
G1 X89.041 Y149.873 E7.46293
G1 X88.14 Y149.681 E7.49495
G1 X87.302 Y149.308 E7.52683
G1 X86.559 Y148.768 E7.55875
G1 X85.943 Y148.084 E7.59075
G1 X85.482 Y147.285 E7.62281
G1 X85.2 Y146.418 E7.6545
G1 X85.103 Y145.5 E7.68658
G1 X85.2 Y144.582 E7.71867
G1 X85.482 Y143.715 E7.75035
G1 X85.943 Y142.916 E7.78242
G1 X86.559 Y142.232 E7.81441
G1 X87.302 Y141.692 E7.84633
G1 X88.1 Y141.337 E7.87669
G1 X88.1 Y93.663 E9.53369
G1 X87.302 Y93.308 E9.56404
G1 X86.559 Y92.768 E9.59597
G1 X85.943 Y92.084 E9.62796
G1 X85.482 Y91.285 E9.66002
G1 X85.2 Y90.418 E9.69171
G1 X85.103 Y89.5 E9.7238
G1 X85.2 Y88.582 E9.75588
G1 X85.482 Y87.715 E9.78757
G1 X85.943 Y86.916 E9.81963
G1 X86.559 Y86.232 E9.85162
G1 X87.302 Y85.692 E9.88355
G1 X88.14 Y85.319 E9.91543
G1 X89.041 Y85.127 E9.94745
G1 X89.959 Y85.127 E9.97935
G1 X90.86 Y85.319 E10.01137
G1 X91.698 Y85.692 E10.04326
G1 X92.441 Y86.232 E10.07518
G1 X93.06 Y86.919 E10.10732
G1 X93.515 Y87.708 E10.13898
G1 X93.641 Y88.1 E10.15329
G1 X141.359 Y88.1 E11.81181
G1 X141.485 Y87.708 E11.82613
G1 X141.94 Y86.919 E11.85778
G1 X142.559 Y86.232 E11.88992
G1 X143.302 Y85.692 E11.92185
G1 X144.14 Y85.319 E11.95373
G1 X145.041 Y85.127 E11.98575
G1 X145.959 Y85.127 E12.01765
G1 X146.86 Y85.319 E12.04967
G1 X147.698 Y85.692 E12.08155
G1 X148.441 Y86.232 E12.11348
G1 X149.057 Y86.916 E12.14547
G1 X149.518 Y87.715 E12.17753
G1 X149.8 Y88.582 E12.20922
G1 X149.897 Y89.5 E12.24131
G1 X149.8 Y90.418 E12.27339
G1 X149.518 Y91.285 E12.30508
G1 X149.057 Y92.084 E12.33714
G1 X148.441 Y92.768 E12.36913
G1 X147.698 Y93.308 E12.40106
G1 X146.9 Y93.663 E12.43142
G1 X146.9 Y141.337 E14.08841
G1 X147.698 Y141.692 E14.11877
G1 X148.441 Y142.232 E14.15069
G1 X149.057 Y142.916 E14.18269
G1 X149.518 Y143.715 E14.21475
G1 X149.8 Y144.582 E14.24644
G1 X149.897 Y145.5 E14.27852
G1 X149.8 Y146.418 E14.31061
G1 X149.518 Y147.285 E14.34229
G1 X149.057 Y148.084 E14.37436
G1 X148.441 Y148.768 E14.40635
G1 X147.698 Y149.308 E14.43827
G1 X146.86 Y149.681 E14.47015
G1 X145.959 Y149.873 E14.50217
G1 X145.041 Y149.873 E14.53408
G1 X144.14 Y149.681 E14.5661
G1 X143.302 Y149.308 E14.59798
G1 X142.559 Y148.768 E14.6299
G1 X141.94 Y148.081 E14.66205
G1 X141.485 Y147.292 E14.6937
G1 X141.359 Y146.9 E14.70801
G1 X93.641 Y146.9 E16.36654
G0 F3000 X93.933 Y147.3
;TYPE:WALL-OUTER
G1 F1260 X93.884 Y147.453 E16.37212
G1 X93.384 Y148.319 E16.40688
G1 X92.709 Y149.068 E16.44192
G1 X91.901 Y149.655 E16.47664
G1 X90.984 Y150.063 E16.51152
G1 X90 Y150.273 E16.54649
G1 X89 Y150.273 E16.58125
G1 X88.016 Y150.063 E16.61622
G1 X87.099 Y149.655 E16.6511
G1 X86.291 Y149.068 E16.68582
G1 X85.616 Y148.319 E16.72086
G1 X85.116 Y147.452 E16.75565
G1 X84.806 Y146.499 E16.79048
G1 X84.701 Y145.5 E16.82539
G1 X84.806 Y144.501 E16.86031
G1 X85.116 Y143.548 E16.89514
G1 X85.616 Y142.681 E16.92992
G1 X86.291 Y141.932 E16.96497
G1 X87.099 Y141.345 E16.99968
G1 X87.7 Y141.077 E17.02255
G1 X87.7 Y93.923 E18.66148
G1 X87.099 Y93.655 E18.68435
G1 X86.291 Y93.068 E18.71906
G1 X85.616 Y92.319 E18.7541
G1 X85.116 Y91.452 E18.78889
G1 X84.806 Y90.499 E18.82372
G1 X84.701 Y89.5 E18.85864
G1 X84.806 Y88.501 E18.89355
G1 X85.116 Y87.548 E18.92838
G1 X85.616 Y86.681 E18.96317
G1 X86.291 Y85.932 E18.99821
G1 X87.099 Y85.345 E19.03292
G1 X88.016 Y84.937 E19.06781
G1 X89 Y84.727 E19.10278
G1 X90 Y84.727 E19.13754
G1 X90.984 Y84.937 E19.17251
G1 X91.901 Y85.345 E19.20739
G1 X92.709 Y85.932 E19.2421
G1 X93.384 Y86.681 E19.27715
G1 X93.884 Y87.547 E19.3119
G1 X93.933 Y87.7 E19.31749
G1 X141.067 Y87.7 E20.95572
G1 X141.116 Y87.547 E20.9613
G1 X141.616 Y86.681 E20.99606
G1 X142.291 Y85.932 E21.0311
G1 X143.099 Y85.345 E21.06581
G1 X144.016 Y84.937 E21.1007
G1 X145 Y84.727 E21.13567
G1 X146 Y84.727 E21.17043
G1 X146.984 Y84.937 E21.2054
G1 X147.901 Y85.345 E21.24028
G1 X148.709 Y85.932 E21.27499
G1 X149.384 Y86.681 E21.31004
G1 X149.884 Y87.548 E21.34482
G1 X150.194 Y88.501 E21.37966
G1 X150.299 Y89.5 E21.41457
G1 X150.194 Y90.499 E21.44948
G1 X149.884 Y91.452 E21.48431
G1 X149.384 Y92.319 E21.5191
G1 X148.709 Y93.068 E21.55414
G1 X147.901 Y93.655 E21.58886
G1 X147.3 Y93.923 E21.61173
G1 X147.3 Y141.077 E23.25065
G1 X147.901 Y141.345 E23.27352
G1 X148.709 Y141.932 E23.30824
G1 X149.384 Y142.681 E23.34328
G1 X149.884 Y143.548 E23.37807
G1 X150.194 Y144.501 E23.4129
G1 X150.299 Y145.5 E23.44781
G1 X150.194 Y146.499 E23.48273
G1 X149.884 Y147.452 E23.51756
G1 X149.384 Y148.319 E23.55234
G1 X148.709 Y149.068 E23.58739
G1 X147.901 Y149.655 E23.6221
G1 X146.984 Y150.063 E23.65698
G1 X146 Y150.273 E23.69196
G1 X145 Y150.273 E23.72671
G1 X144.016 Y150.063 E23.76168
G1 X143.099 Y149.655 E23.79657
G1 X142.291 Y149.068 E23.83128
G1 X141.616 Y148.319 E23.86632
G1 X141.116 Y147.453 E23.90108
G1 X141.067 Y147.3 E23.90666
G1 X93.933 Y147.3 E25.54489
G0 F3000 X92.3 Y142.7
G1 F1260 X116.3 Y142.7 E26.37906
G1 X116.3 Y143.2 E26.39644
G1 X118.7 Y143.2 E26.47985
G1 X118.7 Y142.7 E26.49723
G1 X142.7 Y142.7 E27.33139
G1 X142.701 Y118.7 E28.16556
G1 X143.2 Y118.7 E28.1829
G1 X143.199 Y116.3 E28.26632
G1 X142.7 Y116.3 E28.28366
G1 X142.7 Y92.3 E29.11783
G1 X118.7 Y92.3 E29.95199
G1 X118.7 Y91.8 E29.96937
G1 X116.3 Y91.8 E30.05279
G1 X116.3 Y92.3 E30.07016
G1 X92.3 Y92.3 E30.90433
G1 X92.299 Y112.3 E31.59947
G1 X91.8 Y112.3 E31.61681
G1 X91.801 Y114.7 E31.70023
G1 X92.3 Y114.7 E31.71757
G1 X92.3 Y142.7 E32.69076
G0 F3000 X91.51 Y143.49
;TYPE:SKIN
G1 F1260 X115.51 Y143.49 E33.52492
G1 X115.51 Y143.99 E33.5423
G1 X119.49 Y143.99 E33.68064
G1 X119.49 Y143.49 E33.69801
G1 X143.49 Y143.49 E34.53218
G1 X143.491 Y119.49 E35.36634
G1 X143.99 Y119.49 E35.38369
G1 X143.989 Y115.51 E35.52202
G1 X143.49 Y115.51 E35.53936
G1 X143.49 Y91.51 E36.37353
G1 X119.49 Y91.51 E37.20769
G1 X119.49 Y91.01 E37.22507
G1 X115.51 Y91.01 E37.3634
G1 X115.51 Y91.51 E37.38078
G1 X91.51 Y91.51 E38.21494
G1 X91.509 Y111.51 E38.91008
G1 X91.01 Y111.51 E38.92742
G1 X91.011 Y115.49 E39.06576
G1 X91.51 Y115.49 E39.0831
G1 X91.51 Y143.49 E40.05629
G0 F3000 X93.356 Y146.51
G1 F1260 X93.158 Y147.131 E40.07895
G1 X92.743 Y147.851 E40.10783
G1 X92.181 Y148.474 E40.13699
G1 X91.5 Y148.969 E40.16625
G1 X90.74 Y149.307 E40.19516
G1 X89.915 Y149.483 E40.22448
G1 X89.085 Y149.483 E40.25333
G1 X88.26 Y149.307 E40.28265
G1 X87.5 Y148.969 E40.31156
G1 X86.819 Y148.474 E40.34082
G1 X86.26 Y147.854 E40.36984
G1 X85.841 Y147.125 E40.39906
G1 X85.584 Y146.336 E40.4279
G1 X85.495 Y145.5 E40.45712
G1 X85.584 Y144.664 E40.48634
G1 X85.841 Y143.875 E40.51519
G1 X86.26 Y143.146 E40.54441
G1 X86.819 Y142.526 E40.57343
G1 X87.5 Y142.031 E40.60269
G1 X88.49 Y141.59 E40.64036
G1 X88.49 Y93.41 E42.31494
G1 X87.5 Y92.969 E42.35261
G1 X86.819 Y92.474 E42.38187
G1 X86.26 Y91.854 E42.41089
G1 X85.841 Y91.125 E42.44011
G1 X85.584 Y90.336 E42.46895
G1 X85.495 Y89.5 E42.49817
G1 X85.584 Y88.664 E42.52739
G1 X85.841 Y87.875 E42.55623
G1 X86.26 Y87.146 E42.58546
G1 X86.819 Y86.526 E42.61447
G1 X87.5 Y86.031 E42.64374
G1 X88.26 Y85.693 E42.67265
G1 X89.085 Y85.517 E42.70197
G1 X89.915 Y85.517 E42.73081
G1 X90.74 Y85.693 E42.76013
G1 X91.5 Y86.031 E42.78904
G1 X92.181 Y86.526 E42.8183
G1 X92.743 Y87.149 E42.84747
G1 X93.158 Y87.869 E42.87635
G1 X93.356 Y88.49 E42.89901
G1 X141.644 Y88.49 E44.57734
G1 X141.842 Y87.869 E44.6
G1 X142.257 Y87.149 E44.62888
G1 X142.819 Y86.526 E44.65804
G1 X143.5 Y86.031 E44.68731
G1 X144.26 Y85.693 E44.71622
G1 X145.085 Y85.517 E44.74554
G1 X145.915 Y85.517 E44.77438
G1 X146.74 Y85.693 E44.8037
G1 X147.5 Y86.031 E44.83261
G1 X148.181 Y86.526 E44.86187
G1 X148.74 Y87.146 E44.89089
G1 X149.159 Y87.875 E44.92011
G1 X149.416 Y88.664 E44.94896
G1 X149.505 Y89.5 E44.97818
G1 X149.416 Y90.336 E45.0074
G1 X149.159 Y91.125 E45.03624
G1 X148.74 Y91.854 E45.06546
G1 X148.181 Y92.474 E45.09448
G1 X147.5 Y92.969 E45.12374
G1 X146.51 Y93.41 E45.16141
G1 X146.51 Y141.59 E46.83599
G1 X147.5 Y142.031 E46.87366
G1 X148.181 Y142.526 E46.90292
G1 X148.74 Y143.146 E46.93194
G1 X149.159 Y143.875 E46.96116
G1 X149.416 Y144.664 E46.99
G1 X149.505 Y145.5 E47.01923
G1 X149.416 Y146.336 E47.04845
G1 X149.159 Y147.125 E47.07729
G1 X148.74 Y147.854 E47.10651
G1 X148.181 Y148.474 E47.13553
G1 X147.5 Y148.969 E47.16479
G1 X146.74 Y149.307 E47.1937
G1 X145.915 Y149.483 E47.22302
G1 X145.085 Y149.483 E47.25187
G1 X144.26 Y149.307 E47.28119
G1 X143.5 Y148.969 E47.3101
G1 X142.819 Y148.474 E47.33936
G1 X142.257 Y147.851 E47.36852
G1 X141.842 Y147.131 E47.3974
G1 X141.644 Y146.51 E47.42006
G1 X93.356 Y146.51 E49.0984
G0 F3000 X93.064 Y146.11
G1 F1260 X92.791 Y146.966 E49.12962
G1 X92.416 Y147.616 E49.15571
G1 X91.913 Y148.174 E49.18182
G1 X91.297 Y148.622 E49.20829
G1 X90.616 Y148.925 E49.2342
G1 X89.874 Y149.083 E49.26057
G1 X89.126 Y149.083 E49.28656
G1 X88.384 Y148.925 E49.31293
G1 X87.703 Y148.622 E49.33884
G1 X87.087 Y148.174 E49.36531
G1 X86.586 Y147.618 E49.39132
G1 X86.208 Y146.96 E49.4177
G1 X85.978 Y146.254 E49.44351
G1 X85.897 Y145.5 E49.46987
G1 X85.978 Y144.746 E49.49622
G1 X86.208 Y144.04 E49.52203
G1 X86.586 Y143.382 E49.54841
G1 X87.087 Y142.826 E49.57442
G1 X87.703 Y142.378 E49.60089
G1 X88.89 Y141.85 E49.64605
G1 X88.89 Y93.15 E51.3387
G1 X87.703 Y92.622 E51.38386
G1 X87.087 Y92.174 E51.41033
G1 X86.586 Y91.618 E51.43634
G1 X86.208 Y90.96 E51.46272
G1 X85.978 Y90.254 E51.48853
G1 X85.897 Y89.5 E51.51488
G1 X85.978 Y88.746 E51.54124
G1 X86.208 Y88.04 E51.56705
G1 X86.586 Y87.382 E51.59342
G1 X87.087 Y86.826 E51.61944
G1 X87.703 Y86.378 E51.64591
G1 X88.384 Y86.075 E51.67182
G1 X89.126 Y85.917 E51.69819
G1 X89.874 Y85.917 E51.72418
G1 X90.616 Y86.075 E51.75055
G1 X91.297 Y86.378 E51.77646
G1 X91.913 Y86.826 E51.80293
G1 X92.416 Y87.384 E51.82904
G1 X92.791 Y88.034 E51.85512
G1 X93.064 Y88.89 E51.88635
G1 X141.936 Y88.89 E53.58499
G1 X142.209 Y88.034 E53.61622
G1 X142.584 Y87.384 E53.6423
G1 X143.087 Y86.826 E53.66841
G1 X143.703 Y86.378 E53.69488
G1 X144.384 Y86.075 E53.72079
G1 X145.126 Y85.917 E53.74716
G1 X145.874 Y85.917 E53.77316
G1 X146.616 Y86.075 E53.79952
G1 X147.297 Y86.378 E53.82543
G1 X147.913 Y86.826 E53.8519
G1 X148.414 Y87.382 E53.87792
G1 X148.792 Y88.04 E53.90429
G1 X149.022 Y88.746 E53.9301
G1 X149.103 Y89.5 E53.95646
G1 X149.022 Y90.254 E53.98282
G1 X148.792 Y90.96 E54.00862
G1 X148.414 Y91.618 E54.035
G1 X147.913 Y92.174 E54.06101
G1 X147.297 Y92.622 E54.08748
G1 X146.11 Y93.15 E54.13264
G1 X146.11 Y141.85 E55.8253
G1 X147.297 Y142.378 E55.87045
G1 X147.913 Y142.826 E55.89692
G1 X148.414 Y143.382 E55.92294
G1 X148.792 Y144.04 E55.94931
G1 X149.022 Y144.746 E55.97512
G1 X149.103 Y145.5 E56.00148
G1 X149.022 Y146.254 E56.02783
G1 X148.792 Y146.96 E56.05364
G1 X148.414 Y147.618 E56.08002
G1 X147.913 Y148.174 E56.10603
G1 X147.297 Y148.622 E56.1325
G1 X146.616 Y148.925 E56.15841
G1 X145.874 Y149.083 E56.18478
G1 X145.126 Y149.083 E56.21078
G1 X144.384 Y148.925 E56.23714
G1 X143.703 Y148.622 E56.26305
G1 X143.087 Y148.174 E56.28952
G1 X142.584 Y147.616 E56.31564
G1 X142.209 Y146.966 E56.34172
G1 X141.936 Y146.11 E56.37295
G1 X93.064 Y146.11 E58.07158
G0 F3000 X91.11 Y143.89
G1 F1260 X115.11 Y143.89 E58.90575
G1 X115.11 Y144.39 E58.92312
G1 X119.89 Y144.39 E59.08926
G1 X119.89 Y143.89 E59.10664
G1 X143.89 Y143.89 E59.9408
G1 X143.891 Y119.89 E60.77497
G1 X144.39 Y119.89 E60.79231
G1 X144.389 Y115.11 E60.95845
G1 X143.89 Y115.11 E60.97579
G1 X143.89 Y91.11 E61.80996
G1 X119.89 Y91.11 E62.64412
G1 X119.89 Y90.61 E62.6615
G1 X115.11 Y90.61 E62.82764
G1 X115.11 Y91.11 E62.84502
G1 X91.11 Y91.11 E63.67918
G1 X91.109 Y111.11 E64.37432
G1 X90.61 Y111.11 E64.39166
G1 X90.611 Y115.89 E64.5578
G1 X91.11 Y115.89 E64.57514
G1 X91.11 Y143.89 E65.54833
G0 F3000 X88.049 Y148.577
G1 F1260 X86.394 Y146.922 E65.62968
G1 X86.324 Y146.852
G0 F3000 X86.142 Y146.105
G1 F1260 X88.882 Y148.845 E65.76436
G0 F3000 X89.504 Y148.901
G1 F1260 X86.08 Y145.477 E65.93267
G0 F3000 X86.134 Y144.966
G1 F1260 X90.031 Y148.862 E66.12419
G0 F3000 X90.498 Y148.763
G1 F1260 X86.243 Y144.509 E66.33332
G0 F3000 X86.387 Y144.087
G1 F1260 X90.899 Y148.599 E66.5551
G0 F3000 X91.276 Y148.411
G1 F1260 X86.593 Y143.727 E66.78531
G0 F3000 X86.82 Y143.389
G1 F1260 X91.604 Y148.173 E67.02046
G0 F3000 X91.907 Y147.91
G1 F1260 X87.089 Y143.092 E67.25728
G0 F3000 X87.391 Y142.828
G1 F1260 X92.176 Y147.613 E67.49248
G0 F3000 X92.404 Y147.276
G1 F1260 X87.718 Y142.59 E67.72282
G0 F3000 X88.094 Y142.4
G1 F1260 X92.611 Y146.917 E67.94484
G0 F3000 X92.753 Y146.493
G1 F1260 X88.486 Y142.226 E68.15458
G0 F3000 X88.877 Y142.052
G1 F1260 X92.889 Y146.064 E68.35179
G0 F3000 X93.32 Y145.929
G1 F1260 X91.46 Y144.069 E68.44321
G0 F3000 X92.026 Y144.069
G1 F1260 X93.886 Y145.929 E68.53464
G0 F3000 X94.451 Y145.929
G1 F1260 X92.592 Y144.069 E68.62604
G0 F3000 X93.157 Y144.069
G1 F1260 X95.017 Y145.929 E68.71746
G0 F3000 X95.583 Y145.929
G1 F1260 X93.723 Y144.069 E68.80889
G0 F3000 X94.289 Y144.069
G1 F1260 X96.148 Y145.929 E68.90029
G0 F3000 X96.714 Y145.929
G1 F1260 X94.854 Y144.069 E68.99172
G0 F3000 X95.42 Y144.069
G1 F1260 X97.28 Y145.929 E69.08314
G0 F3000 X97.845 Y145.929
G1 F1260 X95.986 Y144.069 E69.17454
G0 F3000 X96.551 Y144.069
G1 F1260 X98.411 Y145.929 E69.26597
G0 F3000 X98.977 Y145.929
G1 F1260 X97.117 Y144.069 E69.35739
G0 F3000 X97.683 Y144.069
G1 F1260 X99.542 Y145.929 E69.4488
G0 F3000 X100.108 Y145.929
G1 F1260 X98.248 Y144.069 E69.54022
G0 F3000 X98.814 Y144.069
G1 F1260 X100.674 Y145.929 E69.63165
G0 F3000 X101.24 Y145.929
G1 F1260 X99.38 Y144.069 E69.72307
G0 F3000 X99.946 Y144.069
